(.../pcb-gcode-3.6.0.4/pcb-gcode.ulp)
(Copyright 2005 - 2012 by John Johnson)
(See readme.txt for licensing terms.)
(This file generated from the board:)
(.../AJ4UO Ant Rotor Interface/AJ4UO_Rotor_Interface.brd)
(Current profile is .../pcb-gcode-3.6.0.4/profiles/mach.pp  )
(This file generated 2/18/2017 4:27 PM)
(Settings from pcb-machine.h)
(  Tool Size)
(0.1000  )
(Z Axis Settings)
(  High     Up        Down     Drill)
(12.7000 	2.5400  	-0.1778 	-1.5300 )
(spindle on time = 3.0000)
(milling depth = -0.2540)
(text depth = -0.1270)
(tool change at 12.7000 15.2400 25.4000 )
(feed rate xy = F75    )
(feed rate z  = F100   )
(Settings from pcb-defaults.h)
(isolate min = 0.1000)
(isolate max = 0.5080)
(isolate step = 0.0800)
(Generated bottom outlines, bottom drill, )
(Unit of measure: mm)
(Metric Mode)
G21
(Absolute Coordinates)
G90
G00 X0.0000  Y0.0000  
M03
G04 P3.000000
G00 Z2.5400  
G00 X-4.7366 Y9.1401  
G01 Z-0.1778 F100   
G01 X-7.9634 Y9.1401  F75    
G01 X-8.1785 Y9.1684  
G01 X-8.3881 Y9.2245  
G01 X-8.5885 Y9.3075  
G01 X-8.7764 Y9.4160  
G01 X-8.9485 Y9.5481  
G01 X-9.1019 Y9.7015  
G01 X-9.2339 Y9.8736  
G01 X-9.3424 Y10.0615 
G01 X-9.4254 Y10.2619 
G01 X-9.4816 Y10.4714 
G01 X-9.5099 Y10.6865 
G01 X-9.5099 Y10.9035 
G01 X-9.4816 Y11.1186 
G01 X-9.4254 Y11.3281 
G01 X-9.3424 Y11.5285 
G01 X-9.2339 Y11.7164 
G01 X-9.1019 Y11.8885 
G01 X-8.9485 Y12.0419 
G01 X-8.7764 Y12.1740 
G01 X-8.5885 Y12.2825 
G01 X-8.3881 Y12.3655 
G01 X-8.1785 Y12.4216 
G01 X-7.9647 Y12.4498 
G01 X-8.5474 Y13.6151 
G01 X-8.5988 Y13.8029 
G01 X-8.6126 Y13.9970 
G01 X-8.5883 Y14.1902 
G01 X-8.5267 Y14.3748 
G01 X-8.4303 Y14.5439 
G01 X-8.3028 Y14.6910 
G01 X-8.1490 Y14.8103 
G01 X-7.9749 Y14.8974 
G01 X-7.7871 Y14.9488 
G01 X-7.5930 Y14.9626 
G01 X-7.3998 Y14.9383 
G01 X-7.2152 Y14.8767 
G01 X-7.0461 Y14.7803 
G01 X-6.8990 Y14.6528 
G01 X-6.7797 Y14.4990 
G01 X-5.7551 Y12.4499 
G01 X-4.7366 Y12.4499 
G01 X-4.5215 Y12.4216 
G01 X-4.3119 Y12.3655 
G01 X-4.1115 Y12.2825 
G01 X-3.9236 Y12.1740 
G01 X-3.7515 Y12.0419 
G01 X-3.5981 Y11.8885 
G01 X-3.4661 Y11.7164 
G01 X-3.3576 Y11.5285 
G01 X-3.2746 Y11.3281 
G01 X-3.2184 Y11.1186 
G01 X-3.1901 Y10.9035 
G01 X-3.1901 Y10.6865 
G01 X-3.2184 Y10.4714 
G01 X-3.2746 Y10.2619 
G01 X-3.3576 Y10.0615 
G01 X-3.4661 Y9.8736  
G01 X-3.5981 Y9.7015  
G01 X-3.7515 Y9.5481  
G01 X-3.9236 Y9.4160  
G01 X-4.1115 Y9.3075  
G01 X-4.3119 Y9.2245  
G01 X-4.5215 Y9.1684  
G01 X-4.7366 Y9.1401  
G00 Z2.5400  
G00 X-13.5607 Y12.4182 
G01 Z-0.1778 F100   
G01 X-13.2726 Y12.1301 F75    
G01 X-13.2031 Y12.0607 
G01 X-12.9818 Y11.8393 
G01 X-12.9818 Y11.4304 
G01 X-12.9817 Y11.3337 
G01 X-12.9818 Y11.0207 
G01 X-13.2699 Y10.7326 
G01 X-13.3393 Y10.6631 
G01 X-13.5607 Y10.4418 
G01 X-13.9696 Y10.4418 
G01 X-14.0663 Y10.4417 
G01 X-14.3793 Y10.4418 
G01 X-14.5996 Y10.6620 
G01 X-18.4091 Y13.2018 
G01 X-18.5469 Y13.3393 
G01 X-18.6552 Y13.5010 
G01 X-18.7299 Y13.6808 
G01 X-18.7681 Y13.8716 
G01 X-18.7683 Y14.0663 
G01 X-18.7305 Y14.2573 
G01 X-18.6562 Y14.4372 
G01 X-18.5482 Y14.5991 
G01 X-18.4107 Y14.7369 
G01 X-18.2490 Y14.8452 
G01 X-18.0692 Y14.9199 
G01 X-17.8784 Y14.9581 
G01 X-17.6837 Y14.9583 
G01 X-17.4927 Y14.9205 
G01 X-17.3128 Y14.8462 
G01 X-13.6708 Y12.4182 
G01 X-13.5607 Y12.4182 
G00 Z2.5400  
G00 X-14.3793 Y7.3382  
G01 Z-0.1778 F100   
G01 X-14.0668 Y7.3382  F75    
G01 X-14.0663 Y7.3383  
G01 X-13.9697 Y7.3382  
G01 X-13.5607 Y7.3382  
G01 X-13.3397 Y7.1172  
G01 X-13.2699 Y7.0475  
G01 X-12.9818 Y6.7593  
G01 X-12.9818 Y6.4468  
G01 X-12.9818 Y6.3497  
G01 X-12.9818 Y5.9407  
G01 X-13.2028 Y5.7197  
G01 X-13.2725 Y5.6499  
G01 X-13.5607 Y5.3618  
G01 X-13.6708 Y5.3618  
G01 X-17.3128 Y2.9338  
G01 X-17.4927 Y2.8595  
G01 X-17.6837 Y2.8217  
G01 X-17.8784 Y2.8219  
G01 X-18.0692 Y2.8601  
G01 X-18.2490 Y2.9348  
G01 X-18.4107 Y3.0431  
G01 X-18.5482 Y3.1809  
G01 X-18.6562 Y3.3428  
G01 X-18.7305 Y3.5227  
G01 X-18.7683 Y3.7137  
G01 X-18.7681 Y3.9084  
G01 X-18.7299 Y4.0992  
G01 X-18.6552 Y4.2790  
G01 X-18.5469 Y4.4407  
G01 X-18.4091 Y4.5782  
G01 X-14.5996 Y7.1180  
G01 X-14.3793 Y7.3382  
G00 Z2.5400  
G00 X-12.4182 Y8.4807  
G01 Z-0.1778 F100   
G01 X-12.4182 Y16.6073 F75    
G01 X-12.3802 Y16.7982 
G01 X-12.3057 Y16.9781 
G01 X-12.1976 Y17.1399 
G01 X-12.0599 Y17.2776 
G01 X-11.8981 Y17.3857 
G01 X-11.7182 Y17.4602 
G01 X-11.5273 Y17.4982 
G01 X-11.3327 Y17.4982 
G01 X-11.1418 Y17.4602 
G01 X-10.9619 Y17.3857 
G01 X-10.8001 Y17.2776 
G01 X-10.6624 Y17.1399 
G01 X-10.5543 Y16.9781 
G01 X-10.4798 Y16.7982 
G01 X-10.4418 Y16.6073 
G01 X-10.4418 Y8.4807  
G01 X-10.6624 Y8.2601  
G01 X-10.8001 Y8.1224  
G01 X-11.0207 Y7.9018  
G01 X-11.8393 Y7.9018  
G01 X-12.0599 Y8.1224  
G01 X-12.1976 Y8.2601  
G01 X-12.4182 Y8.4807  
G00 Z2.5400  
G00 X-12.4182 Y1.1727  
G01 Z-0.1778 F100   
G01 X-12.4182 Y1.3673  F75    
G01 X-12.3802 Y1.5582  
G01 X-12.3057 Y1.7381  
G01 X-12.1976 Y1.8999  
G01 X-12.0599 Y2.0376  
G01 X-11.8981 Y2.1457  
G01 X-11.7182 Y2.2202  
G01 X-11.5273 Y2.2582  
G01 X-11.3327 Y2.2582  
G01 X-11.1418 Y2.2202  
G01 X-10.9619 Y2.1457  
G01 X-10.8001 Y2.0376  
G01 X-10.6624 Y1.8999  
G01 X-10.5543 Y1.7381  
G01 X-10.4798 Y1.5582  
G01 X-10.4418 Y1.3673  
G01 X-10.4418 Y1.1727  
G01 X-10.4798 Y0.9818  
G01 X-10.5543 Y0.8019  
G01 X-10.6624 Y0.6401  
G01 X-10.8001 Y0.5024  
G01 X-10.9619 Y0.3943  
G01 X-11.1418 Y0.3198  
G01 X-11.3327 Y0.2818  
G01 X-11.5273 Y0.2818  
G01 X-11.7182 Y0.3198  
G01 X-11.8981 Y0.3943  
G01 X-12.0599 Y0.5024  
G01 X-12.1976 Y0.6401  
G01 X-12.3057 Y0.8019  
G01 X-12.3802 Y0.9818  
G01 X-12.4182 Y1.1727  
G00 Z2.5400  
G00 X-14.9582 Y1.1727  
G01 Z-0.1778 F100   
G01 X-14.9582 Y1.3673  F75    
G01 X-14.9202 Y1.5582  
G01 X-14.8457 Y1.7381  
G01 X-14.7376 Y1.8999  
G01 X-14.5999 Y2.0376  
G01 X-14.4381 Y2.1457  
G01 X-14.2582 Y2.2202  
G01 X-14.0673 Y2.2582  
G01 X-13.8727 Y2.2582  
G01 X-13.6818 Y2.2202  
G01 X-13.5019 Y2.1457  
G01 X-13.3401 Y2.0376  
G01 X-13.2024 Y1.8999  
G01 X-13.0943 Y1.7381  
G01 X-13.0198 Y1.5582  
G01 X-12.9818 Y1.3673  
G01 X-12.9818 Y1.1727  
G01 X-13.0198 Y0.9818  
G01 X-13.0943 Y0.8019  
G01 X-13.2024 Y0.6401  
G01 X-13.3401 Y0.5024  
G01 X-13.5019 Y0.3943  
G01 X-13.6818 Y0.3198  
G01 X-13.8727 Y0.2818  
G01 X-14.0673 Y0.2818  
G01 X-14.2582 Y0.3198  
G01 X-14.4381 Y0.3943  
G01 X-14.5999 Y0.5024  
G01 X-14.7376 Y0.6401  
G01 X-14.8457 Y0.8019  
G01 X-14.9202 Y0.9818  
G01 X-14.9582 Y1.1727  
G00 Z2.5400  
G00 X-17.4982 Y1.1727  
G01 Z-0.1778 F100   
G01 X-17.4982 Y1.3673  F75    
G01 X-17.4602 Y1.5582  
G01 X-17.3857 Y1.7381  
G01 X-17.2776 Y1.8999  
G01 X-17.1399 Y2.0376  
G01 X-16.9781 Y2.1457  
G01 X-16.7982 Y2.2202  
G01 X-16.6073 Y2.2582  
G01 X-16.4127 Y2.2582  
G01 X-16.2218 Y2.2202  
G01 X-16.0419 Y2.1457  
G01 X-15.8801 Y2.0376  
G01 X-15.7424 Y1.8999  
G01 X-15.6343 Y1.7381  
G01 X-15.5598 Y1.5582  
G01 X-15.5218 Y1.3673  
G01 X-15.5218 Y1.1727  
G01 X-15.5598 Y0.9818  
G01 X-15.6343 Y0.8019  
G01 X-15.7424 Y0.6401  
G01 X-15.8801 Y0.5024  
G01 X-16.0419 Y0.3943  
G01 X-16.2218 Y0.3198  
G01 X-16.4127 Y0.2818  
G01 X-16.6073 Y0.2818  
G01 X-16.7982 Y0.3198  
G01 X-16.9781 Y0.3943  
G01 X-17.1399 Y0.5024  
G01 X-17.2776 Y0.6401  
G01 X-17.3857 Y0.8019  
G01 X-17.4602 Y0.9818  
G01 X-17.4982 Y1.1727  
G00 Z2.5400  
G00 X-9.8782 Y1.1727  
G01 Z-0.1778 F100   
G01 X-9.8782 Y1.3673  F75    
G01 X-9.8402 Y1.5582  
G01 X-9.7657 Y1.7381  
G01 X-9.6576 Y1.8999  
G01 X-9.5199 Y2.0376  
G01 X-9.3581 Y2.1457  
G01 X-9.1782 Y2.2202  
G01 X-8.9873 Y2.2582  
G01 X-8.7927 Y2.2582  
G01 X-8.6018 Y2.2202  
G01 X-8.4219 Y2.1457  
G01 X-8.2601 Y2.0376  
G01 X-8.1224 Y1.8999  
G01 X-8.0143 Y1.7381  
G01 X-7.9398 Y1.5582  
G01 X-7.9018 Y1.3673  
G01 X-7.9018 Y1.1727  
G01 X-7.9398 Y0.9818  
G01 X-8.0143 Y0.8019  
G01 X-8.1224 Y0.6401  
G01 X-8.2601 Y0.5024  
G01 X-8.4219 Y0.3943  
G01 X-8.6018 Y0.3198  
G01 X-8.7927 Y0.2818  
G01 X-8.9873 Y0.2818  
G01 X-9.1782 Y0.3198  
G01 X-9.3581 Y0.3943  
G01 X-9.5199 Y0.5024  
G01 X-9.6576 Y0.6401  
G01 X-9.7657 Y0.8019  
G01 X-9.8402 Y0.9818  
G01 X-9.8782 Y1.1727  
G00 Z2.5400  
G00 X-7.3382 Y1.1727  
G01 Z-0.1778 F100   
G01 X-7.3382 Y1.3673  F75    
G01 X-7.3002 Y1.5582  
G01 X-7.2257 Y1.7381  
G01 X-7.1176 Y1.8999  
G01 X-6.9799 Y2.0376  
G01 X-6.8181 Y2.1457  
G01 X-6.6382 Y2.2202  
G01 X-6.4473 Y2.2582  
G01 X-6.2527 Y2.2582  
G01 X-6.0617 Y2.2202  
G01 X-5.8819 Y2.1457  
G01 X-5.7201 Y2.0376  
G01 X-5.5824 Y1.8999  
G01 X-5.4743 Y1.7381  
G01 X-5.3998 Y1.5582  
G01 X-5.3618 Y1.3673  
G01 X-5.3618 Y1.1727  
G01 X-5.3998 Y0.9818  
G01 X-5.4743 Y0.8019  
G01 X-5.5824 Y0.6401  
G01 X-5.7201 Y0.5024  
G01 X-5.8819 Y0.3943  
G01 X-6.0617 Y0.3198  
G01 X-6.2527 Y0.2818  
G01 X-6.4473 Y0.2818  
G01 X-6.6382 Y0.3198  
G01 X-6.8181 Y0.3943  
G01 X-6.9799 Y0.5024  
G01 X-7.1176 Y0.6401  
G01 X-7.2257 Y0.8019  
G01 X-7.3002 Y0.9818  
G01 X-7.3382 Y1.1727  
G00 Z2.5400  
G00 X-2.9343 Y1.7381  
G01 Z-0.1778 F100   
G01 X-2.9104 Y1.6806  F75    
G01 X-2.8826 Y1.6249  
G01 X-2.8733 Y1.5908  
G01 X-2.8598 Y1.5582  
G01 X-2.8476 Y1.4972  
G01 X-2.8312 Y1.4371  
G01 X-2.8287 Y1.4019  
G01 X-2.8218 Y1.3673  
G01 X-2.8218 Y1.3051  
G01 X-2.8174 Y1.2430  
G01 X-2.8218 Y1.2080  
G01 X-2.8218 Y1.1727  
G01 X-2.8340 Y1.1116  
G01 X-2.8417 Y1.0498  
G01 X-2.8529 Y1.0164  
G01 X-2.8598 Y0.9818  
G01 X-2.8836 Y0.9242  
G01 X-2.9033 Y0.8652  
G01 X-2.9208 Y0.8345  
G01 X-2.9343 Y0.8019  
G01 X-2.9689 Y0.7501  
G01 X-2.9997 Y0.6961  
G01 X-3.0228 Y0.6694  
G01 X-3.0424 Y0.6401  
G01 X-3.0864 Y0.5961  
G01 X-3.1272 Y0.5490  
G01 X-3.1551 Y0.5274  
G01 X-3.1801 Y0.5024  
G01 X-3.2318 Y0.4678  
G01 X-3.2810 Y0.4297  
G01 X-3.3126 Y0.4139  
G01 X-3.3419 Y0.3943  
G01 X-3.3994 Y0.3704  
G01 X-3.4551 Y0.3426  
G01 X-3.4891 Y0.3333  
G01 X-3.5218 Y0.3198  
G01 X-3.5828 Y0.3076  
G01 X-3.6429 Y0.2912  
G01 X-3.6781 Y0.2887  
G01 X-3.7127 Y0.2818  
G01 X-3.7749 Y0.2818  
G01 X-3.8370 Y0.2774  
G01 X-3.8720 Y0.2818  
G01 X-3.9073 Y0.2818  
G01 X-3.9684 Y0.2939  
G01 X-4.0302 Y0.3017  
G01 X-4.0636 Y0.3129  
G01 X-4.0982 Y0.3198  
G01 X-4.1558 Y0.3436  
G01 X-4.2148 Y0.3633  
G01 X-4.2455 Y0.3808  
G01 X-4.2781 Y0.3943  
G01 X-4.3299 Y0.4289  
G01 X-4.3839 Y0.4597  
G01 X-4.4106 Y0.4828  
G01 X-4.4399 Y0.5024  
G01 X-4.4839 Y0.5464  
G01 X-4.5310 Y0.5872  
G01 X-4.5526 Y0.6151  
G01 X-4.5776 Y0.6401  
G01 X-4.6122 Y0.6918  
G01 X-4.6503 Y0.7410  
G01 X-4.6661 Y0.7726  
G01 X-4.6857 Y0.8019  
G01 X-4.7096 Y0.8594  
G01 X-6.3500 Y4.1403  
G01 X-6.7797 Y3.2810  
G01 X-6.8990 Y3.1272  
G01 X-7.0461 Y2.9997  
G01 X-7.2152 Y2.9033  
G01 X-7.3998 Y2.8417  
G01 X-7.5930 Y2.8174  
G01 X-7.7871 Y2.8312  
G01 X-7.9749 Y2.8826  
G01 X-8.1490 Y2.9697  
G01 X-8.3028 Y3.0890  
G01 X-8.4303 Y3.2361  
G01 X-8.5267 Y3.4052  
G01 X-8.5883 Y3.5898  
G01 X-8.6126 Y3.7830  
G01 X-8.5988 Y3.9771  
G01 X-8.5474 Y4.1649  
G01 X-8.2576 Y4.7446  
G01 X-8.3881 Y4.7795  
G01 X-8.5885 Y4.8625  
G01 X-8.7764 Y4.9710  
G01 X-8.9485 Y5.1031  
G01 X-9.1019 Y5.2565  
G01 X-9.2339 Y5.4286  
G01 X-9.3424 Y5.6165  
G01 X-9.4254 Y5.8169  
G01 X-9.4816 Y6.0264  
G01 X-9.5099 Y6.2415  
G01 X-9.5099 Y6.4585  
G01 X-9.4816 Y6.6736  
G01 X-9.4254 Y6.8831  
G01 X-9.3424 Y7.0835  
G01 X-9.2339 Y7.2714  
G01 X-9.1019 Y7.4435  
G01 X-8.9485 Y7.5969  
G01 X-8.7764 Y7.7290  
G01 X-8.5885 Y7.8375  
G01 X-8.3881 Y7.9205  
G01 X-8.1785 Y7.9766  
G01 X-7.9634 Y8.0049  
G01 X-4.7366 Y8.0049  
G01 X-4.5215 Y7.9766  
G01 X-4.3119 Y7.9205  
G01 X-4.1115 Y7.8375  
G01 X-3.9236 Y7.7290  
G01 X-3.7515 Y7.5969  
G01 X-3.5981 Y7.4435  
G01 X-3.4661 Y7.2714  
G01 X-3.3576 Y7.0835  
G01 X-3.2746 Y6.8831  
G01 X-3.2184 Y6.6736  
G01 X-3.1901 Y6.4585  
G01 X-3.1901 Y6.2415  
G01 X-3.2184 Y6.0264  
G01 X-3.2746 Y5.8169  
G01 X-3.3576 Y5.6165  
G01 X-3.4661 Y5.4286  
G01 X-3.5981 Y5.2565  
G01 X-3.7515 Y5.1031  
G01 X-3.9236 Y4.9710  
G01 X-4.1115 Y4.8625  
G01 X-4.3119 Y4.7795  
G01 X-4.4424 Y4.7446  
G01 X-2.9539 Y1.7674  
G01 X-2.9343 Y1.7381  
G00 Z2.5400  
G00 X-2.2582 Y4.9827  
G01 Z-0.1778 F100   
G01 X-2.2582 Y5.1773  F75    
G01 X-2.2202 Y5.3682  
G01 X-2.1457 Y5.5481  
G01 X-2.0376 Y5.7099  
G01 X-1.8999 Y5.8476  
G01 X-1.7381 Y5.9557  
G01 X-1.5582 Y6.0302  
G01 X-1.3673 Y6.0682  
G01 X-1.1727 Y6.0682  
G01 X-0.9818 Y6.0302  
G01 X-0.8019 Y5.9557  
G01 X-0.6401 Y5.8476  
G01 X-0.5024 Y5.7099  
G01 X-0.3943 Y5.5481  
G01 X-0.3198 Y5.3682  
G01 X-0.2818 Y5.1773  
G01 X-0.2818 Y4.9827  
G01 X-0.3198 Y4.7918  
G01 X-0.3943 Y4.6119  
G01 X-0.5024 Y4.4501  
G01 X-0.6401 Y4.3124  
G01 X-0.8019 Y4.2043  
G01 X-0.9818 Y4.1298  
G01 X-1.1727 Y4.0918  
G01 X-1.3673 Y4.0918  
G01 X-1.5582 Y4.1298  
G01 X-1.7381 Y4.2043  
G01 X-1.8999 Y4.3124  
G01 X-2.0376 Y4.4501  
G01 X-2.1457 Y4.6119  
G01 X-2.2202 Y4.7918  
G01 X-2.2582 Y4.9827  
G00 Z2.5400  
G00 X-2.2582 Y2.4427  
G01 Z-0.1778 F100   
G01 X-2.2582 Y2.6373  F75    
G01 X-2.2202 Y2.8282  
G01 X-2.1457 Y3.0081  
G01 X-2.0376 Y3.1699  
G01 X-1.8999 Y3.3076  
G01 X-1.7381 Y3.4157  
G01 X-1.5582 Y3.4902  
G01 X-1.3673 Y3.5282  
G01 X-1.1727 Y3.5282  
G01 X-0.9818 Y3.4902  
G01 X-0.8019 Y3.4157  
G01 X-0.6401 Y3.3076  
G01 X-0.5024 Y3.1699  
G01 X-0.3943 Y3.0081  
G01 X-0.3198 Y2.8282  
G01 X-0.2818 Y2.6373  
G01 X-0.2818 Y2.4427  
G01 X-0.3198 Y2.2517  
G01 X-0.3943 Y2.0719  
G01 X-0.5024 Y1.9101  
G01 X-0.6401 Y1.7724  
G01 X-0.8019 Y1.6643  
G01 X-0.9818 Y1.5898  
G01 X-1.1727 Y1.5518  
G01 X-1.3673 Y1.5518  
G01 X-1.5582 Y1.5898  
G01 X-1.7381 Y1.6643  
G01 X-1.8999 Y1.7724  
G01 X-2.0376 Y1.9101  
G01 X-2.1457 Y2.0719  
G01 X-2.2202 Y2.2517  
G01 X-2.2582 Y2.4427  
G00 Z2.5400  
G00 X-14.9582 Y16.4127 
G01 Z-0.1778 F100   
G01 X-14.9582 Y16.6073 F75    
G01 X-14.9202 Y16.7982 
G01 X-14.8457 Y16.9781 
G01 X-14.7376 Y17.1399 
G01 X-14.5999 Y17.2776 
G01 X-14.4381 Y17.3857 
G01 X-14.2582 Y17.4602 
G01 X-14.0673 Y17.4982 
G01 X-13.8727 Y17.4982 
G01 X-13.6818 Y17.4602 
G01 X-13.5019 Y17.3857 
G01 X-13.3401 Y17.2776 
G01 X-13.2024 Y17.1399 
G01 X-13.0943 Y16.9781 
G01 X-13.0198 Y16.7982 
G01 X-12.9818 Y16.6073 
G01 X-12.9818 Y16.4127 
G01 X-13.0198 Y16.2218 
G01 X-13.0943 Y16.0419 
G01 X-13.2024 Y15.8801 
G01 X-13.3401 Y15.7424 
G01 X-13.5019 Y15.6343 
G01 X-13.6818 Y15.5598 
G01 X-13.8727 Y15.5218 
G01 X-14.0673 Y15.5218 
G01 X-14.2582 Y15.5598 
G01 X-14.4381 Y15.6343 
G01 X-14.5999 Y15.7424 
G01 X-14.7376 Y15.8801 
G01 X-14.8457 Y16.0419 
G01 X-14.9202 Y16.2218 
G01 X-14.9582 Y16.4127 
G00 Z2.5400  
G00 X-17.4982 Y16.4127 
G01 Z-0.1778 F100   
G01 X-17.4982 Y16.6073 F75    
G01 X-17.4602 Y16.7982 
G01 X-17.3857 Y16.9781 
G01 X-17.2776 Y17.1399 
G01 X-17.1399 Y17.2776 
G01 X-16.9781 Y17.3857 
G01 X-16.7982 Y17.4602 
G01 X-16.6073 Y17.4982 
G01 X-16.4127 Y17.4982 
G01 X-16.2218 Y17.4602 
G01 X-16.0419 Y17.3857 
G01 X-15.8801 Y17.2776 
G01 X-15.7424 Y17.1399 
G01 X-15.6343 Y16.9781 
G01 X-15.5598 Y16.7982 
G01 X-15.5218 Y16.6073 
G01 X-15.5218 Y16.4127 
G01 X-15.5598 Y16.2218 
G01 X-15.6343 Y16.0419 
G01 X-15.7424 Y15.8801 
G01 X-15.8801 Y15.7424 
G01 X-16.0419 Y15.6343 
G01 X-16.2218 Y15.5598 
G01 X-16.4127 Y15.5218 
G01 X-16.6073 Y15.5218 
G01 X-16.7982 Y15.5598 
G01 X-16.9781 Y15.6343 
G01 X-17.1399 Y15.7424 
G01 X-17.2776 Y15.8801 
G01 X-17.3857 Y16.0419 
G01 X-17.4602 Y16.2218 
G01 X-17.4982 Y16.4127 
G00 Z2.5400  
G00 X-9.8782 Y16.4127 
G01 Z-0.1778 F100   
G01 X-9.8782 Y16.6073 F75    
G01 X-9.8402 Y16.7982 
G01 X-9.7657 Y16.9781 
G01 X-9.6576 Y17.1399 
G01 X-9.5199 Y17.2776 
G01 X-9.3581 Y17.3857 
G01 X-9.1782 Y17.4602 
G01 X-8.9873 Y17.4982 
G01 X-8.7927 Y17.4982 
G01 X-8.6018 Y17.4602 
G01 X-8.4219 Y17.3857 
G01 X-8.2601 Y17.2776 
G01 X-8.1224 Y17.1399 
G01 X-8.0143 Y16.9781 
G01 X-7.9398 Y16.7982 
G01 X-7.9018 Y16.6073 
G01 X-7.9018 Y16.4127 
G01 X-7.9398 Y16.2218 
G01 X-8.0143 Y16.0419 
G01 X-8.1224 Y15.8801 
G01 X-8.2601 Y15.7424 
G01 X-8.4219 Y15.6343 
G01 X-8.6018 Y15.5598 
G01 X-8.7927 Y15.5218 
G01 X-8.9873 Y15.5218 
G01 X-9.1782 Y15.5598 
G01 X-9.3581 Y15.6343 
G01 X-9.5199 Y15.7424 
G01 X-9.6576 Y15.8801 
G01 X-9.7657 Y16.0419 
G01 X-9.8402 Y16.2218 
G01 X-9.8782 Y16.4127 
G00 Z2.5400  
G00 X-7.3382 Y16.4127 
G01 Z-0.1778 F100   
G01 X-7.3382 Y16.6073 F75    
G01 X-7.3002 Y16.7982 
G01 X-7.2257 Y16.9781 
G01 X-7.1176 Y17.1399 
G01 X-6.9799 Y17.2776 
G01 X-6.8181 Y17.3857 
G01 X-6.6382 Y17.4602 
G01 X-6.4473 Y17.4982 
G01 X-6.2527 Y17.4982 
G01 X-6.0617 Y17.4602 
G01 X-5.8819 Y17.3857 
G01 X-5.7201 Y17.2776 
G01 X-5.5824 Y17.1399 
G01 X-5.4743 Y16.9781 
G01 X-5.3998 Y16.7982 
G01 X-5.3618 Y16.6073 
G01 X-5.3618 Y16.4127 
G01 X-5.3998 Y16.2218 
G01 X-5.4743 Y16.0419 
G01 X-5.5824 Y15.8801 
G01 X-5.7201 Y15.7424 
G01 X-5.8819 Y15.6343 
G01 X-6.0617 Y15.5598 
G01 X-6.2527 Y15.5218 
G01 X-6.4473 Y15.5218 
G01 X-6.6382 Y15.5598 
G01 X-6.8181 Y15.6343 
G01 X-6.9799 Y15.7424 
G01 X-7.1176 Y15.8801 
G01 X-7.2257 Y16.0419 
G01 X-7.3002 Y16.2218 
G01 X-7.3382 Y16.4127 
G00 Z2.5400  
G00 X-4.7982 Y16.4127 
G01 Z-0.1778 F100   
G01 X-4.7982 Y16.6073 F75    
G01 X-4.7602 Y16.7982 
G01 X-4.6857 Y16.9781 
G01 X-4.5776 Y17.1399 
G01 X-4.4399 Y17.2776 
G01 X-4.2781 Y17.3857 
G01 X-4.0982 Y17.4602 
G01 X-3.9073 Y17.4982 
G01 X-3.7127 Y17.4982 
G01 X-3.5218 Y17.4602 
G01 X-3.3419 Y17.3857 
G01 X-3.1801 Y17.2776 
G01 X-3.0424 Y17.1399 
G01 X-2.9343 Y16.9781 
G01 X-2.8598 Y16.7982 
G01 X-2.8218 Y16.6073 
G01 X-2.8218 Y16.4127 
G01 X-2.8598 Y16.2218 
G01 X-2.9343 Y16.0419 
G01 X-3.0424 Y15.8801 
G01 X-3.1801 Y15.7424 
G01 X-3.3419 Y15.6343 
G01 X-3.5218 Y15.5598 
G01 X-3.7127 Y15.5218 
G01 X-3.9073 Y15.5218 
G01 X-4.0982 Y15.5598 
G01 X-4.2781 Y15.6343 
G01 X-4.4399 Y15.7424 
G01 X-4.5776 Y15.8801 
G01 X-4.6857 Y16.0419 
G01 X-4.7602 Y16.2218 
G01 X-4.7982 Y16.4127 
G00 Z2.5400  
G00 X-2.2582 Y15.1427 
G01 Z-0.1778 F100   
G01 X-2.2582 Y15.3373 F75    
G01 X-2.2202 Y15.5282 
G01 X-2.1457 Y15.7081 
G01 X-2.0376 Y15.8699 
G01 X-1.8999 Y16.0076 
G01 X-1.7381 Y16.1157 
G01 X-1.5582 Y16.1902 
G01 X-1.3673 Y16.2282 
G01 X-1.1727 Y16.2282 
G01 X-0.9818 Y16.1902 
G01 X-0.8019 Y16.1157 
G01 X-0.6401 Y16.0076 
G01 X-0.5024 Y15.8699 
G01 X-0.3943 Y15.7081 
G01 X-0.3198 Y15.5282 
G01 X-0.2818 Y15.3373 
G01 X-0.2818 Y15.1427 
G01 X-0.3198 Y14.9518 
G01 X-0.3943 Y14.7719 
G01 X-0.5024 Y14.6101 
G01 X-0.6401 Y14.4724 
G01 X-0.8019 Y14.3643 
G01 X-0.9818 Y14.2898 
G01 X-1.1727 Y14.2518 
G01 X-1.3673 Y14.2518 
G01 X-1.5582 Y14.2898 
G01 X-1.7381 Y14.3643 
G01 X-1.8999 Y14.4724 
G01 X-2.0376 Y14.6101 
G01 X-2.1457 Y14.7719 
G01 X-2.2202 Y14.9518 
G01 X-2.2582 Y15.1427 
G00 Z2.5400  
G00 X-2.2582 Y12.6027 
G01 Z-0.1778 F100   
G01 X-2.2582 Y12.7973 F75    
G01 X-2.2202 Y12.9882 
G01 X-2.1457 Y13.1681 
G01 X-2.0376 Y13.3299 
G01 X-1.8999 Y13.4676 
G01 X-1.7381 Y13.5757 
G01 X-1.5582 Y13.6502 
G01 X-1.3673 Y13.6882 
G01 X-1.1727 Y13.6882 
G01 X-0.9818 Y13.6502 
G01 X-0.8019 Y13.5757 
G01 X-0.6401 Y13.4676 
G01 X-0.5024 Y13.3299 
G01 X-0.3943 Y13.1681 
G01 X-0.3198 Y12.9882 
G01 X-0.2818 Y12.7973 
G01 X-0.2818 Y12.6027 
G01 X-0.3198 Y12.4118 
G01 X-0.3943 Y12.2319 
G01 X-0.5024 Y12.0701 
G01 X-0.6401 Y11.9324 
G01 X-0.8019 Y11.8243 
G01 X-0.9818 Y11.7498 
G01 X-1.1727 Y11.7118 
G01 X-1.3673 Y11.7118 
G01 X-1.5582 Y11.7498 
G01 X-1.7381 Y11.8243 
G01 X-1.8999 Y11.9324 
G01 X-2.0376 Y12.0701 
G01 X-2.1457 Y12.2319 
G01 X-2.2202 Y12.4118 
G01 X-2.2582 Y12.6027 
G00 Z2.5400  
G00 X-2.2582 Y10.0627 
G01 Z-0.1778 F100   
G01 X-2.2582 Y10.2573 F75    
G01 X-2.2202 Y10.4482 
G01 X-2.1457 Y10.6281 
G01 X-2.0376 Y10.7899 
G01 X-1.8999 Y10.9276 
G01 X-1.7381 Y11.0357 
G01 X-1.5582 Y11.1102 
G01 X-1.3673 Y11.1482 
G01 X-1.1727 Y11.1482 
G01 X-0.9818 Y11.1102 
G01 X-0.8019 Y11.0357 
G01 X-0.6401 Y10.9276 
G01 X-0.5024 Y10.7899 
G01 X-0.3943 Y10.6281 
G01 X-0.3198 Y10.4482 
G01 X-0.2818 Y10.2573 
G01 X-0.2818 Y10.0627 
G01 X-0.3198 Y9.8718  
G01 X-0.3943 Y9.6919  
G01 X-0.5024 Y9.5301  
G01 X-0.6401 Y9.3924  
G01 X-0.8019 Y9.2843  
G01 X-0.9818 Y9.2098  
G01 X-1.1727 Y9.1718  
G01 X-1.3673 Y9.1718  
G01 X-1.5582 Y9.2098  
G01 X-1.7381 Y9.2843  
G01 X-1.8999 Y9.3924  
G01 X-2.0376 Y9.5301  
G01 X-2.1457 Y9.6919  
G01 X-2.2202 Y9.8718  
G01 X-2.2582 Y10.0627 
G00 Z2.5400  
G00 X-2.2582 Y7.5227  
G01 Z-0.1778 F100   
G01 X-2.2582 Y7.7173  F75    
G01 X-2.2202 Y7.9082  
G01 X-2.1457 Y8.0881  
G01 X-2.0376 Y8.2499  
G01 X-1.8999 Y8.3876  
G01 X-1.7381 Y8.4957  
G01 X-1.5582 Y8.5702  
G01 X-1.3673 Y8.6082  
G01 X-1.1727 Y8.6082  
G01 X-0.9818 Y8.5702  
G01 X-0.8019 Y8.4957  
G01 X-0.6401 Y8.3876  
G01 X-0.5024 Y8.2499  
G01 X-0.3943 Y8.0881  
G01 X-0.3198 Y7.9082  
G01 X-0.2818 Y7.7173  
G01 X-0.2818 Y7.5227  
G01 X-0.3198 Y7.3318  
G01 X-0.3943 Y7.1519  
G01 X-0.5024 Y6.9901  
G01 X-0.6401 Y6.8524  
G01 X-0.8019 Y6.7443  
G01 X-0.9818 Y6.6698  
G01 X-1.1727 Y6.6318  
G01 X-1.3673 Y6.6318  
G01 X-1.5582 Y6.6698  
G01 X-1.7381 Y6.7443  
G01 X-1.8999 Y6.8524  
G01 X-2.0376 Y6.9901  
G01 X-2.1457 Y7.1519  
G01 X-2.2202 Y7.3318  
G01 X-2.2582 Y7.5227  
G00 Z2.5400  
G00 X-12.4982 Y8.4475  
G01 Z-0.1778 F100   
G01 X-12.4982 Y16.5941 F75    
G01 X-12.4719 Y16.7601 
G01 X-12.4199 Y16.9200 
G01 X-12.3436 Y17.0699 
G01 X-12.2448 Y17.2059 
G01 X-12.1259 Y17.3248 
G01 X-11.9899 Y17.4236 
G01 X-11.8400 Y17.4999 
G01 X-11.6801 Y17.5519 
G01 X-11.5141 Y17.5782 
G01 X-11.3459 Y17.5782 
G01 X-11.1799 Y17.5519 
G01 X-11.0200 Y17.4999 
G01 X-10.8701 Y17.4236 
G01 X-10.7341 Y17.3248 
G01 X-10.6152 Y17.2059 
G01 X-10.5164 Y17.0699 
G01 X-10.4401 Y16.9200 
G01 X-10.3881 Y16.7601 
G01 X-10.3618 Y16.5941 
G01 X-10.3618 Y8.4475  
G01 X-10.6152 Y8.1941  
G01 X-10.7341 Y8.0752  
G01 X-10.9875 Y7.8218  
G01 X-11.8725 Y7.8218  
G01 X-12.1259 Y8.0752  
G01 X-12.2448 Y8.1941  
G01 X-12.4982 Y8.4475  
G00 Z2.5400  
G00 X-14.4125 Y7.4182  
G01 Z-0.1778 F100   
G01 X-14.0325 Y7.4182  F75    
G01 X-14.0109 Y7.4207  
G01 X-13.9484 Y7.4182  
G01 X-13.5275 Y7.4182  
G01 X-13.2588 Y7.1495  
G01 X-13.2418 Y7.1361  
G01 X-13.1994 Y7.0901  
G01 X-12.9018 Y6.7925  
G01 X-12.9018 Y6.4125  
G01 X-12.8993 Y6.3909  
G01 X-12.9018 Y6.3284  
G01 X-12.9018 Y5.9075  
G01 X-13.1705 Y5.6388  
G01 X-13.1839 Y5.6218  
G01 X-13.2299 Y5.5794  
G01 X-13.5275 Y5.2818  
G01 X-13.6466 Y5.2818  
G01 X-17.2574 Y2.8746  
G01 X-17.4102 Y2.8043  
G01 X-17.5721 Y2.7589  
G01 X-17.7391 Y2.7393  
G01 X-17.9071 Y2.7461  
G01 X-18.0719 Y2.7790  
G01 X-18.2296 Y2.8374  
G01 X-18.3762 Y2.9197  
G01 X-18.5082 Y3.0239  
G01 X-18.6222 Y3.1475  
G01 X-18.7154 Y3.2874  
G01 X-18.7857 Y3.4402  
G01 X-18.8311 Y3.6021  
G01 X-18.8507 Y3.7691  
G01 X-18.8439 Y3.9371  
G01 X-18.8110 Y4.1019  
G01 X-18.7526 Y4.2596  
G01 X-18.6703 Y4.4062  
G01 X-18.5661 Y4.5382  
G01 X-18.4425 Y4.6522  
G01 X-14.6505 Y7.1801  
G01 X-14.4125 Y7.4182  
G00 Z2.5400  
G00 X-13.5275 Y12.4982 
G01 Z-0.1778 F100   
G01 X-13.2299 Y12.2006 F75    
G01 X-13.1839 Y12.1582 
G01 X-13.1705 Y12.1412 
G01 X-12.9018 Y11.8725 
G01 X-12.9018 Y11.4516 
G01 X-12.8993 Y11.3891 
G01 X-12.9018 Y11.3675 
G01 X-12.9018 Y10.9875 
G01 X-13.1994 Y10.6899 
G01 X-13.2418 Y10.6439 
G01 X-13.2588 Y10.6305 
G01 X-13.5275 Y10.3618 
G01 X-13.9484 Y10.3618 
G01 X-14.0109 Y10.3593 
G01 X-14.0325 Y10.3618 
G01 X-14.4125 Y10.3618 
G01 X-14.6505 Y10.5999 
G01 X-18.4425 Y13.1278 
G01 X-18.5661 Y13.2418 
G01 X-18.6703 Y13.3738 
G01 X-18.7526 Y13.5204 
G01 X-18.8110 Y13.6781 
G01 X-18.8439 Y13.8429 
G01 X-18.8507 Y14.0109 
G01 X-18.8311 Y14.1779 
G01 X-18.7857 Y14.3398 
G01 X-18.7154 Y14.4926 
G01 X-18.6222 Y14.6325 
G01 X-18.5082 Y14.7561 
G01 X-18.3762 Y14.8603 
G01 X-18.2296 Y14.9426 
G01 X-18.0719 Y15.0010 
G01 X-17.9071 Y15.0339 
G01 X-17.7391 Y15.0407 
G01 X-17.5721 Y15.0211 
G01 X-17.4102 Y14.9757 
G01 X-17.2574 Y14.9054 
G01 X-13.6466 Y12.4982 
G01 X-13.5275 Y12.4982 
G00 Z2.5400  
G00 X-4.7313 Y9.0601  
G01 Z-0.1778 F100   
G01 X-7.9687 Y9.0601  F75    
G01 X-8.1941 Y9.0897  
G01 X-8.4138 Y9.1486  
G01 X-8.6239 Y9.2356  
G01 X-8.8209 Y9.3493  
G01 X-9.0013 Y9.4878  
G01 X-9.1622 Y9.6486  
G01 X-9.3006 Y9.8290  
G01 X-9.4143 Y10.0260 
G01 X-9.5014 Y10.2361 
G01 X-9.5602 Y10.4558 
G01 X-9.5899 Y10.6813 
G01 X-9.5899 Y10.9087 
G01 X-9.5602 Y11.1342 
G01 X-9.5014 Y11.3539 
G01 X-9.4143 Y11.5640 
G01 X-9.3006 Y11.7610 
G01 X-9.1622 Y11.9414 
G01 X-9.0013 Y12.1022 
G01 X-8.8209 Y12.2407 
G01 X-8.6239 Y12.3544 
G01 X-8.4138 Y12.4414 
G01 X-8.1941 Y12.5003 
G01 X-8.0865 Y12.5144 
G01 X-8.6130 Y13.5675 
G01 X-8.6638 Y13.7278 
G01 X-8.6888 Y13.8940 
G01 X-8.6875 Y14.0622 
G01 X-8.6600 Y14.2280 
G01 X-8.6068 Y14.3875 
G01 X-8.5293 Y14.5368 
G01 X-8.4295 Y14.6721 
G01 X-8.3097 Y14.7900 
G01 X-8.1729 Y14.8878 
G01 X-8.0225 Y14.9630 
G01 X-7.8622 Y15.0138 
G01 X-7.6960 Y15.0388 
G01 X-7.5278 Y15.0375 
G01 X-7.3620 Y15.0100 
G01 X-7.2025 Y14.9568 
G01 X-7.0532 Y14.8793 
G01 X-6.9179 Y14.7795 
G01 X-6.8000 Y14.6597 
G01 X-6.7022 Y14.5229 
G01 X-5.7057 Y12.5299 
G01 X-4.7313 Y12.5299 
G01 X-4.5059 Y12.5003 
G01 X-4.2862 Y12.4414 
G01 X-4.0761 Y12.3544 
G01 X-3.8791 Y12.2407 
G01 X-3.6987 Y12.1022 
G01 X-3.5378 Y11.9414 
G01 X-3.3994 Y11.7610 
G01 X-3.2857 Y11.5640 
G01 X-3.1986 Y11.3539 
G01 X-3.1398 Y11.1342 
G01 X-3.1101 Y10.9087 
G01 X-3.1101 Y10.6813 
G01 X-3.1398 Y10.4558 
G01 X-3.1986 Y10.2361 
G01 X-3.2857 Y10.0260 
G01 X-3.3994 Y9.8290  
G01 X-3.5378 Y9.6486  
G01 X-3.6987 Y9.4878  
G01 X-3.8791 Y9.3493  
G01 X-4.0761 Y9.2356  
G01 X-4.2862 Y9.1486  
G01 X-4.5059 Y9.0897  
G01 X-4.7313 Y9.0601  
G00 Z2.5400  
G00 X-12.4982 Y1.1859  
G01 Z-0.1778 F100   
G01 X-12.4982 Y1.3541  F75    
G01 X-12.4719 Y1.5201  
G01 X-12.4199 Y1.6800  
G01 X-12.3436 Y1.8299  
G01 X-12.2448 Y1.9659  
G01 X-12.1259 Y2.0848  
G01 X-11.9899 Y2.1836  
G01 X-11.8400 Y2.2599  
G01 X-11.6801 Y2.3119  
G01 X-11.5141 Y2.3382  
G01 X-11.3459 Y2.3382  
G01 X-11.1799 Y2.3119  
G01 X-11.0200 Y2.2599  
G01 X-10.8701 Y2.1836  
G01 X-10.7341 Y2.0848  
G01 X-10.6152 Y1.9659  
G01 X-10.5164 Y1.8299  
G01 X-10.4401 Y1.6800  
G01 X-10.3881 Y1.5201  
G01 X-10.3618 Y1.3541  
G01 X-10.3618 Y1.1859  
G01 X-10.3881 Y1.0199  
G01 X-10.4401 Y0.8600  
G01 X-10.5164 Y0.7101  
G01 X-10.6152 Y0.5741  
G01 X-10.7341 Y0.4552  
G01 X-10.8701 Y0.3564  
G01 X-11.0200 Y0.2801  
G01 X-11.1799 Y0.2281  
G01 X-11.3459 Y0.2018  
G01 X-11.5141 Y0.2018  
G01 X-11.6801 Y0.2281  
G01 X-11.8400 Y0.2801  
G01 X-11.9899 Y0.3564  
G01 X-12.1259 Y0.4552  
G01 X-12.2448 Y0.5741  
G01 X-12.3436 Y0.7101  
G01 X-12.4199 Y0.8600  
G01 X-12.4719 Y1.0199  
G01 X-12.4982 Y1.1859  
G00 Z2.5400  
G00 X-15.0382 Y1.1859  
G01 Z-0.1778 F100   
G01 X-15.0382 Y1.3541  F75    
G01 X-15.0119 Y1.5201  
G01 X-14.9599 Y1.6800  
G01 X-14.8836 Y1.8299  
G01 X-14.7848 Y1.9659  
G01 X-14.6659 Y2.0848  
G01 X-14.5299 Y2.1836  
G01 X-14.3800 Y2.2599  
G01 X-14.2201 Y2.3119  
G01 X-14.0541 Y2.3382  
G01 X-13.8859 Y2.3382  
G01 X-13.7199 Y2.3119  
G01 X-13.5600 Y2.2599  
G01 X-13.4101 Y2.1836  
G01 X-13.2741 Y2.0848  
G01 X-13.1552 Y1.9659  
G01 X-13.0564 Y1.8299  
G01 X-12.9801 Y1.6800  
G01 X-12.9281 Y1.5201  
G01 X-12.9018 Y1.3541  
G01 X-12.9018 Y1.1859  
G01 X-12.9281 Y1.0199  
G01 X-12.9801 Y0.8600  
G01 X-13.0564 Y0.7101  
G01 X-13.1552 Y0.5741  
G01 X-13.2741 Y0.4552  
G01 X-13.4101 Y0.3564  
G01 X-13.5600 Y0.2801  
G01 X-13.7199 Y0.2281  
G01 X-13.8859 Y0.2018  
G01 X-14.0541 Y0.2018  
G01 X-14.2201 Y0.2281  
G01 X-14.3800 Y0.2801  
G01 X-14.5299 Y0.3564  
G01 X-14.6659 Y0.4552  
G01 X-14.7848 Y0.5741  
G01 X-14.8836 Y0.7101  
G01 X-14.9599 Y0.8600  
G01 X-15.0119 Y1.0199  
G01 X-15.0382 Y1.1859  
G00 Z2.5400  
G00 X-17.5782 Y1.1859  
G01 Z-0.1778 F100   
G01 X-17.5782 Y1.3541  F75    
G01 X-17.5519 Y1.5201  
G01 X-17.4999 Y1.6800  
G01 X-17.4236 Y1.8299  
G01 X-17.3248 Y1.9659  
G01 X-17.2059 Y2.0848  
G01 X-17.0699 Y2.1836  
G01 X-16.9200 Y2.2599  
G01 X-16.7601 Y2.3119  
G01 X-16.5941 Y2.3382  
G01 X-16.4259 Y2.3382  
G01 X-16.2599 Y2.3119  
G01 X-16.1000 Y2.2599  
G01 X-15.9501 Y2.1836  
G01 X-15.8141 Y2.0848  
G01 X-15.6952 Y1.9659  
G01 X-15.5964 Y1.8299  
G01 X-15.5201 Y1.6800  
G01 X-15.4681 Y1.5201  
G01 X-15.4418 Y1.3541  
G01 X-15.4418 Y1.1859  
G01 X-15.4681 Y1.0199  
G01 X-15.5201 Y0.8600  
G01 X-15.5964 Y0.7101  
G01 X-15.6952 Y0.5741  
G01 X-15.8141 Y0.4552  
G01 X-15.9501 Y0.3564  
G01 X-16.1000 Y0.2801  
G01 X-16.2599 Y0.2281  
G01 X-16.4259 Y0.2018  
G01 X-16.5941 Y0.2018  
G01 X-16.7601 Y0.2281  
G01 X-16.9200 Y0.2801  
G01 X-17.0699 Y0.3564  
G01 X-17.2059 Y0.4552  
G01 X-17.3248 Y0.5741  
G01 X-17.4236 Y0.7101  
G01 X-17.4999 Y0.8600  
G01 X-17.5519 Y1.0199  
G01 X-17.5782 Y1.1859  
G00 Z2.5400  
G00 X-9.9582 Y1.1859  
G01 Z-0.1778 F100   
G01 X-9.9582 Y1.3541  F75    
G01 X-9.9319 Y1.5201  
G01 X-9.8799 Y1.6800  
G01 X-9.8036 Y1.8299  
G01 X-9.7048 Y1.9659  
G01 X-9.5859 Y2.0848  
G01 X-9.4499 Y2.1836  
G01 X-9.3000 Y2.2599  
G01 X-9.1401 Y2.3119  
G01 X-8.9741 Y2.3382  
G01 X-8.8059 Y2.3382  
G01 X-8.6399 Y2.3119  
G01 X-8.4800 Y2.2599  
G01 X-8.3301 Y2.1836  
G01 X-8.1941 Y2.0848  
G01 X-8.0752 Y1.9659  
G01 X-7.9764 Y1.8299  
G01 X-7.9001 Y1.6800  
G01 X-7.8481 Y1.5201  
G01 X-7.8218 Y1.3541  
G01 X-7.8218 Y1.1859  
G01 X-7.8481 Y1.0199  
G01 X-7.9001 Y0.8600  
G01 X-7.9764 Y0.7101  
G01 X-8.0752 Y0.5741  
G01 X-8.1941 Y0.4552  
G01 X-8.3301 Y0.3564  
G01 X-8.4800 Y0.2801  
G01 X-8.6399 Y0.2281  
G01 X-8.8059 Y0.2018  
G01 X-8.9741 Y0.2018  
G01 X-9.1401 Y0.2281  
G01 X-9.3000 Y0.2801  
G01 X-9.4499 Y0.3564  
G01 X-9.5859 Y0.4552  
G01 X-9.7048 Y0.5741  
G01 X-9.8036 Y0.7101  
G01 X-9.8799 Y0.8600  
G01 X-9.9319 Y1.0199  
G01 X-9.9582 Y1.1859  
G00 Z2.5400  
G00 X-7.4182 Y1.1859  
G01 Z-0.1778 F100   
G01 X-7.4182 Y1.3541  F75    
G01 X-7.3919 Y1.5201  
G01 X-7.3399 Y1.6800  
G01 X-7.2636 Y1.8299  
G01 X-7.1648 Y1.9659  
G01 X-7.0459 Y2.0848  
G01 X-6.9099 Y2.1836  
G01 X-6.7600 Y2.2599  
G01 X-6.6001 Y2.3119  
G01 X-6.4341 Y2.3382  
G01 X-6.2659 Y2.3382  
G01 X-6.0999 Y2.3119  
G01 X-5.9400 Y2.2599  
G01 X-5.7901 Y2.1836  
G01 X-5.6541 Y2.0848  
G01 X-5.5352 Y1.9659  
G01 X-5.4364 Y1.8299  
G01 X-5.3601 Y1.6800  
G01 X-5.3081 Y1.5201  
G01 X-5.2818 Y1.3541  
G01 X-5.2818 Y1.1859  
G01 X-5.3081 Y1.0199  
G01 X-5.3601 Y0.8600  
G01 X-5.4364 Y0.7101  
G01 X-5.5352 Y0.5741  
G01 X-5.6541 Y0.4552  
G01 X-5.7901 Y0.3564  
G01 X-5.9400 Y0.2801  
G01 X-6.0999 Y0.2281  
G01 X-6.2659 Y0.2018  
G01 X-6.4341 Y0.2018  
G01 X-6.6001 Y0.2281  
G01 X-6.7600 Y0.2801  
G01 X-6.9099 Y0.3564  
G01 X-7.0459 Y0.4552  
G01 X-7.1648 Y0.5741  
G01 X-7.2636 Y0.7101  
G01 X-7.3399 Y0.8600  
G01 X-7.3919 Y1.0199  
G01 X-7.4182 Y1.1859  
G00 Z2.5400  
G00 X-2.8201 Y1.6800  
G01 Z-0.1778 F100   
G01 X-2.8188 Y1.6762  F75    
G01 X-2.8170 Y1.6725  
G01 X-2.7928 Y1.5962  
G01 X-2.7681 Y1.5201  
G01 X-2.7675 Y1.5161  
G01 X-2.7662 Y1.5122  
G01 X-2.7543 Y1.4332  
G01 X-2.7418 Y1.3541  
G01 X-2.7418 Y1.3500  
G01 X-2.7412 Y1.3460  
G01 X-2.7418 Y1.2660  
G01 X-2.7418 Y1.1859  
G01 X-2.7424 Y1.1819  
G01 X-2.7425 Y1.1778  
G01 X-2.7556 Y1.0988  
G01 X-2.7681 Y1.0199  
G01 X-2.7694 Y1.0160  
G01 X-2.7700 Y1.0120  
G01 X-2.7954 Y0.9360  
G01 X-2.8201 Y0.8600  
G01 X-2.8219 Y0.8563  
G01 X-2.8232 Y0.8525  
G01 X-2.8601 Y0.7813  
G01 X-2.8964 Y0.7101  
G01 X-2.8988 Y0.7069  
G01 X-2.9007 Y0.7032  
G01 X-2.9483 Y0.6388  
G01 X-2.9952 Y0.5741  
G01 X-2.9981 Y0.5712  
G01 X-3.0005 Y0.5679  
G01 X-3.0576 Y0.5118  
G01 X-3.1141 Y0.4552  
G01 X-3.1174 Y0.4528  
G01 X-3.1203 Y0.4500  
G01 X-3.1855 Y0.4033  
G01 X-3.2501 Y0.3564  
G01 X-3.2538 Y0.3546  
G01 X-3.2571 Y0.3522  
G01 X-3.3289 Y0.3163  
G01 X-3.4000 Y0.2801  
G01 X-3.4038 Y0.2788  
G01 X-3.4075 Y0.2770  
G01 X-3.4838 Y0.2528  
G01 X-3.5599 Y0.2281  
G01 X-3.5639 Y0.2275  
G01 X-3.5678 Y0.2262  
G01 X-3.6468 Y0.2143  
G01 X-3.7259 Y0.2018  
G01 X-3.7300 Y0.2018  
G01 X-3.7340 Y0.2012  
G01 X-3.8140 Y0.2018  
G01 X-3.8941 Y0.2018  
G01 X-3.8981 Y0.2024  
G01 X-3.9022 Y0.2025  
G01 X-3.9812 Y0.2156  
G01 X-4.0601 Y0.2281  
G01 X-4.0640 Y0.2294  
G01 X-4.0680 Y0.2300  
G01 X-4.1440 Y0.2554  
G01 X-4.2200 Y0.2801  
G01 X-4.2237 Y0.2819  
G01 X-4.2275 Y0.2832  
G01 X-4.2987 Y0.3201  
G01 X-4.3699 Y0.3564  
G01 X-4.3731 Y0.3588  
G01 X-4.3768 Y0.3607  
G01 X-4.4412 Y0.4083  
G01 X-4.5059 Y0.4552  
G01 X-4.5088 Y0.4581  
G01 X-4.5121 Y0.4605  
G01 X-4.5682 Y0.5176  
G01 X-4.6248 Y0.5741  
G01 X-4.6272 Y0.5774  
G01 X-4.6300 Y0.5803  
G01 X-4.6767 Y0.6455  
G01 X-4.7236 Y0.7101  
G01 X-4.7254 Y0.7138  
G01 X-4.7278 Y0.7171  
G01 X-4.7637 Y0.7889  
G01 X-4.7999 Y0.8600  
G01 X-4.8012 Y0.8638  
G01 X-6.3500 Y3.9614  
G01 X-6.7022 Y3.2571  
G01 X-6.8000 Y3.1203  
G01 X-6.9179 Y3.0005  
G01 X-7.0532 Y2.9007  
G01 X-7.2025 Y2.8232  
G01 X-7.3620 Y2.7700  
G01 X-7.5278 Y2.7425  
G01 X-7.6960 Y2.7412  
G01 X-7.8622 Y2.7662  
G01 X-8.0225 Y2.8170  
G01 X-8.1729 Y2.8922  
G01 X-8.3097 Y2.9900  
G01 X-8.4295 Y3.1079  
G01 X-8.5293 Y3.2432  
G01 X-8.6068 Y3.3925  
G01 X-8.6600 Y3.5520  
G01 X-8.6875 Y3.7178  
G01 X-8.6888 Y3.8860  
G01 X-8.6638 Y4.0522  
G01 X-8.6130 Y4.2125  
G01 X-8.3730 Y4.6926  
G01 X-8.4138 Y4.7036  
G01 X-8.6239 Y4.7906  
G01 X-8.8209 Y4.9043  
G01 X-9.0013 Y5.0428  
G01 X-9.1622 Y5.2036  
G01 X-9.3006 Y5.3840  
G01 X-9.4143 Y5.5810  
G01 X-9.5014 Y5.7911  
G01 X-9.5602 Y6.0108  
G01 X-9.5899 Y6.2363  
G01 X-9.5899 Y6.4637  
G01 X-9.5602 Y6.6892  
G01 X-9.5014 Y6.9089  
G01 X-9.4143 Y7.1190  
G01 X-9.3006 Y7.3160  
G01 X-9.1622 Y7.4964  
G01 X-9.0013 Y7.6572  
G01 X-8.8209 Y7.7957  
G01 X-8.6239 Y7.9094  
G01 X-8.4138 Y7.9964  
G01 X-8.1941 Y8.0553  
G01 X-7.9687 Y8.0849  
G01 X-4.7313 Y8.0849  
G01 X-4.5059 Y8.0553  
G01 X-4.2862 Y7.9964  
G01 X-4.0761 Y7.9094  
G01 X-3.8791 Y7.7957  
G01 X-3.6987 Y7.6572  
G01 X-3.5378 Y7.4964  
G01 X-3.3994 Y7.3160  
G01 X-3.2857 Y7.1190  
G01 X-3.1986 Y6.9089  
G01 X-3.1398 Y6.6892  
G01 X-3.1101 Y6.4637  
G01 X-3.1101 Y6.2363  
G01 X-3.1398 Y6.0108  
G01 X-3.1986 Y5.7911  
G01 X-3.2857 Y5.5810  
G01 X-3.3994 Y5.3840  
G01 X-3.5378 Y5.2036  
G01 X-3.6987 Y5.0428  
G01 X-3.8791 Y4.9043  
G01 X-4.0761 Y4.7906  
G01 X-4.2862 Y4.7036  
G01 X-4.3270 Y4.6926  
G01 X-2.8563 Y1.7511  
G01 X-2.8201 Y1.6800  
G00 Z2.5400  
G00 X-2.3382 Y4.9959  
G01 Z-0.1778 F100   
G01 X-2.3382 Y5.1641  F75    
G01 X-2.3119 Y5.3301  
G01 X-2.2599 Y5.4900  
G01 X-2.1836 Y5.6399  
G01 X-2.0848 Y5.7759  
G01 X-1.9659 Y5.8948  
G01 X-1.8299 Y5.9936  
G01 X-1.6800 Y6.0699  
G01 X-1.5201 Y6.1219  
G01 X-1.3541 Y6.1482  
G01 X-1.1859 Y6.1482  
G01 X-1.0199 Y6.1219  
G01 X-0.8600 Y6.0699  
G01 X-0.7101 Y5.9936  
G01 X-0.5741 Y5.8948  
G01 X-0.4552 Y5.7759  
G01 X-0.3564 Y5.6399  
G01 X-0.2801 Y5.4900  
G01 X-0.2281 Y5.3301  
G01 X-0.2018 Y5.1641  
G01 X-0.2018 Y4.9959  
G01 X-0.2281 Y4.8299  
G01 X-0.2801 Y4.6700  
G01 X-0.3564 Y4.5201  
G01 X-0.4552 Y4.3841  
G01 X-0.5741 Y4.2652  
G01 X-0.7101 Y4.1664  
G01 X-0.8600 Y4.0901  
G01 X-1.0199 Y4.0381  
G01 X-1.1859 Y4.0118  
G01 X-1.3541 Y4.0118  
G01 X-1.5201 Y4.0381  
G01 X-1.6800 Y4.0901  
G01 X-1.8299 Y4.1664  
G01 X-1.9659 Y4.2652  
G01 X-2.0848 Y4.3841  
G01 X-2.1836 Y4.5201  
G01 X-2.2599 Y4.6700  
G01 X-2.3119 Y4.8299  
G01 X-2.3382 Y4.9959  
G00 Z2.5400  
G00 X-2.3382 Y2.4559  
G01 Z-0.1778 F100   
G01 X-2.3382 Y2.6241  F75    
G01 X-2.3119 Y2.7901  
G01 X-2.2599 Y2.9500  
G01 X-2.1836 Y3.0999  
G01 X-2.0848 Y3.2359  
G01 X-1.9659 Y3.3548  
G01 X-1.8299 Y3.4536  
G01 X-1.6800 Y3.5299  
G01 X-1.5201 Y3.5819  
G01 X-1.3541 Y3.6082  
G01 X-1.1859 Y3.6082  
G01 X-1.0199 Y3.5819  
G01 X-0.8600 Y3.5299  
G01 X-0.7101 Y3.4536  
G01 X-0.5741 Y3.3548  
G01 X-0.4552 Y3.2359  
G01 X-0.3564 Y3.0999  
G01 X-0.2801 Y2.9500  
G01 X-0.2281 Y2.7901  
G01 X-0.2018 Y2.6241  
G01 X-0.2018 Y2.4559  
G01 X-0.2281 Y2.2899  
G01 X-0.2801 Y2.1300  
G01 X-0.3564 Y1.9801  
G01 X-0.4552 Y1.8441  
G01 X-0.5741 Y1.7252  
G01 X-0.7101 Y1.6264  
G01 X-0.8600 Y1.5501  
G01 X-1.0199 Y1.4981  
G01 X-1.1859 Y1.4718  
G01 X-1.3541 Y1.4718  
G01 X-1.5201 Y1.4981  
G01 X-1.6800 Y1.5501  
G01 X-1.8299 Y1.6264  
G01 X-1.9659 Y1.7252  
G01 X-2.0848 Y1.8441  
G01 X-2.1836 Y1.9801  
G01 X-2.2599 Y2.1300  
G01 X-2.3119 Y2.2899  
G01 X-2.3382 Y2.4559  
G00 Z2.5400  
G00 X-15.0382 Y16.4259 
G01 Z-0.1778 F100   
G01 X-15.0382 Y16.5941 F75    
G01 X-15.0119 Y16.7601 
G01 X-14.9599 Y16.9200 
G01 X-14.8836 Y17.0699 
G01 X-14.7848 Y17.2059 
G01 X-14.6659 Y17.3248 
G01 X-14.5299 Y17.4236 
G01 X-14.3800 Y17.4999 
G01 X-14.2201 Y17.5519 
G01 X-14.0541 Y17.5782 
G01 X-13.8859 Y17.5782 
G01 X-13.7199 Y17.5519 
G01 X-13.5600 Y17.4999 
G01 X-13.4101 Y17.4236 
G01 X-13.2741 Y17.3248 
G01 X-13.1552 Y17.2059 
G01 X-13.0564 Y17.0699 
G01 X-12.9801 Y16.9200 
G01 X-12.9281 Y16.7601 
G01 X-12.9018 Y16.5941 
G01 X-12.9018 Y16.4259 
G01 X-12.9281 Y16.2599 
G01 X-12.9801 Y16.1000 
G01 X-13.0564 Y15.9501 
G01 X-13.1552 Y15.8141 
G01 X-13.2741 Y15.6952 
G01 X-13.4101 Y15.5964 
G01 X-13.5600 Y15.5201 
G01 X-13.7199 Y15.4681 
G01 X-13.8859 Y15.4418 
G01 X-14.0541 Y15.4418 
G01 X-14.2201 Y15.4681 
G01 X-14.3800 Y15.5201 
G01 X-14.5299 Y15.5964 
G01 X-14.6659 Y15.6952 
G01 X-14.7848 Y15.8141 
G01 X-14.8836 Y15.9501 
G01 X-14.9599 Y16.1000 
G01 X-15.0119 Y16.2599 
G01 X-15.0382 Y16.4259 
G00 Z2.5400  
G00 X-17.5782 Y16.4259 
G01 Z-0.1778 F100   
G01 X-17.5782 Y16.5941 F75    
G01 X-17.5519 Y16.7601 
G01 X-17.4999 Y16.9200 
G01 X-17.4236 Y17.0699 
G01 X-17.3248 Y17.2059 
G01 X-17.2059 Y17.3248 
G01 X-17.0699 Y17.4236 
G01 X-16.9200 Y17.4999 
G01 X-16.7601 Y17.5519 
G01 X-16.5941 Y17.5782 
G01 X-16.4259 Y17.5782 
G01 X-16.2599 Y17.5519 
G01 X-16.1000 Y17.4999 
G01 X-15.9501 Y17.4236 
G01 X-15.8141 Y17.3248 
G01 X-15.6952 Y17.2059 
G01 X-15.5964 Y17.0699 
G01 X-15.5201 Y16.9200 
G01 X-15.4681 Y16.7601 
G01 X-15.4418 Y16.5941 
G01 X-15.4418 Y16.4259 
G01 X-15.4681 Y16.2599 
G01 X-15.5201 Y16.1000 
G01 X-15.5964 Y15.9501 
G01 X-15.6952 Y15.8141 
G01 X-15.8141 Y15.6952 
G01 X-15.9501 Y15.5964 
G01 X-16.1000 Y15.5201 
G01 X-16.2599 Y15.4681 
G01 X-16.4259 Y15.4418 
G01 X-16.5941 Y15.4418 
G01 X-16.7601 Y15.4681 
G01 X-16.9200 Y15.5201 
G01 X-17.0699 Y15.5964 
G01 X-17.2059 Y15.6952 
G01 X-17.3248 Y15.8141 
G01 X-17.4236 Y15.9501 
G01 X-17.4999 Y16.1000 
G01 X-17.5519 Y16.2599 
G01 X-17.5782 Y16.4259 
G00 Z2.5400  
G00 X-9.9582 Y16.4259 
G01 Z-0.1778 F100   
G01 X-9.9582 Y16.5941 F75    
G01 X-9.9319 Y16.7601 
G01 X-9.8799 Y16.9200 
G01 X-9.8036 Y17.0699 
G01 X-9.7048 Y17.2059 
G01 X-9.5859 Y17.3248 
G01 X-9.4499 Y17.4236 
G01 X-9.3000 Y17.4999 
G01 X-9.1401 Y17.5519 
G01 X-8.9741 Y17.5782 
G01 X-8.8059 Y17.5782 
G01 X-8.6399 Y17.5519 
G01 X-8.4800 Y17.4999 
G01 X-8.3301 Y17.4236 
G01 X-8.1941 Y17.3248 
G01 X-8.0752 Y17.2059 
G01 X-7.9764 Y17.0699 
G01 X-7.9001 Y16.9200 
G01 X-7.8481 Y16.7601 
G01 X-7.8218 Y16.5941 
G01 X-7.8218 Y16.4259 
G01 X-7.8481 Y16.2599 
G01 X-7.9001 Y16.1000 
G01 X-7.9764 Y15.9501 
G01 X-8.0752 Y15.8141 
G01 X-8.1941 Y15.6952 
G01 X-8.3301 Y15.5964 
G01 X-8.4800 Y15.5201 
G01 X-8.6399 Y15.4681 
G01 X-8.8059 Y15.4418 
G01 X-8.9741 Y15.4418 
G01 X-9.1401 Y15.4681 
G01 X-9.3000 Y15.5201 
G01 X-9.4499 Y15.5964 
G01 X-9.5859 Y15.6952 
G01 X-9.7048 Y15.8141 
G01 X-9.8036 Y15.9501 
G01 X-9.8799 Y16.1000 
G01 X-9.9319 Y16.2599 
G01 X-9.9582 Y16.4259 
G00 Z2.5400  
G00 X-7.4182 Y16.4259 
G01 Z-0.1778 F100   
G01 X-7.4182 Y16.5941 F75    
G01 X-7.3919 Y16.7601 
G01 X-7.3399 Y16.9200 
G01 X-7.2636 Y17.0699 
G01 X-7.1648 Y17.2059 
G01 X-7.0459 Y17.3248 
G01 X-6.9099 Y17.4236 
G01 X-6.7600 Y17.4999 
G01 X-6.6001 Y17.5519 
G01 X-6.4341 Y17.5782 
G01 X-6.2659 Y17.5782 
G01 X-6.0999 Y17.5519 
G01 X-5.9400 Y17.4999 
G01 X-5.7901 Y17.4236 
G01 X-5.6541 Y17.3248 
G01 X-5.5352 Y17.2059 
G01 X-5.4364 Y17.0699 
G01 X-5.3601 Y16.9200 
G01 X-5.3081 Y16.7601 
G01 X-5.2818 Y16.5941 
G01 X-5.2818 Y16.4259 
G01 X-5.3081 Y16.2599 
G01 X-5.3601 Y16.1000 
G01 X-5.4364 Y15.9501 
G01 X-5.5352 Y15.8141 
G01 X-5.6541 Y15.6952 
G01 X-5.7901 Y15.5964 
G01 X-5.9400 Y15.5201 
G01 X-6.0999 Y15.4681 
G01 X-6.2659 Y15.4418 
G01 X-6.4341 Y15.4418 
G01 X-6.6001 Y15.4681 
G01 X-6.7600 Y15.5201 
G01 X-6.9099 Y15.5964 
G01 X-7.0459 Y15.6952 
G01 X-7.1648 Y15.8141 
G01 X-7.2636 Y15.9501 
G01 X-7.3399 Y16.1000 
G01 X-7.3919 Y16.2599 
G01 X-7.4182 Y16.4259 
G00 Z2.5400  
G00 X-4.8782 Y16.4259 
G01 Z-0.1778 F100   
G01 X-4.8782 Y16.5941 F75    
G01 X-4.8519 Y16.7601 
G01 X-4.7999 Y16.9200 
G01 X-4.7236 Y17.0699 
G01 X-4.6248 Y17.2059 
G01 X-4.5059 Y17.3248 
G01 X-4.3699 Y17.4236 
G01 X-4.2200 Y17.4999 
G01 X-4.0601 Y17.5519 
G01 X-3.8941 Y17.5782 
G01 X-3.7259 Y17.5782 
G01 X-3.5599 Y17.5519 
G01 X-3.4000 Y17.4999 
G01 X-3.2501 Y17.4236 
G01 X-3.1141 Y17.3248 
G01 X-2.9952 Y17.2059 
G01 X-2.8964 Y17.0699 
G01 X-2.8201 Y16.9200 
G01 X-2.7681 Y16.7601 
G01 X-2.7418 Y16.5941 
G01 X-2.7418 Y16.4259 
G01 X-2.7681 Y16.2599 
G01 X-2.8201 Y16.1000 
G01 X-2.8964 Y15.9501 
G01 X-2.9952 Y15.8141 
G01 X-3.1141 Y15.6952 
G01 X-3.2501 Y15.5964 
G01 X-3.4000 Y15.5201 
G01 X-3.5599 Y15.4681 
G01 X-3.7259 Y15.4418 
G01 X-3.8941 Y15.4418 
G01 X-4.0601 Y15.4681 
G01 X-4.2200 Y15.5201 
G01 X-4.3699 Y15.5964 
G01 X-4.5059 Y15.6952 
G01 X-4.6248 Y15.8141 
G01 X-4.7236 Y15.9501 
G01 X-4.7999 Y16.1000 
G01 X-4.8519 Y16.2599 
G01 X-4.8782 Y16.4259 
G00 Z2.5400  
G00 X-2.3382 Y15.1559 
G01 Z-0.1778 F100   
G01 X-2.3382 Y15.3241 F75    
G01 X-2.3119 Y15.4901 
G01 X-2.2599 Y15.6500 
G01 X-2.1836 Y15.7999 
G01 X-2.0848 Y15.9359 
G01 X-1.9659 Y16.0548 
G01 X-1.8299 Y16.1536 
G01 X-1.6800 Y16.2299 
G01 X-1.5201 Y16.2819 
G01 X-1.3541 Y16.3082 
G01 X-1.1859 Y16.3082 
G01 X-1.0199 Y16.2819 
G01 X-0.8600 Y16.2299 
G01 X-0.7101 Y16.1536 
G01 X-0.5741 Y16.0548 
G01 X-0.4552 Y15.9359 
G01 X-0.3564 Y15.7999 
G01 X-0.2801 Y15.6500 
G01 X-0.2281 Y15.4901 
G01 X-0.2018 Y15.3241 
G01 X-0.2018 Y15.1559 
G01 X-0.2281 Y14.9899 
G01 X-0.2801 Y14.8300 
G01 X-0.3564 Y14.6801 
G01 X-0.4552 Y14.5441 
G01 X-0.5741 Y14.4252 
G01 X-0.7101 Y14.3264 
G01 X-0.8600 Y14.2501 
G01 X-1.0199 Y14.1981 
G01 X-1.1859 Y14.1718 
G01 X-1.3541 Y14.1718 
G01 X-1.5201 Y14.1981 
G01 X-1.6800 Y14.2501 
G01 X-1.8299 Y14.3264 
G01 X-1.9659 Y14.4252 
G01 X-2.0848 Y14.5441 
G01 X-2.1836 Y14.6801 
G01 X-2.2599 Y14.8300 
G01 X-2.3119 Y14.9899 
G01 X-2.3382 Y15.1559 
G00 Z2.5400  
G00 X-2.3382 Y12.6159 
G01 Z-0.1778 F100   
G01 X-2.3382 Y12.7841 F75    
G01 X-2.3119 Y12.9501 
G01 X-2.2599 Y13.1100 
G01 X-2.1836 Y13.2599 
G01 X-2.0848 Y13.3959 
G01 X-1.9659 Y13.5148 
G01 X-1.8299 Y13.6136 
G01 X-1.6800 Y13.6899 
G01 X-1.5201 Y13.7419 
G01 X-1.3541 Y13.7682 
G01 X-1.1859 Y13.7682 
G01 X-1.0199 Y13.7419 
G01 X-0.8600 Y13.6899 
G01 X-0.7101 Y13.6136 
G01 X-0.5741 Y13.5148 
G01 X-0.4552 Y13.3959 
G01 X-0.3564 Y13.2599 
G01 X-0.2801 Y13.1100 
G01 X-0.2281 Y12.9501 
G01 X-0.2018 Y12.7841 
G01 X-0.2018 Y12.6159 
G01 X-0.2281 Y12.4499 
G01 X-0.2801 Y12.2900 
G01 X-0.3564 Y12.1401 
G01 X-0.4552 Y12.0041 
G01 X-0.5741 Y11.8852 
G01 X-0.7101 Y11.7864 
G01 X-0.8600 Y11.7101 
G01 X-1.0199 Y11.6581 
G01 X-1.1859 Y11.6318 
G01 X-1.3541 Y11.6318 
G01 X-1.5201 Y11.6581 
G01 X-1.6800 Y11.7101 
G01 X-1.8299 Y11.7864 
G01 X-1.9659 Y11.8852 
G01 X-2.0848 Y12.0041 
G01 X-2.1836 Y12.1401 
G01 X-2.2599 Y12.2900 
G01 X-2.3119 Y12.4499 
G01 X-2.3382 Y12.6159 
G00 Z2.5400  
G00 X-2.3382 Y10.0759 
G01 Z-0.1778 F100   
G01 X-2.3382 Y10.2441 F75    
G01 X-2.3119 Y10.4101 
G01 X-2.2599 Y10.5700 
G01 X-2.1836 Y10.7199 
G01 X-2.0848 Y10.8559 
G01 X-1.9659 Y10.9748 
G01 X-1.8299 Y11.0736 
G01 X-1.6800 Y11.1499 
G01 X-1.5201 Y11.2019 
G01 X-1.3541 Y11.2282 
G01 X-1.1859 Y11.2282 
G01 X-1.0199 Y11.2019 
G01 X-0.8600 Y11.1499 
G01 X-0.7101 Y11.0736 
G01 X-0.5741 Y10.9748 
G01 X-0.4552 Y10.8559 
G01 X-0.3564 Y10.7199 
G01 X-0.2801 Y10.5700 
G01 X-0.2281 Y10.4101 
G01 X-0.2018 Y10.2441 
G01 X-0.2018 Y10.0759 
G01 X-0.2281 Y9.9099  
G01 X-0.2801 Y9.7500  
G01 X-0.3564 Y9.6001  
G01 X-0.4552 Y9.4641  
G01 X-0.5741 Y9.3452  
G01 X-0.7101 Y9.2464  
G01 X-0.8600 Y9.1701  
G01 X-1.0199 Y9.1181  
G01 X-1.1859 Y9.0918  
G01 X-1.3541 Y9.0918  
G01 X-1.5201 Y9.1181  
G01 X-1.6800 Y9.1701  
G01 X-1.8299 Y9.2464  
G01 X-1.9659 Y9.3452  
G01 X-2.0848 Y9.4641  
G01 X-2.1836 Y9.6001  
G01 X-2.2599 Y9.7500  
G01 X-2.3119 Y9.9099  
G01 X-2.3382 Y10.0759 
G00 Z2.5400  
G00 X-2.3382 Y7.5359  
G01 Z-0.1778 F100   
G01 X-2.3382 Y7.7041  F75    
G01 X-2.3119 Y7.8701  
G01 X-2.2599 Y8.0300  
G01 X-2.1836 Y8.1799  
G01 X-2.0848 Y8.3159  
G01 X-1.9659 Y8.4348  
G01 X-1.8299 Y8.5336  
G01 X-1.6800 Y8.6099  
G01 X-1.5201 Y8.6619  
G01 X-1.3541 Y8.6882  
G01 X-1.1859 Y8.6882  
G01 X-1.0199 Y8.6619  
G01 X-0.8600 Y8.6099  
G01 X-0.7101 Y8.5336  
G01 X-0.5741 Y8.4348  
G01 X-0.4552 Y8.3159  
G01 X-0.3564 Y8.1799  
G01 X-0.2801 Y8.0300  
G01 X-0.2281 Y7.8701  
G01 X-0.2018 Y7.7041  
G01 X-0.2018 Y7.5359  
G01 X-0.2281 Y7.3699  
G01 X-0.2801 Y7.2100  
G01 X-0.3564 Y7.0601  
G01 X-0.4552 Y6.9241  
G01 X-0.5741 Y6.8052  
G01 X-0.7101 Y6.7064  
G01 X-0.8600 Y6.6301  
G01 X-1.0199 Y6.5781  
G01 X-1.1859 Y6.5518  
G01 X-1.3541 Y6.5518  
G01 X-1.5201 Y6.5781  
G01 X-1.6800 Y6.6301  
G01 X-1.8299 Y6.7064  
G01 X-1.9659 Y6.8052  
G01 X-2.0848 Y6.9241  
G01 X-2.1836 Y7.0601  
G01 X-2.2599 Y7.2100  
G01 X-2.3119 Y7.3699  
G01 X-2.3382 Y7.5359  
G00 Z2.5400  
G00 X-12.5782 Y8.4144  
G01 Z-0.1778 F100   
G01 X-12.5782 Y16.6004 F75    
G01 X-12.5499 Y16.7789 
G01 X-12.4941 Y16.9508 
G01 X-12.4120 Y17.1118 
G01 X-12.3058 Y17.2580 
G01 X-12.1780 Y17.3858 
G01 X-12.0318 Y17.4920 
G01 X-11.8708 Y17.5741 
G01 X-11.6989 Y17.6299 
G01 X-11.5204 Y17.6582 
G01 X-11.3396 Y17.6582 
G01 X-11.1611 Y17.6299 
G01 X-10.9892 Y17.5741 
G01 X-10.8282 Y17.4920 
G01 X-10.6820 Y17.3858 
G01 X-10.5542 Y17.2580 
G01 X-10.4480 Y17.1118 
G01 X-10.3659 Y16.9508 
G01 X-10.3101 Y16.7789 
G01 X-10.2818 Y16.6004 
G01 X-10.2818 Y8.4144  
G01 X-10.5542 Y8.1420  
G01 X-10.6820 Y8.0142  
G01 X-10.9544 Y7.7418  
G01 X-11.9056 Y7.7418  
G01 X-12.1780 Y8.0142  
G01 X-12.3058 Y8.1420  
G01 X-12.5782 Y8.4144  
G00 Z2.5400  
G00 X-14.4456 Y7.4982  
G01 Z-0.1778 F100   
G01 X-14.0371 Y7.4982  F75    
G01 X-14.0140 Y7.5009  
G01 X-13.9468 Y7.4982  
G01 X-13.4944 Y7.4982  
G01 X-13.2056 Y7.2094  
G01 X-13.1873 Y7.1949  
G01 X-13.1417 Y7.1455  
G01 X-12.8218 Y6.8256  
G01 X-12.8218 Y6.4171  
G01 X-12.8191 Y6.3940  
G01 X-12.8218 Y6.3268  
G01 X-12.8218 Y5.8744  
G01 X-13.1106 Y5.5856  
G01 X-13.1251 Y5.5673  
G01 X-13.1745 Y5.5217  
G01 X-13.4944 Y5.2018  
G01 X-13.6224 Y5.2018  
G01 X-17.2183 Y2.8045  
G01 X-17.3825 Y2.7290  
G01 X-17.5565 Y2.6801  
G01 X-17.7360 Y2.6591  
G01 X-17.9166 Y2.6664  
G01 X-18.0938 Y2.7018  
G01 X-18.2633 Y2.7646  
G01 X-18.4209 Y2.8530  
G01 X-18.5627 Y2.9651  
G01 X-18.6852 Y3.0979  
G01 X-18.7855 Y3.2483  
G01 X-18.8610 Y3.4125  
G01 X-18.9099 Y3.5865  
G01 X-18.9309 Y3.7660  
G01 X-18.9236 Y3.9466  
G01 X-18.8882 Y4.1238  
G01 X-18.8254 Y4.2933  
G01 X-18.7370 Y4.4509  
G01 X-18.6249 Y4.5927  
G01 X-18.4921 Y4.7152  
G01 X-14.7015 Y7.2423  
G01 X-14.4456 Y7.4982  
G00 Z2.5400  
G00 X-13.4944 Y12.5782 
G01 Z-0.1778 F100   
G01 X-13.1745 Y12.2583 F75    
G01 X-13.1251 Y12.2127 
G01 X-13.1106 Y12.1944 
G01 X-12.8218 Y11.9056 
G01 X-12.8218 Y11.4532 
G01 X-12.8191 Y11.3860 
G01 X-12.8218 Y11.3629 
G01 X-12.8218 Y10.9544 
G01 X-13.1417 Y10.6345 
G01 X-13.1873 Y10.5851 
G01 X-13.2056 Y10.5706 
G01 X-13.4944 Y10.2818 
G01 X-13.9468 Y10.2818 
G01 X-14.0140 Y10.2791 
G01 X-14.0371 Y10.2818 
G01 X-14.4456 Y10.2818 
G01 X-14.7015 Y10.5377 
G01 X-18.4921 Y13.0648 
G01 X-18.6249 Y13.1873 
G01 X-18.7370 Y13.3291 
G01 X-18.8254 Y13.4867 
G01 X-18.8882 Y13.6562 
G01 X-18.9236 Y13.8334 
G01 X-18.9309 Y14.0140 
G01 X-18.9099 Y14.1935 
G01 X-18.8610 Y14.3675 
G01 X-18.7855 Y14.5317 
G01 X-18.6852 Y14.6821 
G01 X-18.5627 Y14.8149 
G01 X-18.4209 Y14.9270 
G01 X-18.2633 Y15.0154 
G01 X-18.0938 Y15.0782 
G01 X-17.9166 Y15.1136 
G01 X-17.7360 Y15.1209 
G01 X-17.5565 Y15.0998 
G01 X-17.3825 Y15.0510 
G01 X-17.2183 Y14.9755 
G01 X-13.6224 Y12.5782 
G01 X-13.4944 Y12.5782 
G00 Z2.5400  
G00 X-4.7261 Y8.9801  
G01 Z-0.1778 F100   
G01 X-7.9739 Y8.9801  F75    
G01 X-8.2098 Y9.0111  
G01 X-8.4396 Y9.0727  
G01 X-8.6594 Y9.1637  
G01 X-8.8654 Y9.2827  
G01 X-9.0542 Y9.4275  
G01 X-9.2224 Y9.5958  
G01 X-9.3673 Y9.7845  
G01 X-9.4862 Y9.9905  
G01 X-9.5773 Y10.2104 
G01 X-9.6388 Y10.4402 
G01 X-9.6699 Y10.6760 
G01 X-9.6699 Y10.9140 
G01 X-9.6388 Y11.1498 
G01 X-9.5773 Y11.3796 
G01 X-9.4862 Y11.5995 
G01 X-9.3673 Y11.8055 
G01 X-9.2224 Y11.9942 
G01 X-9.0542 Y12.1625 
G01 X-8.8654 Y12.3073 
G01 X-8.6594 Y12.4263 
G01 X-8.4396 Y12.5173 
G01 X-8.2098 Y12.5789 
G01 X-8.6874 Y13.5373 
G01 X-8.7419 Y13.7096 
G01 X-8.7689 Y13.8884 
G01 X-8.7675 Y14.0691 
G01 X-8.7378 Y14.2474 
G01 X-8.6807 Y14.4188 
G01 X-8.5974 Y14.5792 
G01 X-8.4901 Y14.7246 
G01 X-8.3613 Y14.8515 
G01 X-8.2143 Y14.9566 
G01 X-8.0527 Y15.0374 
G01 X-7.8804 Y15.0919 
G01 X-7.7016 Y15.1189 
G01 X-7.5209 Y15.1175 
G01 X-7.3426 Y15.0879 
G01 X-7.1712 Y15.0307 
G01 X-7.0108 Y14.9474 
G01 X-6.8654 Y14.8401 
G01 X-6.7385 Y14.7113 
G01 X-6.6334 Y14.5643 
G01 X-5.6562 Y12.6099 
G01 X-4.7261 Y12.6099 
G01 X-4.4902 Y12.5789 
G01 X-4.2604 Y12.5173 
G01 X-4.0406 Y12.4263 
G01 X-3.8346 Y12.3073 
G01 X-3.6458 Y12.1625 
G01 X-3.4776 Y11.9942 
G01 X-3.3327 Y11.8055 
G01 X-3.2138 Y11.5995 
G01 X-3.1227 Y11.3796 
G01 X-3.0612 Y11.1498 
G01 X-3.0301 Y10.9140 
G01 X-3.0301 Y10.6760 
G01 X-3.0612 Y10.4402 
G01 X-3.1227 Y10.2104 
G01 X-3.2138 Y9.9905  
G01 X-3.3327 Y9.7845  
G01 X-3.4776 Y9.5958  
G01 X-3.6458 Y9.4275  
G01 X-3.8346 Y9.2827  
G01 X-4.0406 Y9.1637  
G01 X-4.2604 Y9.0727  
G01 X-4.4902 Y9.0111  
G01 X-4.7261 Y8.9801  
G00 Z2.5400  
G00 X-12.5782 Y1.1796  
G01 Z-0.1778 F100   
G01 X-12.5782 Y1.3604  F75    
G01 X-12.5499 Y1.5389  
G01 X-12.4941 Y1.7108  
G01 X-12.4120 Y1.8718  
G01 X-12.3058 Y2.0180  
G01 X-12.1780 Y2.1458  
G01 X-12.0318 Y2.2520  
G01 X-11.8708 Y2.3341  
G01 X-11.6989 Y2.3899  
G01 X-11.5204 Y2.4182  
G01 X-11.3396 Y2.4182  
G01 X-11.1611 Y2.3899  
G01 X-10.9892 Y2.3341  
G01 X-10.8282 Y2.2520  
G01 X-10.6820 Y2.1458  
G01 X-10.5542 Y2.0180  
G01 X-10.4480 Y1.8718  
G01 X-10.3659 Y1.7108  
G01 X-10.3101 Y1.5389  
G01 X-10.2818 Y1.3604  
G01 X-10.2818 Y1.1796  
G01 X-10.3101 Y1.0011  
G01 X-10.3659 Y0.8292  
G01 X-10.4480 Y0.6682  
G01 X-10.5542 Y0.5220  
G01 X-10.6820 Y0.3942  
G01 X-10.8282 Y0.2880  
G01 X-10.9892 Y0.2059  
G01 X-11.1611 Y0.1501  
G01 X-11.3396 Y0.1218  
G01 X-11.5204 Y0.1218  
G01 X-11.6989 Y0.1501  
G01 X-11.8708 Y0.2059  
G01 X-12.0318 Y0.2880  
G01 X-12.1780 Y0.3942  
G01 X-12.3058 Y0.5220  
G01 X-12.4120 Y0.6682  
G01 X-12.4941 Y0.8292  
G01 X-12.5499 Y1.0011  
G01 X-12.5782 Y1.1796  
G00 Z2.5400  
G00 X-15.1182 Y1.1796  
G01 Z-0.1778 F100   
G01 X-15.1182 Y1.3604  F75    
G01 X-15.0899 Y1.5389  
G01 X-15.0341 Y1.7108  
G01 X-14.9520 Y1.8718  
G01 X-14.8458 Y2.0180  
G01 X-14.7180 Y2.1458  
G01 X-14.5718 Y2.2520  
G01 X-14.4108 Y2.3341  
G01 X-14.2389 Y2.3899  
G01 X-14.0604 Y2.4182  
G01 X-13.8796 Y2.4182  
G01 X-13.7011 Y2.3899  
G01 X-13.5292 Y2.3341  
G01 X-13.3682 Y2.2520  
G01 X-13.2220 Y2.1458  
G01 X-13.0942 Y2.0180  
G01 X-12.9880 Y1.8718  
G01 X-12.9059 Y1.7108  
G01 X-12.8501 Y1.5389  
G01 X-12.8218 Y1.3604  
G01 X-12.8218 Y1.1796  
G01 X-12.8501 Y1.0011  
G01 X-12.9059 Y0.8292  
G01 X-12.9880 Y0.6682  
G01 X-13.0942 Y0.5220  
G01 X-13.2220 Y0.3942  
G01 X-13.3682 Y0.2880  
G01 X-13.5292 Y0.2059  
G01 X-13.7011 Y0.1501  
G01 X-13.8796 Y0.1218  
G01 X-14.0604 Y0.1218  
G01 X-14.2389 Y0.1501  
G01 X-14.4108 Y0.2059  
G01 X-14.5718 Y0.2880  
G01 X-14.7180 Y0.3942  
G01 X-14.8458 Y0.5220  
G01 X-14.9520 Y0.6682  
G01 X-15.0341 Y0.8292  
G01 X-15.0899 Y1.0011  
G01 X-15.1182 Y1.1796  
G00 Z2.5400  
G00 X-17.6582 Y1.1796  
G01 Z-0.1778 F100   
G01 X-17.6582 Y1.3604  F75    
G01 X-17.6299 Y1.5389  
G01 X-17.5741 Y1.7108  
G01 X-17.4920 Y1.8718  
G01 X-17.3858 Y2.0180  
G01 X-17.2580 Y2.1458  
G01 X-17.1118 Y2.2520  
G01 X-16.9508 Y2.3341  
G01 X-16.7789 Y2.3899  
G01 X-16.6004 Y2.4182  
G01 X-16.4196 Y2.4182  
G01 X-16.2411 Y2.3899  
G01 X-16.0692 Y2.3341  
G01 X-15.9082 Y2.2520  
G01 X-15.7620 Y2.1458  
G01 X-15.6342 Y2.0180  
G01 X-15.5280 Y1.8718  
G01 X-15.4459 Y1.7108  
G01 X-15.3901 Y1.5389  
G01 X-15.3618 Y1.3604  
G01 X-15.3618 Y1.1796  
G01 X-15.3901 Y1.0011  
G01 X-15.4459 Y0.8292  
G01 X-15.5280 Y0.6682  
G01 X-15.6342 Y0.5220  
G01 X-15.7620 Y0.3942  
G01 X-15.9082 Y0.2880  
G01 X-16.0692 Y0.2059  
G01 X-16.2411 Y0.1501  
G01 X-16.4196 Y0.1218  
G01 X-16.6004 Y0.1218  
G01 X-16.7789 Y0.1501  
G01 X-16.9508 Y0.2059  
G01 X-17.1118 Y0.2880  
G01 X-17.2580 Y0.3942  
G01 X-17.3858 Y0.5220  
G01 X-17.4920 Y0.6682  
G01 X-17.5741 Y0.8292  
G01 X-17.6299 Y1.0011  
G01 X-17.6582 Y1.1796  
G00 Z2.5400  
G00 X-10.0382 Y1.1796  
G01 Z-0.1778 F100   
G01 X-10.0382 Y1.3604  F75    
G01 X-10.0099 Y1.5389  
G01 X-9.9541 Y1.7108  
G01 X-9.8720 Y1.8718  
G01 X-9.7658 Y2.0180  
G01 X-9.6380 Y2.1458  
G01 X-9.4918 Y2.2520  
G01 X-9.3308 Y2.3341  
G01 X-9.1589 Y2.3899  
G01 X-8.9804 Y2.4182  
G01 X-8.7996 Y2.4182  
G01 X-8.6211 Y2.3899  
G01 X-8.4492 Y2.3341  
G01 X-8.2882 Y2.2520  
G01 X-8.1420 Y2.1458  
G01 X-8.0142 Y2.0180  
G01 X-7.9080 Y1.8718  
G01 X-7.8259 Y1.7108  
G01 X-7.7701 Y1.5389  
G01 X-7.7418 Y1.3604  
G01 X-7.7418 Y1.1796  
G01 X-7.7701 Y1.0011  
G01 X-7.8259 Y0.8292  
G01 X-7.9080 Y0.6682  
G01 X-8.0142 Y0.5220  
G01 X-8.1420 Y0.3942  
G01 X-8.2882 Y0.2880  
G01 X-8.4492 Y0.2059  
G01 X-8.6211 Y0.1501  
G01 X-8.7996 Y0.1218  
G01 X-8.9804 Y0.1218  
G01 X-9.1589 Y0.1501  
G01 X-9.3308 Y0.2059  
G01 X-9.4918 Y0.2880  
G01 X-9.6380 Y0.3942  
G01 X-9.7658 Y0.5220  
G01 X-9.8720 Y0.6682  
G01 X-9.9541 Y0.8292  
G01 X-10.0099 Y1.0011  
G01 X-10.0382 Y1.1796  
G00 Z2.5400  
G00 X-2.7459 Y1.7108  
G01 Z-0.1778 F100   
G01 X-2.7446 Y1.7066  F75    
G01 X-2.7426 Y1.7027  
G01 X-2.7166 Y1.6205  
G01 X-2.6901 Y1.5389  
G01 X-2.6894 Y1.5345  
G01 X-2.6881 Y1.5304  
G01 X-2.6752 Y1.4452  
G01 X-2.6618 Y1.3604  
G01 X-2.6618 Y1.3560  
G01 X-2.6611 Y1.3516  
G01 X-2.6618 Y1.2655  
G01 X-2.6618 Y1.1796  
G01 X-2.6625 Y1.1753  
G01 X-2.6625 Y1.1709  
G01 X-2.6766 Y1.0861  
G01 X-2.6901 Y1.0011  
G01 X-2.6914 Y0.9970  
G01 X-2.6921 Y0.9926  
G01 X-2.7194 Y0.9110  
G01 X-2.7459 Y0.8292  
G01 X-2.7479 Y0.8254  
G01 X-2.7493 Y0.8212  
G01 X-2.7890 Y0.7447  
G01 X-2.8280 Y0.6682  
G01 X-2.8306 Y0.6647  
G01 X-2.8326 Y0.6608  
G01 X-2.8836 Y0.5916  
G01 X-2.9342 Y0.5220  
G01 X-2.9373 Y0.5189  
G01 X-2.9399 Y0.5154  
G01 X-3.0012 Y0.4550  
G01 X-3.0620 Y0.3942  
G01 X-3.0655 Y0.3916  
G01 X-3.0687 Y0.3885  
G01 X-3.1388 Y0.3384  
G01 X-3.2082 Y0.2880  
G01 X-3.2121 Y0.2860  
G01 X-3.2157 Y0.2834  
G01 X-3.2928 Y0.2449  
G01 X-3.3692 Y0.2059  
G01 X-3.3734 Y0.2046  
G01 X-3.3773 Y0.2026  
G01 X-3.4595 Y0.1766  
G01 X-3.5411 Y0.1501  
G01 X-3.5455 Y0.1494  
G01 X-3.5496 Y0.1481  
G01 X-3.6348 Y0.1352  
G01 X-3.7196 Y0.1218  
G01 X-3.7240 Y0.1218  
G01 X-3.7284 Y0.1211  
G01 X-3.8145 Y0.1218  
G01 X-3.9004 Y0.1218  
G01 X-3.9047 Y0.1225  
G01 X-3.9091 Y0.1225  
G01 X-3.9939 Y0.1366  
G01 X-4.0789 Y0.1501  
G01 X-4.0830 Y0.1514  
G01 X-4.0874 Y0.1521  
G01 X-4.1690 Y0.1794  
G01 X-4.2508 Y0.2059  
G01 X-4.2546 Y0.2079  
G01 X-4.2588 Y0.2093  
G01 X-4.3353 Y0.2490  
G01 X-4.4118 Y0.2880  
G01 X-4.4153 Y0.2906  
G01 X-4.4192 Y0.2926  
G01 X-4.4884 Y0.3436  
G01 X-4.5580 Y0.3942  
G01 X-4.5611 Y0.3973  
G01 X-4.5646 Y0.3999  
G01 X-4.6250 Y0.4612  
G01 X-4.6858 Y0.5220  
G01 X-4.6884 Y0.5255  
G01 X-4.6915 Y0.5287  
G01 X-4.7416 Y0.5988  
G01 X-4.7920 Y0.6682  
G01 X-4.7940 Y0.6721  
G01 X-4.7966 Y0.6757  
G01 X-4.8351 Y0.7528  
G01 X-4.8741 Y0.8292  
G01 X-4.8754 Y0.8334  
G01 X-5.2336 Y1.5498  
G01 X-5.2301 Y1.5389  
G01 X-5.2018 Y1.3604  
G01 X-5.2018 Y1.1796  
G01 X-5.2301 Y1.0011  
G01 X-5.2859 Y0.8292  
G01 X-5.3680 Y0.6682  
G01 X-5.4742 Y0.5220  
G01 X-5.6020 Y0.3942  
G01 X-5.7482 Y0.2880  
G01 X-5.9092 Y0.2059  
G01 X-6.0811 Y0.1501  
G01 X-6.2596 Y0.1218  
G01 X-6.4404 Y0.1218  
G01 X-6.6189 Y0.1501  
G01 X-6.7908 Y0.2059  
G01 X-6.9518 Y0.2880  
G01 X-7.0980 Y0.3942  
G01 X-7.2258 Y0.5220  
G01 X-7.3320 Y0.6682  
G01 X-7.4141 Y0.8292  
G01 X-7.4699 Y1.0011  
G01 X-7.4982 Y1.1796  
G01 X-7.4982 Y1.3604  
G01 X-7.4699 Y1.5389  
G01 X-7.4141 Y1.7108  
G01 X-7.3320 Y1.8718  
G01 X-7.2258 Y2.0180  
G01 X-7.0980 Y2.1458  
G01 X-6.9518 Y2.2520  
G01 X-6.7908 Y2.3341  
G01 X-6.6189 Y2.3899  
G01 X-6.4404 Y2.4182  
G01 X-6.2596 Y2.4182  
G01 X-6.0811 Y2.3899  
G01 X-5.9092 Y2.3341  
G01 X-5.7482 Y2.2520  
G01 X-5.6020 Y2.1458  
G01 X-5.4742 Y2.0180  
G01 X-5.4534 Y1.9894  
G01 X-6.3500 Y3.7826  
G01 X-6.6334 Y3.2157  
G01 X-6.7385 Y3.0687  
G01 X-6.8654 Y2.9399  
G01 X-7.0108 Y2.8326  
G01 X-7.1712 Y2.7493  
G01 X-7.3426 Y2.6921  
G01 X-7.5209 Y2.6625  
G01 X-7.7016 Y2.6611  
G01 X-7.8804 Y2.6881  
G01 X-8.0527 Y2.7426  
G01 X-8.2143 Y2.8234  
G01 X-8.3613 Y2.9285  
G01 X-8.4901 Y3.0554  
G01 X-8.5974 Y3.2008  
G01 X-8.6807 Y3.3612  
G01 X-8.7378 Y3.5326  
G01 X-8.7675 Y3.7109  
G01 X-8.7689 Y3.8916  
G01 X-8.7419 Y4.0704  
G01 X-8.6874 Y4.2427  
G01 X-8.4854 Y4.6467  
G01 X-8.6594 Y4.7187  
G01 X-8.8654 Y4.8377  
G01 X-9.0542 Y4.9825  
G01 X-9.2224 Y5.1508  
G01 X-9.3673 Y5.3395  
G01 X-9.4862 Y5.5455  
G01 X-9.5773 Y5.7654  
G01 X-9.6388 Y5.9952  
G01 X-9.6699 Y6.2310  
G01 X-9.6699 Y6.4690  
G01 X-9.6388 Y6.7048  
G01 X-9.5773 Y6.9346  
G01 X-9.4862 Y7.1545  
G01 X-9.3673 Y7.3605  
G01 X-9.2224 Y7.5492  
G01 X-9.0542 Y7.7175  
G01 X-8.8654 Y7.8623  
G01 X-8.6594 Y7.9813  
G01 X-8.4396 Y8.0723  
G01 X-8.2098 Y8.1339  
G01 X-7.9739 Y8.1649  
G01 X-4.7261 Y8.1649  
G01 X-4.4902 Y8.1339  
G01 X-4.2604 Y8.0723  
G01 X-4.0406 Y7.9813  
G01 X-3.8346 Y7.8623  
G01 X-3.6458 Y7.7175  
G01 X-3.4776 Y7.5492  
G01 X-3.3327 Y7.3605  
G01 X-3.2138 Y7.1545  
G01 X-3.1227 Y6.9346  
G01 X-3.0612 Y6.7048  
G01 X-3.0301 Y6.4690  
G01 X-3.0301 Y6.2310  
G01 X-3.0612 Y5.9952  
G01 X-3.1227 Y5.7654  
G01 X-3.2138 Y5.5455  
G01 X-3.3327 Y5.3395  
G01 X-3.4776 Y5.1508  
G01 X-3.6458 Y4.9825  
G01 X-3.8346 Y4.8377  
G01 X-4.0406 Y4.7187  
G01 X-4.2146 Y4.6467  
G01 X-2.7849 Y1.7872  
G01 X-2.7459 Y1.7108  
G00 Z2.5400  
G00 X-2.4182 Y4.9896  
G01 Z-0.1778 F100   
G01 X-2.4182 Y5.1704  F75    
G01 X-2.3899 Y5.3489  
G01 X-2.3341 Y5.5208  
G01 X-2.2520 Y5.6818  
G01 X-2.1458 Y5.8280  
G01 X-2.0180 Y5.9558  
G01 X-1.8718 Y6.0620  
G01 X-1.7108 Y6.1441  
G01 X-1.5389 Y6.1999  
G01 X-1.3604 Y6.2282  
G01 X-1.1796 Y6.2282  
G01 X-1.0011 Y6.1999  
G01 X-0.8292 Y6.1441  
G01 X-0.6682 Y6.0620  
G01 X-0.5220 Y5.9558  
G01 X-0.3942 Y5.8280  
G01 X-0.2880 Y5.6818  
G01 X-0.2059 Y5.5208  
G01 X-0.1501 Y5.3489  
G01 X-0.1218 Y5.1704  
G01 X-0.1218 Y4.9896  
G01 X-0.1501 Y4.8111  
G01 X-0.2059 Y4.6392  
G01 X-0.2880 Y4.4782  
G01 X-0.3942 Y4.3320  
G01 X-0.5220 Y4.2042  
G01 X-0.6682 Y4.0980  
G01 X-0.8292 Y4.0159  
G01 X-1.0011 Y3.9601  
G01 X-1.1796 Y3.9318  
G01 X-1.3604 Y3.9318  
G01 X-1.5389 Y3.9601  
G01 X-1.7108 Y4.0159  
G01 X-1.8718 Y4.0980  
G01 X-2.0180 Y4.2042  
G01 X-2.1458 Y4.3320  
G01 X-2.2520 Y4.4782  
G01 X-2.3341 Y4.6392  
G01 X-2.3899 Y4.8111  
G01 X-2.4182 Y4.9896  
G00 Z2.5400  
G00 X-2.4182 Y2.4496  
G01 Z-0.1778 F100   
G01 X-2.4182 Y2.6304  F75    
G01 X-2.3899 Y2.8089  
G01 X-2.3341 Y2.9808  
G01 X-2.2520 Y3.1418  
G01 X-2.1458 Y3.2880  
G01 X-2.0180 Y3.4158  
G01 X-1.8718 Y3.5220  
G01 X-1.7108 Y3.6041  
G01 X-1.5389 Y3.6599  
G01 X-1.3604 Y3.6882  
G01 X-1.1796 Y3.6882  
G01 X-1.0011 Y3.6599  
G01 X-0.8292 Y3.6041  
G01 X-0.6682 Y3.5220  
G01 X-0.5220 Y3.4158  
G01 X-0.3942 Y3.2880  
G01 X-0.2880 Y3.1418  
G01 X-0.2059 Y2.9808  
G01 X-0.1501 Y2.8089  
G01 X-0.1218 Y2.6304  
G01 X-0.1218 Y2.4496  
G01 X-0.1501 Y2.2711  
G01 X-0.2059 Y2.0992  
G01 X-0.2880 Y1.9382  
G01 X-0.3942 Y1.7920  
G01 X-0.5220 Y1.6642  
G01 X-0.6682 Y1.5580  
G01 X-0.8292 Y1.4759  
G01 X-1.0011 Y1.4201  
G01 X-1.1796 Y1.3918  
G01 X-1.3604 Y1.3918  
G01 X-1.5389 Y1.4201  
G01 X-1.7108 Y1.4759  
G01 X-1.8718 Y1.5580  
G01 X-2.0180 Y1.6642  
G01 X-2.1458 Y1.7920  
G01 X-2.2520 Y1.9382  
G01 X-2.3341 Y2.0992  
G01 X-2.3899 Y2.2711  
G01 X-2.4182 Y2.4496  
G00 Z2.5400  
G00 X-15.1182 Y16.4196 
G01 Z-0.1778 F100   
G01 X-15.1182 Y16.6004 F75    
G01 X-15.0899 Y16.7789 
G01 X-15.0341 Y16.9508 
G01 X-14.9520 Y17.1118 
G01 X-14.8458 Y17.2580 
G01 X-14.7180 Y17.3858 
G01 X-14.5718 Y17.4920 
G01 X-14.4108 Y17.5741 
G01 X-14.2389 Y17.6299 
G01 X-14.0604 Y17.6582 
G01 X-13.8796 Y17.6582 
G01 X-13.7011 Y17.6299 
G01 X-13.5292 Y17.5741 
G01 X-13.3682 Y17.4920 
G01 X-13.2220 Y17.3858 
G01 X-13.0942 Y17.2580 
G01 X-12.9880 Y17.1118 
G01 X-12.9059 Y16.9508 
G01 X-12.8501 Y16.7789 
G01 X-12.8218 Y16.6004 
G01 X-12.8218 Y16.4196 
G01 X-12.8501 Y16.2411 
G01 X-12.9059 Y16.0692 
G01 X-12.9880 Y15.9082 
G01 X-13.0942 Y15.7620 
G01 X-13.2220 Y15.6342 
G01 X-13.3682 Y15.5280 
G01 X-13.5292 Y15.4459 
G01 X-13.7011 Y15.3901 
G01 X-13.8796 Y15.3618 
G01 X-14.0604 Y15.3618 
G01 X-14.2389 Y15.3901 
G01 X-14.4108 Y15.4459 
G01 X-14.5718 Y15.5280 
G01 X-14.7180 Y15.6342 
G01 X-14.8458 Y15.7620 
G01 X-14.9520 Y15.9082 
G01 X-15.0341 Y16.0692 
G01 X-15.0899 Y16.2411 
G01 X-15.1182 Y16.4196 
G00 Z2.5400  
G00 X-17.6582 Y16.4196 
G01 Z-0.1778 F100   
G01 X-17.6582 Y16.6004 F75    
G01 X-17.6299 Y16.7789 
G01 X-17.5741 Y16.9508 
G01 X-17.4920 Y17.1118 
G01 X-17.3858 Y17.2580 
G01 X-17.2580 Y17.3858 
G01 X-17.1118 Y17.4920 
G01 X-16.9508 Y17.5741 
G01 X-16.7789 Y17.6299 
G01 X-16.6004 Y17.6582 
G01 X-16.4196 Y17.6582 
G01 X-16.2411 Y17.6299 
G01 X-16.0692 Y17.5741 
G01 X-15.9082 Y17.4920 
G01 X-15.7620 Y17.3858 
G01 X-15.6342 Y17.2580 
G01 X-15.5280 Y17.1118 
G01 X-15.4459 Y16.9508 
G01 X-15.3901 Y16.7789 
G01 X-15.3618 Y16.6004 
G01 X-15.3618 Y16.4196 
G01 X-15.3901 Y16.2411 
G01 X-15.4459 Y16.0692 
G01 X-15.5280 Y15.9082 
G01 X-15.6342 Y15.7620 
G01 X-15.7620 Y15.6342 
G01 X-15.9082 Y15.5280 
G01 X-16.0692 Y15.4459 
G01 X-16.2411 Y15.3901 
G01 X-16.4196 Y15.3618 
G01 X-16.6004 Y15.3618 
G01 X-16.7789 Y15.3901 
G01 X-16.9508 Y15.4459 
G01 X-17.1118 Y15.5280 
G01 X-17.2580 Y15.6342 
G01 X-17.3858 Y15.7620 
G01 X-17.4920 Y15.9082 
G01 X-17.5741 Y16.0692 
G01 X-17.6299 Y16.2411 
G01 X-17.6582 Y16.4196 
G00 Z2.5400  
G00 X-10.0382 Y16.4196 
G01 Z-0.1778 F100   
G01 X-10.0382 Y16.6004 F75    
G01 X-10.0099 Y16.7789 
G01 X-9.9541 Y16.9508 
G01 X-9.8720 Y17.1118 
G01 X-9.7658 Y17.2580 
G01 X-9.6380 Y17.3858 
G01 X-9.4918 Y17.4920 
G01 X-9.3308 Y17.5741 
G01 X-9.1589 Y17.6299 
G01 X-8.9804 Y17.6582 
G01 X-8.7996 Y17.6582 
G01 X-8.6211 Y17.6299 
G01 X-8.4492 Y17.5741 
G01 X-8.2882 Y17.4920 
G01 X-8.1420 Y17.3858 
G01 X-8.0142 Y17.2580 
G01 X-7.9080 Y17.1118 
G01 X-7.8259 Y16.9508 
G01 X-7.7701 Y16.7789 
G01 X-7.7418 Y16.6004 
G01 X-7.7418 Y16.4196 
G01 X-7.7701 Y16.2411 
G01 X-7.8259 Y16.0692 
G01 X-7.9080 Y15.9082 
G01 X-8.0142 Y15.7620 
G01 X-8.1420 Y15.6342 
G01 X-8.2882 Y15.5280 
G01 X-8.4492 Y15.4459 
G01 X-8.6211 Y15.3901 
G01 X-8.7996 Y15.3618 
G01 X-8.9804 Y15.3618 
G01 X-9.1589 Y15.3901 
G01 X-9.3308 Y15.4459 
G01 X-9.4918 Y15.5280 
G01 X-9.6380 Y15.6342 
G01 X-9.7658 Y15.7620 
G01 X-9.8720 Y15.9082 
G01 X-9.9541 Y16.0692 
G01 X-10.0099 Y16.2411 
G01 X-10.0382 Y16.4196 
G00 Z2.5400  
G00 X-7.4982 Y16.4196 
G01 Z-0.1778 F100   
G01 X-7.4982 Y16.6004 F75    
G01 X-7.4699 Y16.7789 
G01 X-7.4141 Y16.9508 
G01 X-7.3320 Y17.1118 
G01 X-7.2258 Y17.2580 
G01 X-7.0980 Y17.3858 
G01 X-6.9518 Y17.4920 
G01 X-6.7908 Y17.5741 
G01 X-6.6189 Y17.6299 
G01 X-6.4404 Y17.6582 
G01 X-6.2596 Y17.6582 
G01 X-6.0811 Y17.6299 
G01 X-5.9092 Y17.5741 
G01 X-5.7482 Y17.4920 
G01 X-5.6020 Y17.3858 
G01 X-5.4742 Y17.2580 
G01 X-5.3680 Y17.1118 
G01 X-5.2859 Y16.9508 
G01 X-5.2301 Y16.7789 
G01 X-5.2018 Y16.6004 
G01 X-5.2018 Y16.4196 
G01 X-5.2301 Y16.2411 
G01 X-5.2859 Y16.0692 
G01 X-5.3680 Y15.9082 
G01 X-5.4742 Y15.7620 
G01 X-5.6020 Y15.6342 
G01 X-5.7482 Y15.5280 
G01 X-5.9092 Y15.4459 
G01 X-6.0811 Y15.3901 
G01 X-6.2596 Y15.3618 
G01 X-6.4404 Y15.3618 
G01 X-6.6189 Y15.3901 
G01 X-6.7908 Y15.4459 
G01 X-6.9518 Y15.5280 
G01 X-7.0980 Y15.6342 
G01 X-7.2258 Y15.7620 
G01 X-7.3320 Y15.9082 
G01 X-7.4141 Y16.0692 
G01 X-7.4699 Y16.2411 
G01 X-7.4982 Y16.4196 
G00 Z2.5400  
G00 X-4.9582 Y16.4196 
G01 Z-0.1778 F100   
G01 X-4.9582 Y16.6004 F75    
G01 X-4.9299 Y16.7789 
G01 X-4.8741 Y16.9508 
G01 X-4.7920 Y17.1118 
G01 X-4.6858 Y17.2580 
G01 X-4.5580 Y17.3858 
G01 X-4.4118 Y17.4920 
G01 X-4.2508 Y17.5741 
G01 X-4.0789 Y17.6299 
G01 X-3.9004 Y17.6582 
G01 X-3.7196 Y17.6582 
G01 X-3.5411 Y17.6299 
G01 X-3.3692 Y17.5741 
G01 X-3.2082 Y17.4920 
G01 X-3.0620 Y17.3858 
G01 X-2.9342 Y17.2580 
G01 X-2.8280 Y17.1118 
G01 X-2.7459 Y16.9508 
G01 X-2.6901 Y16.7789 
G01 X-2.6618 Y16.6004 
G01 X-2.6618 Y16.4196 
G01 X-2.6901 Y16.2411 
G01 X-2.7459 Y16.0692 
G01 X-2.8280 Y15.9082 
G01 X-2.9342 Y15.7620 
G01 X-3.0620 Y15.6342 
G01 X-3.2082 Y15.5280 
G01 X-3.3692 Y15.4459 
G01 X-3.5411 Y15.3901 
G01 X-3.7196 Y15.3618 
G01 X-3.9004 Y15.3618 
G01 X-4.0789 Y15.3901 
G01 X-4.2508 Y15.4459 
G01 X-4.4118 Y15.5280 
G01 X-4.5580 Y15.6342 
G01 X-4.6858 Y15.7620 
G01 X-4.7920 Y15.9082 
G01 X-4.8741 Y16.0692 
G01 X-4.9299 Y16.2411 
G01 X-4.9582 Y16.4196 
G00 Z2.5400  
G00 X-2.4182 Y15.1496 
G01 Z-0.1778 F100   
G01 X-2.4182 Y15.3304 F75    
G01 X-2.3899 Y15.5089 
G01 X-2.3341 Y15.6808 
G01 X-2.2520 Y15.8418 
G01 X-2.1458 Y15.9880 
G01 X-2.0180 Y16.1158 
G01 X-1.8718 Y16.2220 
G01 X-1.7108 Y16.3041 
G01 X-1.5389 Y16.3599 
G01 X-1.3604 Y16.3882 
G01 X-1.1796 Y16.3882 
G01 X-1.0011 Y16.3599 
G01 X-0.8292 Y16.3041 
G01 X-0.6682 Y16.2220 
G01 X-0.5220 Y16.1158 
G01 X-0.3942 Y15.9880 
G01 X-0.2880 Y15.8418 
G01 X-0.2059 Y15.6808 
G01 X-0.1501 Y15.5089 
G01 X-0.1218 Y15.3304 
G01 X-0.1218 Y15.1496 
G01 X-0.1501 Y14.9711 
G01 X-0.2059 Y14.7992 
G01 X-0.2880 Y14.6382 
G01 X-0.3942 Y14.4920 
G01 X-0.5220 Y14.3642 
G01 X-0.6682 Y14.2580 
G01 X-0.8292 Y14.1759 
G01 X-1.0011 Y14.1201 
G01 X-1.1796 Y14.0918 
G01 X-1.3604 Y14.0918 
G01 X-1.5389 Y14.1201 
G01 X-1.7108 Y14.1759 
G01 X-1.8718 Y14.2580 
G01 X-2.0180 Y14.3642 
G01 X-2.1458 Y14.4920 
G01 X-2.2520 Y14.6382 
G01 X-2.3341 Y14.7992 
G01 X-2.3899 Y14.9711 
G01 X-2.4182 Y15.1496 
G00 Z2.5400  
G00 X-2.4182 Y12.6096 
G01 Z-0.1778 F100   
G01 X-2.4182 Y12.7904 F75    
G01 X-2.3899 Y12.9689 
G01 X-2.3341 Y13.1408 
G01 X-2.2520 Y13.3018 
G01 X-2.1458 Y13.4480 
G01 X-2.0180 Y13.5758 
G01 X-1.8718 Y13.6820 
G01 X-1.7108 Y13.7641 
G01 X-1.5389 Y13.8199 
G01 X-1.3604 Y13.8482 
G01 X-1.1796 Y13.8482 
G01 X-1.0011 Y13.8199 
G01 X-0.8292 Y13.7641 
G01 X-0.6682 Y13.6820 
G01 X-0.5220 Y13.5758 
G01 X-0.3942 Y13.4480 
G01 X-0.2880 Y13.3018 
G01 X-0.2059 Y13.1408 
G01 X-0.1501 Y12.9689 
G01 X-0.1218 Y12.7904 
G01 X-0.1218 Y12.6096 
G01 X-0.1501 Y12.4311 
G01 X-0.2059 Y12.2592 
G01 X-0.2880 Y12.0982 
G01 X-0.3942 Y11.9520 
G01 X-0.5220 Y11.8242 
G01 X-0.6682 Y11.7180 
G01 X-0.8292 Y11.6359 
G01 X-1.0011 Y11.5801 
G01 X-1.1796 Y11.5518 
G01 X-1.3604 Y11.5518 
G01 X-1.5389 Y11.5801 
G01 X-1.7108 Y11.6359 
G01 X-1.8718 Y11.7180 
G01 X-2.0180 Y11.8242 
G01 X-2.1458 Y11.9520 
G01 X-2.2520 Y12.0982 
G01 X-2.3341 Y12.2592 
G01 X-2.3899 Y12.4311 
G01 X-2.4182 Y12.6096 
G00 Z2.5400  
G00 X-2.4182 Y10.0696 
G01 Z-0.1778 F100   
G01 X-2.4182 Y10.2504 F75    
G01 X-2.3899 Y10.4289 
G01 X-2.3341 Y10.6008 
G01 X-2.2520 Y10.7618 
G01 X-2.1458 Y10.9080 
G01 X-2.0180 Y11.0358 
G01 X-1.8718 Y11.1420 
G01 X-1.7108 Y11.2241 
G01 X-1.5389 Y11.2799 
G01 X-1.3604 Y11.3082 
G01 X-1.1796 Y11.3082 
G01 X-1.0011 Y11.2799 
G01 X-0.8292 Y11.2241 
G01 X-0.6682 Y11.1420 
G01 X-0.5220 Y11.0358 
G01 X-0.3942 Y10.9080 
G01 X-0.2880 Y10.7618 
G01 X-0.2059 Y10.6008 
G01 X-0.1501 Y10.4289 
G01 X-0.1218 Y10.2504 
G01 X-0.1218 Y10.0696 
G01 X-0.1501 Y9.8911  
G01 X-0.2059 Y9.7192  
G01 X-0.2880 Y9.5582  
G01 X-0.3942 Y9.4120  
G01 X-0.5220 Y9.2842  
G01 X-0.6682 Y9.1780  
G01 X-0.8292 Y9.0959  
G01 X-1.0011 Y9.0401  
G01 X-1.1796 Y9.0118  
G01 X-1.3604 Y9.0118  
G01 X-1.5389 Y9.0401  
G01 X-1.7108 Y9.0959  
G01 X-1.8718 Y9.1780  
G01 X-2.0180 Y9.2842  
G01 X-2.1458 Y9.4120  
G01 X-2.2520 Y9.5582  
G01 X-2.3341 Y9.7192  
G01 X-2.3899 Y9.8911  
G01 X-2.4182 Y10.0696 
G00 Z2.5400  
G00 X-2.4182 Y7.5296  
G01 Z-0.1778 F100   
G01 X-2.4182 Y7.7104  F75    
G01 X-2.3899 Y7.8889  
G01 X-2.3341 Y8.0608  
G01 X-2.2520 Y8.2218  
G01 X-2.1458 Y8.3680  
G01 X-2.0180 Y8.4958  
G01 X-1.8718 Y8.6020  
G01 X-1.7108 Y8.6841  
G01 X-1.5389 Y8.7399  
G01 X-1.3604 Y8.7682  
G01 X-1.1796 Y8.7682  
G01 X-1.0011 Y8.7399  
G01 X-0.8292 Y8.6841  
G01 X-0.6682 Y8.6020  
G01 X-0.5220 Y8.4958  
G01 X-0.3942 Y8.3680  
G01 X-0.2880 Y8.2218  
G01 X-0.2059 Y8.0608  
G01 X-0.1501 Y7.8889  
G01 X-0.1218 Y7.7104  
G01 X-0.1218 Y7.5296  
G01 X-0.1501 Y7.3511  
G01 X-0.2059 Y7.1792  
G01 X-0.2880 Y7.0182  
G01 X-0.3942 Y6.8720  
G01 X-0.5220 Y6.7442  
G01 X-0.6682 Y6.6380  
G01 X-0.8292 Y6.5559  
G01 X-1.0011 Y6.5001  
G01 X-1.1796 Y6.4718  
G01 X-1.3604 Y6.4718  
G01 X-1.5389 Y6.5001  
G01 X-1.7108 Y6.5559  
G01 X-1.8718 Y6.6380  
G01 X-2.0180 Y6.7442  
G01 X-2.1458 Y6.8720  
G01 X-2.2520 Y7.0182  
G01 X-2.3341 Y7.1792  
G01 X-2.3899 Y7.3511  
G01 X-2.4182 Y7.5296  
G00 Z2.5400  
G00 X-12.6582 Y8.3813  
G01 Z-0.1778 F100   
G01 X-12.6582 Y16.6067 F75    
G01 X-12.6280 Y16.7976 
G01 X-12.5682 Y16.9815 
G01 X-12.4804 Y17.1537 
G01 X-12.3668 Y17.3101 
G01 X-12.2301 Y17.4468 
G01 X-12.0737 Y17.5604 
G01 X-11.9015 Y17.6482 
G01 X-11.7176 Y17.7080 
G01 X-11.5267 Y17.7382 
G01 X-11.3333 Y17.7382 
G01 X-11.1424 Y17.7080 
G01 X-10.9585 Y17.6482 
G01 X-10.7863 Y17.5604 
G01 X-10.6299 Y17.4468 
G01 X-10.4932 Y17.3101 
G01 X-10.3796 Y17.1537 
G01 X-10.2918 Y16.9815 
G01 X-10.2320 Y16.7976 
G01 X-10.2018 Y16.6067 
G01 X-10.2018 Y8.3813  
G01 X-10.4932 Y8.0899  
G01 X-10.6299 Y7.9532  
G01 X-10.9213 Y7.6618  
G01 X-11.9387 Y7.6618  
G01 X-12.2301 Y7.9532  
G01 X-12.3668 Y8.0899  
G01 X-12.6582 Y8.3813  
G00 Z2.5400  
G00 X-14.4787 Y7.5782  
G01 Z-0.1778 F100   
G01 X-14.0418 Y7.5782  F75    
G01 X-14.0171 Y7.5811  
G01 X-13.9452 Y7.5782  
G01 X-13.4613 Y7.5782  
G01 X-13.1523 Y7.2692  
G01 X-13.1328 Y7.2538  
G01 X-13.0840 Y7.2009  
G01 X-12.7418 Y6.8587  
G01 X-12.7418 Y6.4218  
G01 X-12.7389 Y6.3971  
G01 X-12.7418 Y6.3252  
G01 X-12.7418 Y5.8413  
G01 X-13.0508 Y5.5323  
G01 X-13.0662 Y5.5128  
G01 X-13.1191 Y5.4640  
G01 X-13.4613 Y5.1218  
G01 X-13.5981 Y5.1218  
G01 X-17.1791 Y2.7345  
G01 X-17.3548 Y2.6537  
G01 X-17.5409 Y2.6014  
G01 X-17.7329 Y2.5789  
G01 X-17.9261 Y2.5867  
G01 X-18.1157 Y2.6246  
G01 X-18.2970 Y2.6917  
G01 X-18.4655 Y2.7863  
G01 X-18.6172 Y2.9062  
G01 X-18.7483 Y3.0483  
G01 X-18.8555 Y3.2091  
G01 X-18.9363 Y3.3848  
G01 X-18.9886 Y3.5709  
G01 X-19.0111 Y3.7629  
G01 X-19.0033 Y3.9561  
G01 X-18.9654 Y4.1457  
G01 X-18.8983 Y4.3270  
G01 X-18.8037 Y4.4955  
G01 X-18.6838 Y4.6472  
G01 X-18.5417 Y4.7783  
G01 X-14.7525 Y7.3045  
G01 X-14.4787 Y7.5782  
G00 Z2.5400  
G00 X-13.4613 Y12.6582 
G01 Z-0.1778 F100   
G01 X-13.1191 Y12.3160 F75    
G01 X-13.0662 Y12.2672 
G01 X-13.0508 Y12.2477 
G01 X-12.7418 Y11.9387 
G01 X-12.7418 Y11.4548 
G01 X-12.7389 Y11.3829 
G01 X-12.7418 Y11.3582 
G01 X-12.7418 Y10.9213 
G01 X-13.0840 Y10.5791 
G01 X-13.1328 Y10.5262 
G01 X-13.1523 Y10.5108 
G01 X-13.4613 Y10.2018 
G01 X-13.9452 Y10.2018 
G01 X-14.0171 Y10.1989 
G01 X-14.0418 Y10.2018 
G01 X-14.4787 Y10.2018 
G01 X-14.7525 Y10.4755 
G01 X-18.5417 Y13.0017 
G01 X-18.6838 Y13.1328 
G01 X-18.8037 Y13.2845 
G01 X-18.8983 Y13.4530 
G01 X-18.9654 Y13.6343 
G01 X-19.0033 Y13.8239 
G01 X-19.0111 Y14.0171 
G01 X-18.9886 Y14.2091 
G01 X-18.9363 Y14.3952 
G01 X-18.8555 Y14.5709 
G01 X-18.7483 Y14.7317 
G01 X-18.6172 Y14.8738 
G01 X-18.4655 Y14.9937 
G01 X-18.2970 Y15.0883 
G01 X-18.1157 Y15.1554 
G01 X-17.9261 Y15.1933 
G01 X-17.7329 Y15.2011 
G01 X-17.5409 Y15.1786 
G01 X-17.3548 Y15.1263 
G01 X-17.1791 Y15.0455 
G01 X-13.5981 Y12.6582 
G01 X-13.4613 Y12.6582 
G00 Z2.5400  
G00 X-4.7208 Y8.9001  
G01 Z-0.1778 F100   
G01 X-7.9792 Y8.9001  F75    
G01 X-8.2254 Y8.9325  
G01 X-8.4654 Y8.9968  
G01 X-8.6949 Y9.0918  
G01 X-8.9100 Y9.2160  
G01 X-9.1071 Y9.3672  
G01 X-9.2827 Y9.5429  
G01 X-9.4339 Y9.7400  
G01 X-9.5581 Y9.9551  
G01 X-9.6532 Y10.1846 
G01 X-9.7175 Y10.4245 
G01 X-9.7499 Y10.6708 
G01 X-9.7499 Y10.9192 
G01 X-9.7175 Y11.1655 
G01 X-9.6532 Y11.4054 
G01 X-9.5581 Y11.6349 
G01 X-9.4339 Y11.8500 
G01 X-9.2827 Y12.0471 
G01 X-9.1071 Y12.2228 
G01 X-8.9100 Y12.3740 
G01 X-8.6949 Y12.4982 
G01 X-8.4654 Y12.5932 
G01 X-8.3238 Y12.6312 
G01 X-8.7618 Y13.5072 
G01 X-8.8201 Y13.6915 
G01 X-8.8489 Y13.8827 
G01 X-8.8474 Y14.0760 
G01 X-8.8157 Y14.2667 
G01 X-8.7546 Y14.4501 
G01 X-8.6655 Y14.6217 
G01 X-8.5507 Y14.7772 
G01 X-8.4130 Y14.9129 
G01 X-8.2557 Y15.0253 
G01 X-8.0828 Y15.1118 
G01 X-7.8985 Y15.1701 
G01 X-7.7073 Y15.1989 
G01 X-7.5140 Y15.1974 
G01 X-7.3233 Y15.1657 
G01 X-7.1399 Y15.1046 
G01 X-6.9683 Y15.0155 
G01 X-6.8128 Y14.9007 
G01 X-6.6771 Y14.7630 
G01 X-6.5647 Y14.6057 
G01 X-5.6068 Y12.6899 
G01 X-4.7208 Y12.6899 
G01 X-4.4746 Y12.6575 
G01 X-4.2346 Y12.5932 
G01 X-4.0051 Y12.4982 
G01 X-3.7900 Y12.3740 
G01 X-3.5929 Y12.2228 
G01 X-3.4173 Y12.0471 
G01 X-3.2661 Y11.8500 
G01 X-3.1419 Y11.6349 
G01 X-3.0468 Y11.4054 
G01 X-2.9825 Y11.1655 
G01 X-2.9501 Y10.9192 
G01 X-2.9501 Y10.6708 
G01 X-2.9825 Y10.4245 
G01 X-3.0468 Y10.1846 
G01 X-3.1419 Y9.9551  
G01 X-3.2661 Y9.7400  
G01 X-3.4173 Y9.5429  
G01 X-3.5929 Y9.3672  
G01 X-3.7900 Y9.2160  
G01 X-4.0051 Y9.0918  
G01 X-4.2346 Y8.9968  
G01 X-4.4746 Y8.9325  
G01 X-4.7208 Y8.9001  
G00 Z2.5400  
G00 X-12.6582 Y1.1733  
G01 Z-0.1778 F100   
G01 X-12.6582 Y1.3667  F75    
G01 X-12.6280 Y1.5576  
G01 X-12.5682 Y1.7415  
G01 X-12.4804 Y1.9137  
G01 X-12.3668 Y2.0701  
G01 X-12.2301 Y2.2068  
G01 X-12.0737 Y2.3204  
G01 X-11.9015 Y2.4082  
G01 X-11.7176 Y2.4680  
G01 X-11.5267 Y2.4982  
G01 X-11.3333 Y2.4982  
G01 X-11.1424 Y2.4680  
G01 X-10.9585 Y2.4082  
G01 X-10.7863 Y2.3204  
G01 X-10.6299 Y2.2068  
G01 X-10.4932 Y2.0701  
G01 X-10.3796 Y1.9137  
G01 X-10.2918 Y1.7415  
G01 X-10.2320 Y1.5576  
G01 X-10.2018 Y1.3667  
G01 X-10.2018 Y1.1733  
G01 X-10.2320 Y0.9824  
G01 X-10.2918 Y0.7985  
G01 X-10.3796 Y0.6263  
G01 X-10.4932 Y0.4699  
G01 X-10.6299 Y0.3332  
G01 X-10.7863 Y0.2196  
G01 X-10.9585 Y0.1318  
G01 X-11.1424 Y0.0720  
G01 X-11.3333 Y0.0418  
G01 X-11.5267 Y0.0418  
G01 X-11.7176 Y0.0720  
G01 X-11.9015 Y0.1318  
G01 X-12.0737 Y0.2196  
G01 X-12.2301 Y0.3332  
G01 X-12.3668 Y0.4699  
G01 X-12.4804 Y0.6263  
G01 X-12.5682 Y0.7985  
G01 X-12.6280 Y0.9824  
G01 X-12.6582 Y1.1733  
G00 Z2.5400  
G00 X-15.1982 Y1.1733  
G01 Z-0.1778 F100   
G01 X-15.1982 Y1.3667  F75    
G01 X-15.1680 Y1.5576  
G01 X-15.1082 Y1.7415  
G01 X-15.0204 Y1.9137  
G01 X-14.9068 Y2.0701  
G01 X-14.7701 Y2.2068  
G01 X-14.6137 Y2.3204  
G01 X-14.4415 Y2.4082  
G01 X-14.2576 Y2.4680  
G01 X-14.0667 Y2.4982  
G01 X-13.8733 Y2.4982  
G01 X-13.6824 Y2.4680  
G01 X-13.4985 Y2.4082  
G01 X-13.3263 Y2.3204  
G01 X-13.1699 Y2.2068  
G01 X-13.0332 Y2.0701  
G01 X-12.9196 Y1.9137  
G01 X-12.8318 Y1.7415  
G01 X-12.7720 Y1.5576  
G01 X-12.7418 Y1.3667  
G01 X-12.7418 Y1.1733  
G01 X-12.7720 Y0.9824  
G01 X-12.8318 Y0.7985  
G01 X-12.9196 Y0.6263  
G01 X-13.0332 Y0.4699  
G01 X-13.1699 Y0.3332  
G01 X-13.3263 Y0.2196  
G01 X-13.4985 Y0.1318  
G01 X-13.6824 Y0.0720  
G01 X-13.8733 Y0.0418  
G01 X-14.0667 Y0.0418  
G01 X-14.2576 Y0.0720  
G01 X-14.4415 Y0.1318  
G01 X-14.6137 Y0.2196  
G01 X-14.7701 Y0.3332  
G01 X-14.9068 Y0.4699  
G01 X-15.0204 Y0.6263  
G01 X-15.1082 Y0.7985  
G01 X-15.1680 Y0.9824  
G01 X-15.1982 Y1.1733  
G00 Z2.5400  
G00 X-17.7382 Y1.1733  
G01 Z-0.1778 F100   
G01 X-17.7382 Y1.3667  F75    
G01 X-17.7080 Y1.5576  
G01 X-17.6482 Y1.7415  
G01 X-17.5604 Y1.9137  
G01 X-17.4468 Y2.0701  
G01 X-17.3101 Y2.2068  
G01 X-17.1537 Y2.3204  
G01 X-16.9815 Y2.4082  
G01 X-16.7976 Y2.4680  
G01 X-16.6067 Y2.4982  
G01 X-16.4133 Y2.4982  
G01 X-16.2224 Y2.4680  
G01 X-16.0385 Y2.4082  
G01 X-15.8663 Y2.3204  
G01 X-15.7099 Y2.2068  
G01 X-15.5732 Y2.0701  
G01 X-15.4596 Y1.9137  
G01 X-15.3718 Y1.7415  
G01 X-15.3120 Y1.5576  
G01 X-15.2818 Y1.3667  
G01 X-15.2818 Y1.1733  
G01 X-15.3120 Y0.9824  
G01 X-15.3718 Y0.7985  
G01 X-15.4596 Y0.6263  
G01 X-15.5732 Y0.4699  
G01 X-15.7099 Y0.3332  
G01 X-15.8663 Y0.2196  
G01 X-16.0385 Y0.1318  
G01 X-16.2224 Y0.0720  
G01 X-16.4133 Y0.0418  
G01 X-16.6067 Y0.0418  
G01 X-16.7976 Y0.0720  
G01 X-16.9815 Y0.1318  
G01 X-17.1537 Y0.2196  
G01 X-17.3101 Y0.3332  
G01 X-17.4468 Y0.4699  
G01 X-17.5604 Y0.6263  
G01 X-17.6482 Y0.7985  
G01 X-17.7080 Y0.9824  
G01 X-17.7382 Y1.1733  
G00 Z2.5400  
G00 X-10.1182 Y1.1733  
G01 Z-0.1778 F100   
G01 X-10.1182 Y1.3667  F75    
G01 X-10.0880 Y1.5576  
G01 X-10.0282 Y1.7415  
G01 X-9.9404 Y1.9137  
G01 X-9.8268 Y2.0701  
G01 X-9.6901 Y2.2068  
G01 X-9.5337 Y2.3204  
G01 X-9.3615 Y2.4082  
G01 X-9.1776 Y2.4680  
G01 X-8.9867 Y2.4982  
G01 X-8.7933 Y2.4982  
G01 X-8.6024 Y2.4680  
G01 X-8.4185 Y2.4082  
G01 X-8.2463 Y2.3204  
G01 X-8.0899 Y2.2068  
G01 X-7.9532 Y2.0701  
G01 X-7.8396 Y1.9137  
G01 X-7.7518 Y1.7415  
G01 X-7.6920 Y1.5576  
G01 X-7.6618 Y1.3667  
G01 X-7.6618 Y1.1733  
G01 X-7.6920 Y0.9824  
G01 X-7.7518 Y0.7985  
G01 X-7.8396 Y0.6263  
G01 X-7.9532 Y0.4699  
G01 X-8.0899 Y0.3332  
G01 X-8.2463 Y0.2196  
G01 X-8.4185 Y0.1318  
G01 X-8.6024 Y0.0720  
G01 X-8.7933 Y0.0418  
G01 X-8.9867 Y0.0418  
G01 X-9.1776 Y0.0720  
G01 X-9.3615 Y0.1318  
G01 X-9.5337 Y0.2196  
G01 X-9.6901 Y0.3332  
G01 X-9.8268 Y0.4699  
G01 X-9.9404 Y0.6263  
G01 X-10.0282 Y0.7985  
G01 X-10.0880 Y0.9824  
G01 X-10.1182 Y1.1733  
G00 Z2.5400  
G00 X-2.6718 Y1.7415  
G01 Z-0.1778 F100   
G01 X-2.6703 Y1.7370  F75    
G01 X-2.6682 Y1.7328  
G01 X-2.6405 Y1.6451  
G01 X-2.6120 Y1.5576  
G01 X-2.6113 Y1.5530  
G01 X-2.6099 Y1.5485  
G01 X-2.5962 Y1.4575  
G01 X-2.5818 Y1.3667  
G01 X-2.5818 Y1.3620  
G01 X-2.5811 Y1.3573  
G01 X-2.5818 Y1.2654  
G01 X-2.5818 Y1.1733  
G01 X-2.5825 Y1.1687  
G01 X-2.5826 Y1.1640  
G01 X-2.5977 Y1.0730  
G01 X-2.6120 Y0.9824  
G01 X-2.6135 Y0.9780  
G01 X-2.6143 Y0.9733  
G01 X-2.6434 Y0.8858  
G01 X-2.6718 Y0.7985  
G01 X-2.6739 Y0.7944  
G01 X-2.6754 Y0.7899  
G01 X-2.7179 Y0.7081  
G01 X-2.7595 Y0.6263  
G01 X-2.7623 Y0.6225  
G01 X-2.7645 Y0.6183  
G01 X-2.8193 Y0.5441  
G01 X-2.8732 Y0.4699  
G01 X-2.8765 Y0.4666  
G01 X-2.8793 Y0.4628  
G01 X-2.9450 Y0.3981  
G01 X-3.0099 Y0.3332  
G01 X-3.0137 Y0.3304  
G01 X-3.0170 Y0.3271  
G01 X-3.0919 Y0.2736  
G01 X-3.1663 Y0.2196  
G01 X-3.1705 Y0.2174  
G01 X-3.1743 Y0.2147  
G01 X-3.2565 Y0.1736  
G01 X-3.3385 Y0.1318  
G01 X-3.3430 Y0.1303  
G01 X-3.3472 Y0.1282  
G01 X-3.4349 Y0.1005  
G01 X-3.5224 Y0.0720  
G01 X-3.5270 Y0.0713  
G01 X-3.5315 Y0.0699  
G01 X-3.6225 Y0.0562  
G01 X-3.7133 Y0.0418  
G01 X-3.7180 Y0.0418  
G01 X-3.7227 Y0.0411  
G01 X-3.8146 Y0.0418  
G01 X-3.9067 Y0.0418  
G01 X-3.9113 Y0.0425  
G01 X-3.9160 Y0.0426  
G01 X-4.0070 Y0.0577  
G01 X-4.0976 Y0.0720  
G01 X-4.1020 Y0.0735  
G01 X-4.1067 Y0.0743  
G01 X-4.1942 Y0.1034  
G01 X-4.2815 Y0.1318  
G01 X-4.2856 Y0.1339  
G01 X-4.2901 Y0.1354  
G01 X-4.3719 Y0.1779  
G01 X-4.4537 Y0.2196  
G01 X-4.4575 Y0.2223  
G01 X-4.4617 Y0.2245  
G01 X-4.5359 Y0.2793  
G01 X-4.6101 Y0.3332  
G01 X-4.6134 Y0.3365  
G01 X-4.6172 Y0.3393  
G01 X-4.6819 Y0.4050  
G01 X-4.7468 Y0.4699  
G01 X-4.7496 Y0.4737  
G01 X-4.7529 Y0.4770  
G01 X-4.8064 Y0.5519  
G01 X-4.8604 Y0.6263  
G01 X-4.8626 Y0.6305  
G01 X-4.8653 Y0.6343  
G01 X-4.9064 Y0.7165  
G01 X-4.9482 Y0.7985  
G01 X-4.9497 Y0.8030  
G01 X-5.1249 Y1.1535  
G01 X-5.1520 Y0.9824  
G01 X-5.2118 Y0.7985  
G01 X-5.2995 Y0.6263  
G01 X-5.4132 Y0.4699  
G01 X-5.5499 Y0.3332  
G01 X-5.7063 Y0.2196  
G01 X-5.8785 Y0.1318  
G01 X-6.0624 Y0.0720  
G01 X-6.2533 Y0.0418  
G01 X-6.4467 Y0.0418  
G01 X-6.6376 Y0.0720  
G01 X-6.8215 Y0.1318  
G01 X-6.9937 Y0.2196  
G01 X-7.1501 Y0.3332  
G01 X-7.2868 Y0.4699  
G01 X-7.4004 Y0.6263  
G01 X-7.4882 Y0.7985  
G01 X-7.5480 Y0.9824  
G01 X-7.5782 Y1.1733  
G01 X-7.5782 Y1.3667  
G01 X-7.5480 Y1.5576  
G01 X-7.4882 Y1.7415  
G01 X-7.4004 Y1.9137  
G01 X-7.2868 Y2.0701  
G01 X-7.1501 Y2.2068  
G01 X-6.9937 Y2.3204  
G01 X-6.8215 Y2.4082  
G01 X-6.6376 Y2.4680  
G01 X-6.4467 Y2.4982  
G01 X-6.2533 Y2.4982  
G01 X-6.0624 Y2.4680  
G01 X-5.8785 Y2.4082  
G01 X-5.7091 Y2.3219  
G01 X-6.3500 Y3.6037  
G01 X-6.5647 Y3.1743  
G01 X-6.6771 Y3.0170  
G01 X-6.8128 Y2.8793  
G01 X-6.9683 Y2.7645  
G01 X-7.1399 Y2.6754  
G01 X-7.3233 Y2.6143  
G01 X-7.5140 Y2.5826  
G01 X-7.7073 Y2.5811  
G01 X-7.8985 Y2.6099  
G01 X-8.0828 Y2.6682  
G01 X-8.2557 Y2.7547  
G01 X-8.4130 Y2.8671  
G01 X-8.5507 Y3.0028  
G01 X-8.6655 Y3.1583  
G01 X-8.7546 Y3.3299  
G01 X-8.8157 Y3.5133  
G01 X-8.8474 Y3.7040  
G01 X-8.8489 Y3.8973  
G01 X-8.8201 Y4.0885  
G01 X-8.7618 Y4.2728  
G01 X-8.5954 Y4.6056  
G01 X-8.6949 Y4.6468  
G01 X-8.9100 Y4.7710  
G01 X-9.1071 Y4.9222  
G01 X-9.2827 Y5.0979  
G01 X-9.4339 Y5.2950  
G01 X-9.5581 Y5.5101  
G01 X-9.6532 Y5.7396  
G01 X-9.7175 Y5.9795  
G01 X-9.7499 Y6.2258  
G01 X-9.7499 Y6.4742  
G01 X-9.7175 Y6.7205  
G01 X-9.6532 Y6.9604  
G01 X-9.5581 Y7.1899  
G01 X-9.4339 Y7.4050  
G01 X-9.2827 Y7.6021  
G01 X-9.1071 Y7.7778  
G01 X-8.9100 Y7.9290  
G01 X-8.6949 Y8.0532  
G01 X-8.4654 Y8.1482  
G01 X-8.2254 Y8.2125  
G01 X-7.9792 Y8.2449  
G01 X-4.7208 Y8.2449  
G01 X-4.4746 Y8.2125  
G01 X-4.2346 Y8.1482  
G01 X-4.0051 Y8.0532  
G01 X-3.7900 Y7.9290  
G01 X-3.5929 Y7.7778  
G01 X-3.4173 Y7.6021  
G01 X-3.2661 Y7.4050  
G01 X-3.1419 Y7.1899  
G01 X-3.0468 Y6.9604  
G01 X-2.9825 Y6.7205  
G01 X-2.9501 Y6.4742  
G01 X-2.9501 Y6.2258  
G01 X-2.9825 Y5.9795  
G01 X-3.0468 Y5.7396  
G01 X-3.1419 Y5.5101  
G01 X-3.2661 Y5.2950  
G01 X-3.4173 Y5.0979  
G01 X-3.5929 Y4.9222  
G01 X-3.7900 Y4.7710  
G01 X-4.0051 Y4.6468  
G01 X-4.1046 Y4.6056  
G01 X-2.7136 Y1.8235  
G01 X-2.6718 Y1.7415  
G00 Z2.5400  
G00 X-2.4982 Y4.9833  
G01 Z-0.1778 F100   
G01 X-2.4982 Y5.1767  F75    
G01 X-2.4680 Y5.3676  
G01 X-2.4082 Y5.5515  
G01 X-2.3204 Y5.7237  
G01 X-2.2068 Y5.8801  
G01 X-2.0701 Y6.0168  
G01 X-1.9137 Y6.1304  
G01 X-1.7415 Y6.2182  
G01 X-1.5576 Y6.2780  
G01 X-1.3667 Y6.3082  
G01 X-1.1733 Y6.3082  
G01 X-0.9824 Y6.2780  
G01 X-0.7985 Y6.2182  
G01 X-0.6263 Y6.1304  
G01 X-0.4699 Y6.0168  
G01 X-0.3332 Y5.8801  
G01 X-0.2196 Y5.7237  
G01 X-0.1318 Y5.5515  
G01 X-0.0720 Y5.3676  
G01 X-0.0418 Y5.1767  
G01 X-0.0418 Y4.9833  
G01 X-0.0720 Y4.7924  
G01 X-0.1318 Y4.6085  
G01 X-0.2196 Y4.4363  
G01 X-0.3332 Y4.2799  
G01 X-0.4699 Y4.1432  
G01 X-0.6263 Y4.0296  
G01 X-0.7985 Y3.9418  
G01 X-0.9824 Y3.8820  
G01 X-1.1733 Y3.8518  
G01 X-1.3667 Y3.8518  
G01 X-1.5576 Y3.8820  
G01 X-1.7415 Y3.9418  
G01 X-1.9137 Y4.0296  
G01 X-2.0701 Y4.1432  
G01 X-2.2068 Y4.2799  
G01 X-2.3204 Y4.4363  
G01 X-2.4082 Y4.6085  
G01 X-2.4680 Y4.7924  
G01 X-2.4982 Y4.9833  
G00 Z2.5400  
G00 X-2.4982 Y2.4433  
G01 Z-0.1778 F100   
G01 X-2.4982 Y2.6367  F75    
G01 X-2.4680 Y2.8276  
G01 X-2.4082 Y3.0115  
G01 X-2.3204 Y3.1837  
G01 X-2.2068 Y3.3401  
G01 X-2.0701 Y3.4768  
G01 X-1.9137 Y3.5904  
G01 X-1.7415 Y3.6782  
G01 X-1.5576 Y3.7380  
G01 X-1.3667 Y3.7682  
G01 X-1.1733 Y3.7682  
G01 X-0.9824 Y3.7380  
G01 X-0.7985 Y3.6782  
G01 X-0.6263 Y3.5904  
G01 X-0.4699 Y3.4768  
G01 X-0.3332 Y3.3401  
G01 X-0.2196 Y3.1837  
G01 X-0.1318 Y3.0115  
G01 X-0.0720 Y2.8276  
G01 X-0.0418 Y2.6367  
G01 X-0.0418 Y2.4433  
G01 X-0.0720 Y2.2524  
G01 X-0.1318 Y2.0685  
G01 X-0.2196 Y1.8963  
G01 X-0.3332 Y1.7399  
G01 X-0.4699 Y1.6032  
G01 X-0.6263 Y1.4896  
G01 X-0.7985 Y1.4018  
G01 X-0.9824 Y1.3420  
G01 X-1.1733 Y1.3118  
G01 X-1.3667 Y1.3118  
G01 X-1.5576 Y1.3420  
G01 X-1.7415 Y1.4018  
G01 X-1.9137 Y1.4896  
G01 X-2.0701 Y1.6032  
G01 X-2.2068 Y1.7399  
G01 X-2.3204 Y1.8963  
G01 X-2.4082 Y2.0685  
G01 X-2.4680 Y2.2524  
G01 X-2.4982 Y2.4433  
G00 Z2.5400  
G00 X-15.1982 Y16.4133 
G01 Z-0.1778 F100   
G01 X-15.1982 Y16.6067 F75    
G01 X-15.1680 Y16.7976 
G01 X-15.1082 Y16.9815 
G01 X-15.0204 Y17.1537 
G01 X-14.9068 Y17.3101 
G01 X-14.7701 Y17.4468 
G01 X-14.6137 Y17.5604 
G01 X-14.4415 Y17.6482 
G01 X-14.2576 Y17.7080 
G01 X-14.0667 Y17.7382 
G01 X-13.8733 Y17.7382 
G01 X-13.6824 Y17.7080 
G01 X-13.4985 Y17.6482 
G01 X-13.3263 Y17.5604 
G01 X-13.1699 Y17.4468 
G01 X-13.0332 Y17.3101 
G01 X-12.9196 Y17.1537 
G01 X-12.8318 Y16.9815 
G01 X-12.7720 Y16.7976 
G01 X-12.7418 Y16.6067 
G01 X-12.7418 Y16.4133 
G01 X-12.7720 Y16.2224 
G01 X-12.8318 Y16.0385 
G01 X-12.9196 Y15.8663 
G01 X-13.0332 Y15.7099 
G01 X-13.1699 Y15.5732 
G01 X-13.3263 Y15.4596 
G01 X-13.4985 Y15.3718 
G01 X-13.6824 Y15.3120 
G01 X-13.8733 Y15.2818 
G01 X-14.0667 Y15.2818 
G01 X-14.2576 Y15.3120 
G01 X-14.4415 Y15.3718 
G01 X-14.6137 Y15.4596 
G01 X-14.7701 Y15.5732 
G01 X-14.9068 Y15.7099 
G01 X-15.0204 Y15.8663 
G01 X-15.1082 Y16.0385 
G01 X-15.1680 Y16.2224 
G01 X-15.1982 Y16.4133 
G00 Z2.5400  
G00 X-17.7382 Y16.4133 
G01 Z-0.1778 F100   
G01 X-17.7382 Y16.6067 F75    
G01 X-17.7080 Y16.7976 
G01 X-17.6482 Y16.9815 
G01 X-17.5604 Y17.1537 
G01 X-17.4468 Y17.3101 
G01 X-17.3101 Y17.4468 
G01 X-17.1537 Y17.5604 
G01 X-16.9815 Y17.6482 
G01 X-16.7976 Y17.7080 
G01 X-16.6067 Y17.7382 
G01 X-16.4133 Y17.7382 
G01 X-16.2224 Y17.7080 
G01 X-16.0385 Y17.6482 
G01 X-15.8663 Y17.5604 
G01 X-15.7099 Y17.4468 
G01 X-15.5732 Y17.3101 
G01 X-15.4596 Y17.1537 
G01 X-15.3718 Y16.9815 
G01 X-15.3120 Y16.7976 
G01 X-15.2818 Y16.6067 
G01 X-15.2818 Y16.4133 
G01 X-15.3120 Y16.2224 
G01 X-15.3718 Y16.0385 
G01 X-15.4596 Y15.8663 
G01 X-15.5732 Y15.7099 
G01 X-15.7099 Y15.5732 
G01 X-15.8663 Y15.4596 
G01 X-16.0385 Y15.3718 
G01 X-16.2224 Y15.3120 
G01 X-16.4133 Y15.2818 
G01 X-16.6067 Y15.2818 
G01 X-16.7976 Y15.3120 
G01 X-16.9815 Y15.3718 
G01 X-17.1537 Y15.4596 
G01 X-17.3101 Y15.5732 
G01 X-17.4468 Y15.7099 
G01 X-17.5604 Y15.8663 
G01 X-17.6482 Y16.0385 
G01 X-17.7080 Y16.2224 
G01 X-17.7382 Y16.4133 
G00 Z2.5400  
G00 X-10.1182 Y16.4133 
G01 Z-0.1778 F100   
G01 X-10.1182 Y16.6067 F75    
G01 X-10.0880 Y16.7976 
G01 X-10.0282 Y16.9815 
G01 X-9.9404 Y17.1537 
G01 X-9.8268 Y17.3101 
G01 X-9.6901 Y17.4468 
G01 X-9.5337 Y17.5604 
G01 X-9.3615 Y17.6482 
G01 X-9.1776 Y17.7080 
G01 X-8.9867 Y17.7382 
G01 X-8.7933 Y17.7382 
G01 X-8.6024 Y17.7080 
G01 X-8.4185 Y17.6482 
G01 X-8.2463 Y17.5604 
G01 X-8.0899 Y17.4468 
G01 X-7.9532 Y17.3101 
G01 X-7.8396 Y17.1537 
G01 X-7.7518 Y16.9815 
G01 X-7.6920 Y16.7976 
G01 X-7.6618 Y16.6067 
G01 X-7.6618 Y16.4133 
G01 X-7.6920 Y16.2224 
G01 X-7.7518 Y16.0385 
G01 X-7.8396 Y15.8663 
G01 X-7.9532 Y15.7099 
G01 X-8.0899 Y15.5732 
G01 X-8.2463 Y15.4596 
G01 X-8.4185 Y15.3718 
G01 X-8.6024 Y15.3120 
G01 X-8.7933 Y15.2818 
G01 X-8.9867 Y15.2818 
G01 X-9.1776 Y15.3120 
G01 X-9.3615 Y15.3718 
G01 X-9.5337 Y15.4596 
G01 X-9.6901 Y15.5732 
G01 X-9.8268 Y15.7099 
G01 X-9.9404 Y15.8663 
G01 X-10.0282 Y16.0385 
G01 X-10.0880 Y16.2224 
G01 X-10.1182 Y16.4133 
G00 Z2.5400  
G00 X-7.5782 Y16.4133 
G01 Z-0.1778 F100   
G01 X-7.5782 Y16.6067 F75    
G01 X-7.5480 Y16.7976 
G01 X-7.4882 Y16.9815 
G01 X-7.4004 Y17.1537 
G01 X-7.2868 Y17.3101 
G01 X-7.1501 Y17.4468 
G01 X-6.9937 Y17.5604 
G01 X-6.8215 Y17.6482 
G01 X-6.6376 Y17.7080 
G01 X-6.4467 Y17.7382 
G01 X-6.2533 Y17.7382 
G01 X-6.0624 Y17.7080 
G01 X-5.8785 Y17.6482 
G01 X-5.7063 Y17.5604 
G01 X-5.5499 Y17.4468 
G01 X-5.4132 Y17.3101 
G01 X-5.2995 Y17.1537 
G01 X-5.2118 Y16.9815 
G01 X-5.1520 Y16.7976 
G01 X-5.1218 Y16.6067 
G01 X-5.1218 Y16.4133 
G01 X-5.1520 Y16.2224 
G01 X-5.2118 Y16.0385 
G01 X-5.2995 Y15.8663 
G01 X-5.4132 Y15.7099 
G01 X-5.5499 Y15.5732 
G01 X-5.7063 Y15.4596 
G01 X-5.8785 Y15.3718 
G01 X-6.0624 Y15.3120 
G01 X-6.2533 Y15.2818 
G01 X-6.4467 Y15.2818 
G01 X-6.6376 Y15.3120 
G01 X-6.8215 Y15.3718 
G01 X-6.9937 Y15.4596 
G01 X-7.1501 Y15.5732 
G01 X-7.2868 Y15.7099 
G01 X-7.4004 Y15.8663 
G01 X-7.4882 Y16.0385 
G01 X-7.5480 Y16.2224 
G01 X-7.5782 Y16.4133 
G00 Z2.5400  
G00 X-5.0382 Y16.4133 
G01 Z-0.1778 F100   
G01 X-5.0382 Y16.6067 F75    
G01 X-5.0080 Y16.7976 
G01 X-4.9482 Y16.9815 
G01 X-4.8604 Y17.1537 
G01 X-4.7468 Y17.3101 
G01 X-4.6101 Y17.4468 
G01 X-4.4537 Y17.5604 
G01 X-4.2815 Y17.6482 
G01 X-4.0976 Y17.7080 
G01 X-3.9067 Y17.7382 
G01 X-3.7133 Y17.7382 
G01 X-3.5224 Y17.7080 
G01 X-3.3385 Y17.6482 
G01 X-3.1663 Y17.5604 
G01 X-3.0099 Y17.4468 
G01 X-2.8732 Y17.3101 
G01 X-2.7595 Y17.1537 
G01 X-2.6718 Y16.9815 
G01 X-2.6120 Y16.7976 
G01 X-2.5818 Y16.6067 
G01 X-2.5818 Y16.4133 
G01 X-2.6120 Y16.2224 
G01 X-2.6718 Y16.0385 
G01 X-2.7595 Y15.8663 
G01 X-2.8732 Y15.7099 
G01 X-3.0099 Y15.5732 
G01 X-3.1663 Y15.4596 
G01 X-3.3385 Y15.3718 
G01 X-3.5224 Y15.3120 
G01 X-3.7133 Y15.2818 
G01 X-3.9067 Y15.2818 
G01 X-4.0976 Y15.3120 
G01 X-4.2815 Y15.3718 
G01 X-4.4537 Y15.4596 
G01 X-4.6101 Y15.5732 
G01 X-4.7468 Y15.7099 
G01 X-4.8604 Y15.8663 
G01 X-4.9482 Y16.0385 
G01 X-5.0080 Y16.2224 
G01 X-5.0382 Y16.4133 
G00 Z2.5400  
G00 X-2.4982 Y15.1433 
G01 Z-0.1778 F100   
G01 X-2.4982 Y15.3367 F75    
G01 X-2.4680 Y15.5276 
G01 X-2.4082 Y15.7115 
G01 X-2.3204 Y15.8837 
G01 X-2.2068 Y16.0401 
G01 X-2.0701 Y16.1768 
G01 X-1.9137 Y16.2904 
G01 X-1.7415 Y16.3782 
G01 X-1.5576 Y16.4380 
G01 X-1.3667 Y16.4682 
G01 X-1.1733 Y16.4682 
G01 X-0.9824 Y16.4380 
G01 X-0.7985 Y16.3782 
G01 X-0.6263 Y16.2904 
G01 X-0.4699 Y16.1768 
G01 X-0.3332 Y16.0401 
G01 X-0.2196 Y15.8837 
G01 X-0.1318 Y15.7115 
G01 X-0.0720 Y15.5276 
G01 X-0.0418 Y15.3367 
G01 X-0.0418 Y15.1433 
G01 X-0.0720 Y14.9524 
G01 X-0.1318 Y14.7685 
G01 X-0.2196 Y14.5963 
G01 X-0.3332 Y14.4399 
G01 X-0.4699 Y14.3032 
G01 X-0.6263 Y14.1896 
G01 X-0.7985 Y14.1018 
G01 X-0.9824 Y14.0420 
G01 X-1.1733 Y14.0118 
G01 X-1.3667 Y14.0118 
G01 X-1.5576 Y14.0420 
G01 X-1.7415 Y14.1018 
G01 X-1.9137 Y14.1896 
G01 X-2.0701 Y14.3032 
G01 X-2.2068 Y14.4399 
G01 X-2.3204 Y14.5963 
G01 X-2.4082 Y14.7685 
G01 X-2.4680 Y14.9524 
G01 X-2.4982 Y15.1433 
G00 Z2.5400  
G00 X-2.4982 Y12.6033 
G01 Z-0.1778 F100   
G01 X-2.4982 Y12.7967 F75    
G01 X-2.4680 Y12.9876 
G01 X-2.4082 Y13.1715 
G01 X-2.3204 Y13.3437 
G01 X-2.2068 Y13.5001 
G01 X-2.0701 Y13.6368 
G01 X-1.9137 Y13.7504 
G01 X-1.7415 Y13.8382 
G01 X-1.5576 Y13.8980 
G01 X-1.3667 Y13.9282 
G01 X-1.1733 Y13.9282 
G01 X-0.9824 Y13.8980 
G01 X-0.7985 Y13.8382 
G01 X-0.6263 Y13.7504 
G01 X-0.4699 Y13.6368 
G01 X-0.3332 Y13.5001 
G01 X-0.2196 Y13.3437 
G01 X-0.1318 Y13.1715 
G01 X-0.0720 Y12.9876 
G01 X-0.0418 Y12.7967 
G01 X-0.0418 Y12.6033 
G01 X-0.0720 Y12.4124 
G01 X-0.1318 Y12.2285 
G01 X-0.2196 Y12.0563 
G01 X-0.3332 Y11.8999 
G01 X-0.4699 Y11.7632 
G01 X-0.6263 Y11.6496 
G01 X-0.7985 Y11.5618 
G01 X-0.9824 Y11.5020 
G01 X-1.1733 Y11.4718 
G01 X-1.3667 Y11.4718 
G01 X-1.5576 Y11.5020 
G01 X-1.7415 Y11.5618 
G01 X-1.9137 Y11.6496 
G01 X-2.0701 Y11.7632 
G01 X-2.2068 Y11.8999 
G01 X-2.3204 Y12.0563 
G01 X-2.4082 Y12.2285 
G01 X-2.4680 Y12.4124 
G01 X-2.4982 Y12.6033 
G00 Z2.5400  
G00 X-2.4982 Y10.0633 
G01 Z-0.1778 F100   
G01 X-2.4982 Y10.2567 F75    
G01 X-2.4680 Y10.4476 
G01 X-2.4082 Y10.6315 
G01 X-2.3204 Y10.8037 
G01 X-2.2068 Y10.9601 
G01 X-2.0701 Y11.0968 
G01 X-1.9137 Y11.2104 
G01 X-1.7415 Y11.2982 
G01 X-1.5576 Y11.3580 
G01 X-1.3667 Y11.3882 
G01 X-1.1733 Y11.3882 
G01 X-0.9824 Y11.3580 
G01 X-0.7985 Y11.2982 
G01 X-0.6263 Y11.2104 
G01 X-0.4699 Y11.0968 
G01 X-0.3332 Y10.9601 
G01 X-0.2196 Y10.8037 
G01 X-0.1318 Y10.6315 
G01 X-0.0720 Y10.4476 
G01 X-0.0418 Y10.2567 
G01 X-0.0418 Y10.0633 
G01 X-0.0720 Y9.8724  
G01 X-0.1318 Y9.6885  
G01 X-0.2196 Y9.5163  
G01 X-0.3332 Y9.3599  
G01 X-0.4699 Y9.2232  
G01 X-0.6263 Y9.1096  
G01 X-0.7985 Y9.0218  
G01 X-0.9824 Y8.9620  
G01 X-1.1733 Y8.9318  
G01 X-1.3667 Y8.9318  
G01 X-1.5576 Y8.9620  
G01 X-1.7415 Y9.0218  
G01 X-1.9137 Y9.1096  
G01 X-2.0701 Y9.2232  
G01 X-2.2068 Y9.3599  
G01 X-2.3204 Y9.5163  
G01 X-2.4082 Y9.6885  
G01 X-2.4680 Y9.8724  
G01 X-2.4982 Y10.0633 
G00 Z2.5400  
G00 X-2.4982 Y7.5233  
G01 Z-0.1778 F100   
G01 X-2.4982 Y7.7167  F75    
G01 X-2.4680 Y7.9076  
G01 X-2.4082 Y8.0915  
G01 X-2.3204 Y8.2637  
G01 X-2.2068 Y8.4201  
G01 X-2.0701 Y8.5568  
G01 X-1.9137 Y8.6704  
G01 X-1.7415 Y8.7582  
G01 X-1.5576 Y8.8180  
G01 X-1.3667 Y8.8482  
G01 X-1.1733 Y8.8482  
G01 X-0.9824 Y8.8180  
G01 X-0.7985 Y8.7582  
G01 X-0.6263 Y8.6704  
G01 X-0.4699 Y8.5568  
G01 X-0.3332 Y8.4201  
G01 X-0.2196 Y8.2637  
G01 X-0.1318 Y8.0915  
G01 X-0.0720 Y7.9076  
G01 X-0.0418 Y7.7167  
G01 X-0.0418 Y7.5233  
G01 X-0.0720 Y7.3324  
G01 X-0.1318 Y7.1485  
G01 X-0.2196 Y6.9763  
G01 X-0.3332 Y6.8199  
G01 X-0.4699 Y6.6832  
G01 X-0.6263 Y6.5696  
G01 X-0.7985 Y6.4818  
G01 X-0.9824 Y6.4220  
G01 X-1.1733 Y6.3918  
G01 X-1.3667 Y6.3918  
G01 X-1.5576 Y6.4220  
G01 X-1.7415 Y6.4818  
G01 X-1.9137 Y6.5696  
G01 X-2.0701 Y6.6832  
G01 X-2.2068 Y6.8199  
G01 X-2.3204 Y6.9763  
G01 X-2.4082 Y7.1485  
G01 X-2.4680 Y7.3324  
G01 X-2.4982 Y7.5233  
G00 Z2.5400  
G00 X-2.5782 Y15.1370 
G01 Z-0.1778 F100   
G01 X-2.5782 Y15.3430 F75    
G01 X-2.5460 Y15.5463 
G01 X-2.4824 Y15.7422 
G01 X-2.3889 Y15.9256 
G01 X-2.2678 Y16.0922 
G01 X-2.1222 Y16.2378 
G01 X-1.9556 Y16.3589 
G01 X-1.7722 Y16.4524 
G01 X-1.5763 Y16.5160 
G01 X-1.3730 Y16.5482 
G01 X-1.1670 Y16.5482 
G01 X-0.9637 Y16.5160 
G01 X-0.7678 Y16.4524 
G01 X-0.5844 Y16.3589 
G01 X-0.4178 Y16.2378 
G01 X-0.2722 Y16.0922 
G01 X-0.1511 Y15.9256 
G01 X-0.0576 Y15.7422 
G01 X0.0060  Y15.5463 
G01 X0.0382  Y15.3430 
G01 X0.0382  Y15.1370 
G01 X0.0060  Y14.9337 
G01 X-0.0576 Y14.7378 
G01 X-0.1511 Y14.5544 
G01 X-0.2722 Y14.3878 
G01 X-0.4178 Y14.2422 
G01 X-0.5844 Y14.1211 
G01 X-0.7678 Y14.0276 
G01 X-0.9452 Y13.9700 
G01 X-0.7678 Y13.9124 
G01 X-0.5844 Y13.8189 
G01 X-0.4178 Y13.6978 
G01 X-0.2722 Y13.5522 
G01 X-0.1511 Y13.3856 
G01 X-0.0576 Y13.2022 
G01 X0.0060  Y13.0063 
G01 X0.0382  Y12.8030 
G01 X0.0382  Y12.5970 
G01 X0.0060  Y12.3937 
G01 X-0.0576 Y12.1978 
G01 X-0.1511 Y12.0144 
G01 X-0.2722 Y11.8478 
G01 X-0.4178 Y11.7022 
G01 X-0.5844 Y11.5811 
G01 X-0.7678 Y11.4876 
G01 X-0.9452 Y11.4300 
G01 X-0.7678 Y11.3724 
G01 X-0.5844 Y11.2789 
G01 X-0.4178 Y11.1578 
G01 X-0.2722 Y11.0122 
G01 X-0.1511 Y10.8456 
G01 X-0.0576 Y10.6622 
G01 X0.0060  Y10.4663 
G01 X0.0382  Y10.2630 
G01 X0.0382  Y10.0570 
G01 X0.0060  Y9.8537  
G01 X-0.0576 Y9.6578  
G01 X-0.1511 Y9.4744  
G01 X-0.2722 Y9.3078  
G01 X-0.4178 Y9.1622  
G01 X-0.5844 Y9.0411  
G01 X-0.7678 Y8.9476  
G01 X-0.9452 Y8.8900  
G01 X-0.7678 Y8.8324  
G01 X-0.5844 Y8.7389  
G01 X-0.4178 Y8.6178  
G01 X-0.2722 Y8.4722  
G01 X-0.1511 Y8.3056  
G01 X-0.0576 Y8.1222  
G01 X0.0060  Y7.9263  
G01 X0.0382  Y7.7230  
G01 X0.0382  Y7.5170  
G01 X0.0060  Y7.3137  
G01 X-0.0576 Y7.1178  
G01 X-0.1511 Y6.9344  
G01 X-0.2722 Y6.7678  
G01 X-0.4178 Y6.6222  
G01 X-0.5844 Y6.5011  
G01 X-0.7678 Y6.4076  
G01 X-0.9452 Y6.3500  
G01 X-0.7678 Y6.2924  
G01 X-0.5844 Y6.1989  
G01 X-0.4178 Y6.0778  
G01 X-0.2722 Y5.9322  
G01 X-0.1511 Y5.7656  
G01 X-0.0576 Y5.5822  
G01 X0.0060  Y5.3863  
G01 X0.0382  Y5.1830  
G01 X0.0382  Y4.9770  
G01 X0.0060  Y4.7737  
G01 X-0.0576 Y4.5778  
G01 X-0.1511 Y4.3944  
G01 X-0.2722 Y4.2278  
G01 X-0.4178 Y4.0822  
G01 X-0.5844 Y3.9611  
G01 X-0.7678 Y3.8676  
G01 X-0.9452 Y3.8100  
G01 X-0.7678 Y3.7524  
G01 X-0.5844 Y3.6589  
G01 X-0.4178 Y3.5378  
G01 X-0.2722 Y3.3922  
G01 X-0.1511 Y3.2256  
G01 X-0.0576 Y3.0422  
G01 X0.0060  Y2.8463  
G01 X0.0382  Y2.6430  
G01 X0.0382  Y2.4370  
G01 X0.0060  Y2.2337  
G01 X-0.0576 Y2.0378  
G01 X-0.1511 Y1.8544  
G01 X-0.2722 Y1.6878  
G01 X-0.4178 Y1.5422  
G01 X-0.5844 Y1.4211  
G01 X-0.7678 Y1.3276  
G01 X-0.9637 Y1.2640  
G01 X-1.1670 Y1.2318  
G01 X-1.3730 Y1.2318  
G01 X-1.5763 Y1.2640  
G01 X-1.7722 Y1.3276  
G01 X-1.9556 Y1.4211  
G01 X-2.1222 Y1.5422  
G01 X-2.2678 Y1.6878  
G01 X-2.3889 Y1.8544  
G01 X-2.4824 Y2.0378  
G01 X-2.5460 Y2.2337  
G01 X-2.5782 Y2.4370  
G01 X-2.5782 Y2.6430  
G01 X-2.5460 Y2.8463  
G01 X-2.4824 Y3.0422  
G01 X-2.3889 Y3.2256  
G01 X-2.2678 Y3.3922  
G01 X-2.1222 Y3.5378  
G01 X-1.9556 Y3.6589  
G01 X-1.7722 Y3.7524  
G01 X-1.5948 Y3.8100  
G01 X-1.7722 Y3.8676  
G01 X-1.9556 Y3.9611  
G01 X-2.1222 Y4.0822  
G01 X-2.2678 Y4.2278  
G01 X-2.3889 Y4.3944  
G01 X-2.4824 Y4.5778  
G01 X-2.5460 Y4.7737  
G01 X-2.5782 Y4.9770  
G01 X-2.5782 Y5.1830  
G01 X-2.5460 Y5.3863  
G01 X-2.4824 Y5.5822  
G01 X-2.3889 Y5.7656  
G01 X-2.2678 Y5.9322  
G01 X-2.1222 Y6.0778  
G01 X-1.9556 Y6.1989  
G01 X-1.7722 Y6.2924  
G01 X-1.5948 Y6.3500  
G01 X-1.7722 Y6.4076  
G01 X-1.9556 Y6.5011  
G01 X-2.1222 Y6.6222  
G01 X-2.2678 Y6.7678  
G01 X-2.3889 Y6.9344  
G01 X-2.4824 Y7.1178  
G01 X-2.5460 Y7.3137  
G01 X-2.5782 Y7.5170  
G01 X-2.5782 Y7.7230  
G01 X-2.5460 Y7.9263  
G01 X-2.4824 Y8.1222  
G01 X-2.3889 Y8.3056  
G01 X-2.2678 Y8.4722  
G01 X-2.1222 Y8.6178  
G01 X-1.9556 Y8.7389  
G01 X-1.7722 Y8.8324  
G01 X-1.5948 Y8.8900  
G01 X-1.7722 Y8.9476  
G01 X-1.9556 Y9.0411  
G01 X-2.1222 Y9.1622  
G01 X-2.2678 Y9.3078  
G01 X-2.3889 Y9.4744  
G01 X-2.4824 Y9.6578  
G01 X-2.5460 Y9.8537  
G01 X-2.5782 Y10.0570 
G01 X-2.5782 Y10.2630 
G01 X-2.5460 Y10.4663 
G01 X-2.4824 Y10.6622 
G01 X-2.3889 Y10.8456 
G01 X-2.2678 Y11.0122 
G01 X-2.1222 Y11.1578 
G01 X-1.9556 Y11.2789 
G01 X-1.7722 Y11.3724 
G01 X-1.5948 Y11.4300 
G01 X-1.7722 Y11.4876 
G01 X-1.9556 Y11.5811 
G01 X-2.1222 Y11.7022 
G01 X-2.2678 Y11.8478 
G01 X-2.3889 Y12.0144 
G01 X-2.4824 Y12.1978 
G01 X-2.5460 Y12.3937 
G01 X-2.5782 Y12.5970 
G01 X-2.5782 Y12.8030 
G01 X-2.5460 Y13.0063 
G01 X-2.4824 Y13.2022 
G01 X-2.3889 Y13.3856 
G01 X-2.2678 Y13.5522 
G01 X-2.1222 Y13.6978 
G01 X-1.9556 Y13.8189 
G01 X-1.7722 Y13.9124 
G01 X-1.5948 Y13.9700 
G01 X-1.7722 Y14.0276 
G01 X-1.9556 Y14.1211 
G01 X-2.1222 Y14.2422 
G01 X-2.2678 Y14.3878 
G01 X-2.3889 Y14.5544 
G01 X-2.4824 Y14.7378 
G01 X-2.5460 Y14.9337 
G01 X-2.5782 Y15.1370 
G00 Z2.5400  
G00 X-10.1024 Y17.0122 
G01 Z-0.1778 F100   
G01 X-10.0089 Y17.1956 F75    
G01 X-9.8878 Y17.3622 
G01 X-9.7422 Y17.5078 
G01 X-9.5756 Y17.6289 
G01 X-9.3922 Y17.7224 
G01 X-9.1963 Y17.7860 
G01 X-8.9930 Y17.8182 
G01 X-8.7870 Y17.8182 
G01 X-8.5837 Y17.7860 
G01 X-8.3878 Y17.7224 
G01 X-8.2044 Y17.6289 
G01 X-8.0378 Y17.5078 
G01 X-7.8922 Y17.3622 
G01 X-7.7711 Y17.1956 
G01 X-7.6776 Y17.0122 
G01 X-7.6200 Y16.8348 
G01 X-7.5624 Y17.0122 
G01 X-7.4689 Y17.1956 
G01 X-7.3478 Y17.3622 
G01 X-7.2022 Y17.5078 
G01 X-7.0356 Y17.6289 
G01 X-6.8522 Y17.7224 
G01 X-6.6563 Y17.7860 
G01 X-6.4530 Y17.8182 
G01 X-6.2470 Y17.8182 
G01 X-6.0437 Y17.7860 
G01 X-5.8478 Y17.7224 
G01 X-5.6644 Y17.6289 
G01 X-5.4978 Y17.5078 
G01 X-5.3522 Y17.3622 
G01 X-5.2311 Y17.1956 
G01 X-5.1376 Y17.0122 
G01 X-5.0800 Y16.8348 
G01 X-5.0224 Y17.0122 
G01 X-4.9289 Y17.1956 
G01 X-4.8078 Y17.3622 
G01 X-4.6622 Y17.5078 
G01 X-4.4956 Y17.6289 
G01 X-4.3122 Y17.7224 
G01 X-4.1163 Y17.7860 
G01 X-3.9130 Y17.8182 
G01 X-3.7070 Y17.8182 
G01 X-3.5037 Y17.7860 
G01 X-3.3078 Y17.7224 
G01 X-3.1244 Y17.6289 
G01 X-2.9578 Y17.5078 
G01 X-2.8122 Y17.3622 
G01 X-2.6911 Y17.1956 
G01 X-2.5976 Y17.0122 
G01 X-2.5340 Y16.8163 
G01 X-2.5018 Y16.6130 
G01 X-2.5018 Y16.4070 
G01 X-2.5340 Y16.2037 
G01 X-2.5976 Y16.0078 
G01 X-2.6911 Y15.8244 
G01 X-2.8122 Y15.6578 
G01 X-2.9578 Y15.5122 
G01 X-3.1244 Y15.3911 
G01 X-3.3078 Y15.2976 
G01 X-3.5037 Y15.2340 
G01 X-3.7070 Y15.2018 
G01 X-3.9130 Y15.2018 
G01 X-4.1163 Y15.2340 
G01 X-4.3122 Y15.2976 
G01 X-4.4956 Y15.3911 
G01 X-4.6622 Y15.5122 
G01 X-4.8078 Y15.6578 
G01 X-4.9289 Y15.8244 
G01 X-5.0224 Y16.0078 
G01 X-5.0800 Y16.1852 
G01 X-5.1376 Y16.0078 
G01 X-5.2311 Y15.8244 
G01 X-5.3522 Y15.6578 
G01 X-5.4978 Y15.5122 
G01 X-5.6644 Y15.3911 
G01 X-5.8478 Y15.2976 
G01 X-6.0437 Y15.2340 
G01 X-6.2470 Y15.2018 
G01 X-6.4530 Y15.2018 
G01 X-6.6563 Y15.2340 
G01 X-6.8522 Y15.2976 
G01 X-7.0356 Y15.3911 
G01 X-7.2022 Y15.5122 
G01 X-7.3478 Y15.6578 
G01 X-7.4689 Y15.8244 
G01 X-7.5624 Y16.0078 
G01 X-7.6200 Y16.1852 
G01 X-7.6776 Y16.0078 
G01 X-7.7711 Y15.8244 
G01 X-7.8922 Y15.6578 
G01 X-8.0378 Y15.5122 
G01 X-8.2044 Y15.3911 
G01 X-8.3878 Y15.2976 
G01 X-8.5837 Y15.2340 
G01 X-8.7870 Y15.2018 
G01 X-8.9930 Y15.2018 
G01 X-9.1963 Y15.2340 
G01 X-9.3922 Y15.2976 
G01 X-9.5756 Y15.3911 
G01 X-9.7422 Y15.5122 
G01 X-9.8878 Y15.6578 
G01 X-10.0089 Y15.8244 
G01 X-10.1024 Y16.0078 
G01 X-10.1218 Y16.0677 
G01 X-10.1218 Y8.3481  
G01 X-10.4321 Y8.0378  
G01 X-10.5778 Y7.8922  
G01 X-10.8881 Y7.5818  
G01 X-11.9719 Y7.5818  
G01 X-12.2822 Y7.8921  
G01 X-12.4278 Y8.0378  
G01 X-12.7382 Y8.3481  
G01 X-12.7382 Y10.8117 
G01 X-13.0263 Y10.5237 
G01 X-13.0782 Y10.4673 
G01 X-13.0991 Y10.4509 
G01 X-13.4281 Y10.1218 
G01 X-13.9436 Y10.1218 
G01 X-14.0201 Y10.1187 
G01 X-14.0465 Y10.1218 
G01 X-14.5119 Y10.1218 
G01 X-14.8034 Y10.4134 
G01 X-18.5913 Y12.9386 
G01 X-18.7427 Y13.0782 
G01 X-18.8703 Y13.2398 
G01 X-18.9711 Y13.4194 
G01 X-19.0426 Y13.6125 
G01 X-19.0830 Y13.8144 
G01 X-19.0913 Y14.0201 
G01 X-19.0673 Y14.2247 
