(.../pcb-gcode-3.6.0.4/pcb-gcode.ulp)
(Copyright 2005 - 2012 by John Johnson)
(See readme.txt for licensing terms.)
(This file generated from the board:)
(.../Antenna Rotator Interface/RotorInterface.brd)
(Current profile is .../pcb-gcode-3.6.0.4/profiles/generic.pp  )
(This file generated 11/14/2016 2:21 PM)
(Settings from pcb-machine.h)
(  Tool Size)
(1.0000 )
(Z Axis Settings)
(  High     Up        Down     Drill)
(12.7000 	2.5400 	-0.1778 	-1.5500 )
(spindle on time = 3.0000)
(milling depth = -0.2540)
(text depth = -0.1270)
(tool change at 12.7000 15.2400 25.4000 )
(feed rate xy = F75.00 )
(feed rate z  = F100.00 )
(Settings from pcb-defaults.h)
(isolate min = 0.0254)
(isolate max = 0.5080)
(isolate step = 0.1270)
(Generated bottom outlines, bottom drill, )
(Unit of measure: mm)
(Metric Mode)
G21
(Absolute Coordinates)
G90
G00 X0.0000 Y0.0000 
M03
G04 P3.000000
G00 Z2.5400 
G00 X-11.3458 Y2.6838 
G01 Z-0.1778 F100.00 
G01 X-11.3458 Y3.6662 F75.00 
G01 X-10.6512 Y4.3608 
G01 X-9.6688 Y4.3608 
G01 X-8.9742 Y3.6662 
G01 X-8.9742 Y2.9304 
G01 X-5.6054 Y2.9304 
G01 X-5.6054 Y3.2442 
G01 X-5.5696 Y3.3778 
G01 X-5.5004 Y3.4976 
G01 X-5.4026 Y3.5954 
G01 X-5.2828 Y3.6646 
G01 X-5.1492 Y3.7004 
G01 X0.0692 Y3.7004 
G01 X0.2028 Y3.6646 
G01 X0.3226 Y3.5954 
G01 X0.4204 Y3.4976 
G01 X0.4690 Y3.4135 
G01 X0.4690 Y8.6515 
G01 X0.4204 Y8.5674 
G01 X0.3226 Y8.4696 
G01 X0.2028 Y8.4004 
G01 X0.0692 Y8.3646 
G01 X-5.1492 Y8.3646 
G01 X-5.2828 Y8.4004 
G01 X-5.4026 Y8.4696 
G01 X-5.5004 Y8.5674 
G01 X-5.5696 Y8.6872 
G01 X-5.6054 Y8.8208 
G01 X-5.6054 Y8.9996 
G01 X-16.6196 Y8.9996 
G01 X-16.6196 Y8.3427 
G01 X-16.6137 Y8.3347 
G01 X-16.5163 Y8.1434 
G01 X-16.4500 Y7.9393 
G01 X-16.4164 Y7.7273 
G01 X-16.4164 Y7.5127 
G01 X-16.4500 Y7.3007 
G01 X-16.5163 Y7.0966 
G01 X-16.6137 Y6.9053 
G01 X-16.7399 Y6.7317 
G01 X-16.7546 Y6.7170 
G01 X-16.7546 Y4.9790 
G01 X-16.7940 Y4.7809 
G01 X-16.8713 Y4.5943 
G01 X-16.9835 Y4.4263 
G01 X-17.1263 Y4.2835 
G01 X-17.2943 Y4.1713 
G01 X-17.4809 Y4.0940 
G01 X-17.6790 Y4.0546 
G01 X-19.6697 Y4.0546 
G01 X-19.8140 Y3.9811 
G01 X-19.9915 Y3.9234 
G01 X-20.1759 Y3.8942 
G01 X-21.6833 Y3.8942 
G01 X-21.8677 Y3.9234 
G01 X-22.0452 Y3.9811 
G01 X-22.2115 Y4.0658 
G01 X-22.3625 Y4.1755 
G01 X-22.4945 Y4.3075 
G01 X-22.6042 Y4.4585 
G01 X-22.6889 Y4.6248 
G01 X-22.7466 Y4.8023 
G01 X-22.7758 Y4.9867 
G01 X-22.7758 Y5.1733 
G01 X-22.7466 Y5.3577 
G01 X-22.6889 Y5.5352 
G01 X-22.6042 Y5.7015 
G01 X-22.4945 Y5.8525 
G01 X-22.3625 Y5.9845 
G01 X-22.2115 Y6.0942 
G01 X-22.0452 Y6.1789 
G01 X-21.8677 Y6.2366 
G01 X-21.6833 Y6.2658 
G01 X-20.1759 Y6.2658 
G01 X-19.9915 Y6.2366 
G01 X-19.8140 Y6.1789 
G01 X-19.6697 Y6.1054 
G01 X-18.8054 Y6.1054 
G01 X-18.8054 Y6.7170 
G01 X-18.8201 Y6.7317 
G01 X-18.9463 Y6.9053 
G01 X-19.0437 Y7.0966 
G01 X-19.1100 Y7.3007 
G01 X-19.1153 Y7.3340 
G01 X-19.1703 Y7.1648 
G01 X-19.2550 Y6.9985 
G01 X-19.3647 Y6.8475 
G01 X-19.4967 Y6.7155 
G01 X-19.6477 Y6.6058 
G01 X-19.8140 Y6.5211 
G01 X-19.9915 Y6.4634 
G01 X-20.1759 Y6.4342 
G01 X-21.6833 Y6.4342 
G01 X-21.8677 Y6.4634 
G01 X-22.0452 Y6.5211 
G01 X-22.1895 Y6.5946 
G01 X-23.1046 Y6.5946 
G01 X-23.1046 Y1.6604 
G01 X-22.3874 Y1.6604 
G01 X-22.4945 Y1.7675 
G01 X-22.6042 Y1.9185 
G01 X-22.6889 Y2.0848 
G01 X-22.7466 Y2.2623 
G01 X-22.7758 Y2.4467 
G01 X-22.7758 Y2.6333 
G01 X-22.7466 Y2.8177 
G01 X-22.6889 Y2.9952 
G01 X-22.6042 Y3.1615 
G01 X-22.4945 Y3.3125 
G01 X-22.3625 Y3.4445 
G01 X-22.2115 Y3.5542 
G01 X-22.0452 Y3.6389 
G01 X-21.8677 Y3.6966 
G01 X-21.6833 Y3.7258 
G01 X-20.1759 Y3.7258 
G01 X-19.9915 Y3.6966 
G01 X-19.8140 Y3.6389 
G01 X-19.6477 Y3.5542 
G01 X-19.4967 Y3.4445 
G01 X-19.3647 Y3.3125 
G01 X-19.2550 Y3.1615 
G01 X-19.1703 Y2.9952 
G01 X-19.1126 Y2.8177 
G01 X-19.0834 Y2.6333 
G01 X-19.0834 Y2.4467 
G01 X-19.1126 Y2.2623 
G01 X-19.1703 Y2.0848 
G01 X-19.2550 Y1.9185 
G01 X-19.3647 Y1.7675 
G01 X-19.4718 Y1.6604 
G01 X-14.9954 Y1.6604 
G01 X-14.9954 Y2.9070 
G01 X-15.0101 Y2.9217 
G01 X-15.1363 Y3.0953 
G01 X-15.2337 Y3.2866 
G01 X-15.3000 Y3.4907 
G01 X-15.3336 Y3.7027 
G01 X-15.3336 Y3.9173 
G01 X-15.3000 Y4.1293 
G01 X-15.2337 Y4.3334 
G01 X-15.1363 Y4.5247 
G01 X-15.0101 Y4.6983 
G01 X-14.9954 Y4.7130 
G01 X-14.9954 Y6.4510 
G01 X-14.9560 Y6.6491 
G01 X-14.8787 Y6.8357 
G01 X-14.7665 Y7.0037 
G01 X-14.6237 Y7.1465 
G01 X-14.4557 Y7.2587 
G01 X-14.2691 Y7.3360 
G01 X-14.0710 Y7.3754 
G01 X-6.2490 Y7.3754 
G01 X-6.0509 Y7.3360 
G01 X-5.8643 Y7.2587 
G01 X-5.6963 Y7.1465 
G01 X-5.5535 Y7.0037 
G01 X-5.4413 Y6.8357 
G01 X-5.3640 Y6.6491 
G01 X-5.3246 Y6.4510 
G01 X-5.3246 Y5.7316 
G01 X-5.1642 Y5.5712 
G01 X-5.1642 Y4.5888 
G01 X-5.8588 Y3.8942 
G01 X-6.8412 Y3.8942 
G01 X-7.5358 Y4.5888 
G01 X-7.5358 Y5.3246 
G01 X-12.9446 Y5.3246 
G01 X-12.9446 Y4.7130 
G01 X-12.9299 Y4.6983 
G01 X-12.8037 Y4.5247 
G01 X-12.7063 Y4.3334 
G01 X-12.6400 Y4.1293 
G01 X-12.6064 Y3.9173 
G01 X-12.6064 Y3.7027 
G01 X-12.6400 Y3.4907 
G01 X-12.7063 Y3.2866 
G01 X-12.8037 Y3.0953 
G01 X-12.9299 Y2.9217 
G01 X-12.9446 Y2.9070 
G01 X-12.9446 Y0.5340 
G01 X-12.9840 Y0.3359 
G01 X-13.0613 Y0.1493 
G01 X-13.1735 Y-0.0187 
G01 X-13.3163 Y-0.1615 
G01 X-13.4843 Y-0.2737 
G01 X-13.6709 Y-0.3510 
G01 X-13.8690 Y-0.3904 
G01 X-24.2310 Y-0.3904 
G01 X-24.4291 Y-0.3510 
G01 X-24.6157 Y-0.2737 
G01 X-24.7837 Y-0.1615 
G01 X-24.9265 Y-0.0187 
G01 X-25.0387 Y0.1493 
G01 X-25.1160 Y0.3359 
G01 X-25.1554 Y0.5340 
G01 X-25.1554 Y7.7210 
G01 X-25.1160 Y7.9191 
G01 X-25.0387 Y8.1057 
G01 X-24.9265 Y8.2737 
G01 X-24.7837 Y8.4165 
G01 X-24.6157 Y8.5287 
G01 X-24.4291 Y8.6060 
G01 X-24.2310 Y8.6454 
G01 X-22.1895 Y8.6454 
G01 X-22.0452 Y8.7189 
G01 X-21.8677 Y8.7766 
G01 X-21.6833 Y8.8058 
G01 X-20.1759 Y8.8058 
G01 X-19.9915 Y8.7766 
G01 X-19.8140 Y8.7189 
G01 X-19.6477 Y8.6342 
G01 X-19.4967 Y8.5245 
G01 X-19.3647 Y8.3925 
G01 X-19.2550 Y8.2415 
G01 X-19.1703 Y8.0752 
G01 X-19.1153 Y7.9060 
G01 X-19.1100 Y7.9393 
G01 X-19.0437 Y8.1434 
G01 X-18.9463 Y8.3347 
G01 X-18.9404 Y8.3427 
G01 X-18.9404 Y10.2513 
G01 X-18.9118 Y10.4317 
G01 X-18.8554 Y10.6054 
G01 X-18.7725 Y10.7682 
G01 X-18.6651 Y10.9159 
G01 X-18.5359 Y11.0451 
G01 X-18.3882 Y11.1525 
G01 X-18.2254 Y11.2354 
G01 X-18.0517 Y11.2918 
G01 X-17.8713 Y11.3204 
G01 X-15.1304 Y11.3204 
G01 X-15.1304 Y12.8307 
G01 X-15.1657 Y12.8792 
G01 X-15.2486 Y13.0420 
G01 X-15.3050 Y13.2157 
G01 X-15.3336 Y13.3961 
G01 X-15.3336 Y13.5787 
G01 X-15.3111 Y13.7207 
G01 X-15.3336 Y13.8627 
G01 X-15.3336 Y14.0773 
G01 X-20.0155 Y14.0796 
G01 X-20.1759 Y14.0542 
G01 X-21.6833 Y14.0542 
G01 X-21.8677 Y14.0834 
G01 X-22.0452 Y14.1411 
G01 X-22.2115 Y14.2258 
G01 X-22.3625 Y14.3355 
G01 X-22.4945 Y14.4675 
G01 X-22.6042 Y14.6185 
G01 X-22.6889 Y14.7848 
G01 X-22.7466 Y14.9623 
G01 X-22.7758 Y15.1467 
G01 X-22.7758 Y15.3333 
G01 X-22.7466 Y15.5177 
G01 X-22.6889 Y15.6952 
G01 X-22.6042 Y15.8615 
G01 X-22.4945 Y16.0125 
G01 X-22.3625 Y16.1445 
G01 X-22.2115 Y16.2542 
G01 X-22.0452 Y16.3389 
G01 X-21.8677 Y16.3966 
G01 X-21.6833 Y16.4258 
G01 X-20.1759 Y16.4258 
G01 X-20.0155 Y16.4004 
G01 X-13.8787 Y16.4004 
G01 X-13.6983 Y16.3718 
G01 X-13.5246 Y16.3154 
G01 X-13.3618 Y16.2325 
G01 X-13.2141 Y16.1251 
G01 X-13.0849 Y15.9959 
G01 X-12.9775 Y15.8482 
G01 X-12.8946 Y15.6854 
G01 X-12.8382 Y15.5117 
G01 X-12.8096 Y15.3313 
G01 X-12.8096 Y14.6927 
G01 X-12.8037 Y14.6847 
G01 X-12.7063 Y14.4934 
G01 X-12.6400 Y14.2893 
G01 X-12.6064 Y14.0773 
G01 X-12.6064 Y13.8627 
G01 X-12.6400 Y13.6507 
G01 X-12.7063 Y13.4466 
G01 X-12.8037 Y13.2553 
G01 X-12.8096 Y13.2473 
G01 X-12.8096 Y11.3204 
G01 X-5.6054 Y11.3204 
G01 X-5.6054 Y11.4992 
G01 X-5.5696 Y11.6328 
G01 X-5.5004 Y11.7526 
G01 X-5.4026 Y11.8504 
G01 X-5.2828 Y11.9196 
G01 X-5.1492 Y11.9554 
G01 X0.0692 Y11.9554 
G01 X0.2028 Y11.9196 
G01 X0.3226 Y11.8504 
G01 X0.4204 Y11.7526 
G01 X0.4690 Y11.6685 
G01 X0.4690 Y16.2715 
G01 X0.4204 Y16.1874 
G01 X0.3226 Y16.0896 
G01 X0.2028 Y16.0204 
G01 X0.0692 Y15.9846 
G01 X-5.1492 Y15.9846 
G01 X-5.2828 Y16.0204 
G01 X-5.4026 Y16.0896 
G01 X-5.5004 Y16.1874 
G01 X-5.5696 Y16.3072 
G01 X-5.6054 Y16.4408 
G01 X-5.6054 Y16.6196 
G01 X-5.8334 Y16.6196 
G01 X-5.8588 Y16.5942 
G01 X-6.8412 Y16.5942 
G01 X-7.5358 Y17.2888 
G01 X-7.5358 Y18.2712 
G01 X-6.8412 Y18.9658 
G01 X-5.8588 Y18.9658 
G01 X-5.8334 Y18.9404 
G01 X-5.6054 Y18.9404 
G01 X-5.6054 Y19.1192 
G01 X-5.5696 Y19.2528 
G01 X-5.5004 Y19.3726 
G01 X-5.4026 Y19.4704 
G01 X-5.2828 Y19.5396 
G01 X-5.1492 Y19.5754 
G01 X0.0692 Y19.5754 
G01 X0.2028 Y19.5396 
G01 X0.3226 Y19.4704 
G01 X0.4204 Y19.3726 
G01 X0.4690 Y19.2885 
G01 X0.4690 Y21.5810 
G01 X-38.4060 Y21.5810 
G01 X-38.4060 Y16.9400 
G01 X-38.3028 Y16.9996 
G01 X-38.1692 Y17.0354 
G01 X-32.9508 Y17.0354 
G01 X-32.8172 Y16.9996 
G01 X-32.6974 Y16.9304 
G01 X-32.5996 Y16.8326 
G01 X-32.5304 Y16.7128 
G01 X-32.4946 Y16.5792 
G01 X-32.4946 Y16.4004 
G01 X-30.7845 Y16.4004 
G01 X-30.6241 Y16.4258 
G01 X-29.1167 Y16.4258 
G01 X-28.9323 Y16.3966 
G01 X-28.7548 Y16.3389 
G01 X-28.5885 Y16.2542 
G01 X-28.4375 Y16.1445 
G01 X-28.3055 Y16.0125 
G01 X-28.1958 Y15.8615 
G01 X-28.1111 Y15.6952 
G01 X-28.0534 Y15.5177 
G01 X-28.0242 Y15.3333 
G01 X-28.0242 Y15.1467 
G01 X-28.0534 Y14.9623 
G01 X-28.1111 Y14.7848 
G01 X-28.1958 Y14.6185 
G01 X-28.3055 Y14.4675 
G01 X-28.4375 Y14.3355 
G01 X-28.5885 Y14.2258 
G01 X-28.7548 Y14.1411 
G01 X-28.9323 Y14.0834 
G01 X-29.1167 Y14.0542 
G01 X-30.6241 Y14.0542 
G01 X-30.7845 Y14.0796 
G01 X-32.4946 Y14.0796 
G01 X-32.4946 Y13.9008 
G01 X-32.5304 Y13.7672 
G01 X-32.5996 Y13.6474 
G01 X-32.6974 Y13.5496 
G01 X-32.8172 Y13.4804 
G01 X-32.9508 Y13.4446 
G01 X-38.1692 Y13.4446 
G01 X-38.3028 Y13.4804 
G01 X-38.4060 Y13.5400 
G01 X-38.4060 Y11.8600 
G01 X-38.3028 Y11.9196 
G01 X-38.1692 Y11.9554 
G01 X-32.9508 Y11.9554 
G01 X-32.8172 Y11.9196 
G01 X-32.6974 Y11.8504 
G01 X-32.5996 Y11.7526 
G01 X-32.5304 Y11.6328 
G01 X-32.4946 Y11.4992 
G01 X-32.4946 Y11.1854 
G01 X-30.2354 Y11.1854 
G01 X-30.2354 Y11.5142 
G01 X-30.6241 Y11.5142 
G01 X-30.8085 Y11.5434 
G01 X-30.9860 Y11.6011 
G01 X-31.1523 Y11.6858 
G01 X-31.3033 Y11.7955 
G01 X-31.4353 Y11.9275 
G01 X-31.5450 Y12.0785 
G01 X-31.6297 Y12.2448 
G01 X-31.6874 Y12.4223 
G01 X-31.7166 Y12.6067 
G01 X-31.7166 Y12.7933 
G01 X-31.6874 Y12.9777 
G01 X-31.6297 Y13.1552 
G01 X-31.5450 Y13.3215 
G01 X-31.4353 Y13.4725 
G01 X-31.3033 Y13.6045 
G01 X-31.1523 Y13.7142 
G01 X-30.9860 Y13.7989 
G01 X-30.8085 Y13.8566 
G01 X-30.6241 Y13.8858 
G01 X-29.1167 Y13.8858 
G01 X-28.9323 Y13.8566 
G01 X-28.7548 Y13.7989 
G01 X-28.5885 Y13.7142 
G01 X-28.4375 Y13.6045 
G01 X-28.3055 Y13.4725 
G01 X-28.1958 Y13.3215 
G01 X-28.1111 Y13.1552 
G01 X-28.0534 Y12.9777 
G01 X-28.0242 Y12.7933 
G01 X-28.0242 Y12.6067 
G01 X-28.0534 Y12.4223 
G01 X-28.1111 Y12.2448 
G01 X-28.1846 Y12.1005 
G01 X-28.1846 Y11.1854 
G01 X-26.5690 Y11.1854 
G01 X-26.3709 Y11.1460 
G01 X-26.1843 Y11.0687 
G01 X-26.0163 Y10.9565 
G01 X-25.8735 Y10.8137 
G01 X-25.7613 Y10.6457 
G01 X-25.6840 Y10.4591 
G01 X-25.6446 Y10.2610 
G01 X-25.6446 Y2.4390 
G01 X-25.6840 Y2.2409 
G01 X-25.7613 Y2.0543 
G01 X-25.8735 Y1.8863 
G01 X-26.0163 Y1.7435 
G01 X-26.1843 Y1.6313 
G01 X-26.3709 Y1.5540 
G01 X-26.5690 Y1.5146 
G01 X-28.6105 Y1.5146 
G01 X-28.7548 Y1.4411 
G01 X-28.9323 Y1.3834 
G01 X-29.1167 Y1.3542 
G01 X-30.6241 Y1.3542 
G01 X-30.8085 Y1.3834 
G01 X-30.9860 Y1.4411 
G01 X-31.1523 Y1.5258 
G01 X-31.3033 Y1.6355 
G01 X-31.4353 Y1.7675 
G01 X-31.5450 Y1.9185 
G01 X-31.6297 Y2.0848 
G01 X-31.6874 Y2.2623 
G01 X-31.7166 Y2.4467 
G01 X-31.7166 Y2.6333 
G01 X-31.6874 Y2.8177 
G01 X-31.6297 Y2.9952 
G01 X-31.5450 Y3.1615 
G01 X-31.4353 Y3.3125 
G01 X-31.3033 Y3.4445 
G01 X-31.1523 Y3.5542 
G01 X-30.9860 Y3.6389 
G01 X-30.8085 Y3.6966 
G01 X-30.6241 Y3.7258 
G01 X-29.1167 Y3.7258 
G01 X-28.9323 Y3.6966 
G01 X-28.7548 Y3.6389 
G01 X-28.6105 Y3.5654 
G01 X-27.6954 Y3.5654 
G01 X-27.6954 Y9.1346 
G01 X-32.4946 Y9.1346 
G01 X-32.4946 Y8.8208 
G01 X-32.5304 Y8.6872 
G01 X-32.5996 Y8.5674 
G01 X-32.6974 Y8.4696 
G01 X-32.8172 Y8.4004 
G01 X-32.9508 Y8.3646 
G01 X-38.1692 Y8.3646 
G01 X-38.3028 Y8.4004 
G01 X-38.4060 Y8.4600 
G01 X-38.4060 Y6.7800 
G01 X-38.3028 Y6.8396 
G01 X-38.1692 Y6.8754 
G01 X-35.8829 Y6.8754 
G01 X-35.7985 Y6.9450 
G01 X-35.6853 Y7.0059 
G01 X-35.5624 Y7.0435 
G01 X-35.4345 Y7.0564 
G01 X-35.3066 Y7.0441 
G01 X-35.1835 Y7.0070 
G01 X-35.0701 Y6.9467 
G01 X-34.9827 Y6.8754 
G01 X-32.9508 Y6.8754 
G01 X-32.8172 Y6.8396 
G01 X-32.6974 Y6.7704 
G01 X-32.5996 Y6.6726 
G01 X-32.5304 Y6.5528 
G01 X-32.4946 Y6.4192 
G01 X-32.4946 Y6.1054 
G01 X-31.1303 Y6.1054 
G01 X-30.9860 Y6.1789 
G01 X-30.8085 Y6.2366 
G01 X-30.6241 Y6.2658 
G01 X-29.1167 Y6.2658 
G01 X-28.9323 Y6.2366 
G01 X-28.7548 Y6.1789 
G01 X-28.5885 Y6.0942 
G01 X-28.4375 Y5.9845 
G01 X-28.3055 Y5.8525 
G01 X-28.1958 Y5.7015 
G01 X-28.1111 Y5.5352 
G01 X-28.0534 Y5.3577 
G01 X-28.0242 Y5.1733 
G01 X-28.0242 Y4.9867 
G01 X-28.0534 Y4.8023 
G01 X-28.1111 Y4.6248 
G01 X-28.1958 Y4.4585 
G01 X-28.3055 Y4.3075 
G01 X-28.4375 Y4.1755 
G01 X-28.5885 Y4.0658 
G01 X-28.7548 Y3.9811 
G01 X-28.9323 Y3.9234 
G01 X-29.1167 Y3.8942 
G01 X-30.6241 Y3.8942 
G01 X-30.8085 Y3.9234 
G01 X-30.9860 Y3.9811 
G01 X-31.1303 Y4.0546 
G01 X-32.4946 Y4.0546 
G01 X-32.4946 Y3.7408 
G01 X-32.5304 Y3.6072 
G01 X-32.5996 Y3.4874 
G01 X-32.6974 Y3.3896 
G01 X-32.8172 Y3.3204 
G01 X-32.9508 Y3.2846 
G01 X-38.1692 Y3.2846 
G01 X-38.3028 Y3.3204 
G01 X-38.4060 Y3.3800 
G01 X-38.4060 Y-1.2893 
G01 X0.4690 Y-1.2893 
G01 X0.4690 Y0.3965 
G01 X0.4204 Y0.3124 
G01 X0.3226 Y0.2146 
G01 X0.2028 Y0.1454 
G01 X0.0692 Y0.1096 
G01 X-5.1492 Y0.1096 
G01 X-5.2828 Y0.1454 
G01 X-5.4026 Y0.2146 
G01 X-5.5004 Y0.3124 
G01 X-5.5696 Y0.4322 
G01 X-5.6054 Y0.5658 
G01 X-5.6054 Y0.8796 
G01 X-10.2610 Y0.8796 
G01 X-10.4591 Y0.9190 
G01 X-10.6457 Y0.9963 
G01 X-10.8137 Y1.1085 
G01 X-10.9565 Y1.2513 
G01 X-11.0687 Y1.4193 
G01 X-11.1460 Y1.6059 
G01 X-11.1854 Y1.8040 
G01 X-11.1854 Y2.5234 
G01 X-11.3458 Y2.6838 
G00 Z2.5400 
G00 X-20.1759 Y11.5142 
G01 Z-0.1778 F100.00 
G01 X-21.6833 Y11.5142 F75.00 
G01 X-21.8677 Y11.5434 
G01 X-22.0452 Y11.6011 
G01 X-22.2115 Y11.6858 
G01 X-22.3625 Y11.7955 
G01 X-22.4945 Y11.9275 
G01 X-22.6042 Y12.0785 
G01 X-22.6889 Y12.2448 
G01 X-22.7466 Y12.4223 
G01 X-22.7758 Y12.6067 
G01 X-22.7758 Y12.7933 
G01 X-22.7466 Y12.9777 
G01 X-22.6889 Y13.1552 
G01 X-22.6042 Y13.3215 
G01 X-22.4945 Y13.4725 
G01 X-22.3625 Y13.6045 
G01 X-22.2115 Y13.7142 
G01 X-22.0452 Y13.7989 
G01 X-21.8677 Y13.8566 
G01 X-21.6833 Y13.8858 
G01 X-20.1759 Y13.8858 
G01 X-19.9915 Y13.8566 
G01 X-19.8140 Y13.7989 
G01 X-19.6477 Y13.7142 
G01 X-19.4967 Y13.6045 
G01 X-19.3647 Y13.4725 
G01 X-19.2550 Y13.3215 
G01 X-19.1703 Y13.1552 
G01 X-19.1126 Y12.9777 
G01 X-19.0834 Y12.7933 
G01 X-19.0834 Y12.6067 
G01 X-19.1126 Y12.4223 
G01 X-19.1703 Y12.2448 
G01 X-19.2550 Y12.0785 
G01 X-19.3647 Y11.9275 
G01 X-19.4967 Y11.7955 
G01 X-19.6477 Y11.6858 
G01 X-19.8140 Y11.6011 
G01 X-19.9915 Y11.5434 
G01 X-20.1759 Y11.5142 
G00 Z2.5400 
G00 X-30.6241 Y18.9658 
G01 Z-0.1778 F100.00 
G01 X-29.1167 Y18.9658 F75.00 
G01 X-28.9323 Y18.9366 
G01 X-28.7548 Y18.8789 
G01 X-28.5885 Y18.7942 
G01 X-28.4375 Y18.6845 
G01 X-28.3055 Y18.5525 
G01 X-28.1958 Y18.4015 
G01 X-28.1111 Y18.2352 
G01 X-28.0534 Y18.0577 
G01 X-28.0242 Y17.8733 
G01 X-28.0242 Y17.6867 
G01 X-28.0534 Y17.5023 
G01 X-28.1111 Y17.3248 
G01 X-28.1958 Y17.1585 
G01 X-28.3055 Y17.0075 
G01 X-28.4375 Y16.8755 
G01 X-28.5885 Y16.7658 
G01 X-28.7548 Y16.6811 
G01 X-28.9323 Y16.6234 
G01 X-29.1167 Y16.5942 
G01 X-30.6241 Y16.5942 
G01 X-30.8085 Y16.6234 
G01 X-30.9860 Y16.6811 
G01 X-31.1523 Y16.7658 
G01 X-31.3033 Y16.8755 
G01 X-31.4353 Y17.0075 
G01 X-31.5450 Y17.1585 
G01 X-31.6297 Y17.3248 
G01 X-31.6874 Y17.5023 
G01 X-31.7166 Y17.6867 
G01 X-31.7166 Y17.8733 
G01 X-31.6874 Y18.0577 
G01 X-31.6297 Y18.2352 
G01 X-31.5450 Y18.4015 
G01 X-31.4353 Y18.5525 
G01 X-31.3033 Y18.6845 
G01 X-31.1523 Y18.7942 
G01 X-30.9860 Y18.8789 
G01 X-30.8085 Y18.9366 
G01 X-30.6241 Y18.9658 
G00 Z2.5400 
G00 X-30.6241 Y8.8058 
G01 Z-0.1778 F100.00 
G01 X-29.1167 Y8.8058 F75.00 
G01 X-28.9323 Y8.7766 
G01 X-28.7548 Y8.7189 
G01 X-28.5885 Y8.6342 
G01 X-28.4375 Y8.5245 
G01 X-28.3055 Y8.3925 
G01 X-28.1958 Y8.2415 
G01 X-28.1111 Y8.0752 
G01 X-28.0534 Y7.8977 
G01 X-28.0242 Y7.7133 
G01 X-28.0242 Y7.5267 
G01 X-28.0534 Y7.3423 
G01 X-28.1111 Y7.1648 
G01 X-28.1958 Y6.9985 
G01 X-28.3055 Y6.8475 
G01 X-28.4375 Y6.7155 
G01 X-28.5885 Y6.6058 
G01 X-28.7548 Y6.5211 
G01 X-28.9323 Y6.4634 
G01 X-29.1167 Y6.4342 
G01 X-30.6241 Y6.4342 
G01 X-30.8085 Y6.4634 
G01 X-30.9860 Y6.5211 
G01 X-31.1523 Y6.6058 
G01 X-31.3033 Y6.7155 
G01 X-31.4353 Y6.8475 
G01 X-31.5450 Y6.9985 
G01 X-31.6297 Y7.1648 
G01 X-31.6874 Y7.3423 
G01 X-31.7166 Y7.5267 
G01 X-31.7166 Y7.7133 
G01 X-31.6874 Y7.8977 
G01 X-31.6297 Y8.0752 
G01 X-31.5450 Y8.2415 
G01 X-31.4353 Y8.3925 
G01 X-31.3033 Y8.5245 
G01 X-31.1523 Y8.6342 
G01 X-30.9860 Y8.7189 
G01 X-30.8085 Y8.7766 
G01 X-30.6241 Y8.8058 
G00 Z2.5400 
G00 X-11.3458 Y15.3838 
G01 Z-0.1778 F100.00 
G01 X-11.3458 Y16.3662 F75.00 
G01 X-11.3204 Y16.3916 
G01 X-11.3204 Y16.6196 
G01 X-17.0573 Y16.6196 
G01 X-17.0653 Y16.6137 
G01 X-17.2566 Y16.5163 
G01 X-17.4607 Y16.4500 
G01 X-17.6727 Y16.4164 
G01 X-17.8873 Y16.4164 
G01 X-18.0993 Y16.4500 
G01 X-18.3034 Y16.5163 
G01 X-18.4947 Y16.6137 
G01 X-18.5027 Y16.6196 
G01 X-20.0155 Y16.6196 
G01 X-20.1759 Y16.5942 
G01 X-21.6833 Y16.5942 
G01 X-21.8677 Y16.6234 
G01 X-22.0452 Y16.6811 
G01 X-22.2115 Y16.7658 
G01 X-22.3625 Y16.8755 
G01 X-22.4945 Y17.0075 
G01 X-22.6042 Y17.1585 
G01 X-22.6889 Y17.3248 
G01 X-22.7466 Y17.5023 
G01 X-22.7758 Y17.6867 
G01 X-22.7758 Y17.8733 
G01 X-22.7466 Y18.0577 
G01 X-22.6889 Y18.2352 
G01 X-22.6042 Y18.4015 
G01 X-22.5954 Y18.4136 
G01 X-22.5825 Y18.4390 
G01 X-22.4751 Y18.5867 
G01 X-22.3459 Y18.7159 
G01 X-22.1982 Y18.8233 
G01 X-22.0354 Y18.9062 
G01 X-21.8617 Y18.9626 
G01 X-21.6813 Y18.9912 
G01 X-18.4065 Y18.9912 
G01 X-18.3034 Y19.0437 
G01 X-18.0993 Y19.1100 
G01 X-17.8873 Y19.1436 
G01 X-17.6727 Y19.1436 
G01 X-17.4607 Y19.1100 
G01 X-17.2566 Y19.0437 
G01 X-17.0653 Y18.9463 
G01 X-17.0573 Y18.9404 
G01 X-10.0687 Y18.9404 
G01 X-9.8883 Y18.9118 
G01 X-9.7146 Y18.8554 
G01 X-9.5518 Y18.7725 
G01 X-9.4040 Y18.6651 
G01 X-9.2749 Y18.5359 
G01 X-9.1675 Y18.3882 
G01 X-9.0846 Y18.2254 
G01 X-9.0282 Y18.0517 
G01 X-8.9996 Y17.8713 
G01 X-8.9996 Y16.3916 
G01 X-8.9742 Y16.3662 
G01 X-8.9742 Y15.3838 
G01 X-9.6688 Y14.6892 
G01 X-10.6512 Y14.6892 
G01 X-11.3458 Y15.3838 
G00 Z2.5400 
G00 X-31.0347 Y6.2966 
G01 Z-0.1778 F100.00 
G01 X-30.8704 Y6.3500 F75.00 
G01 X-31.0347 Y6.4034 
G01 X-31.2189 Y6.4972 
G01 X-31.3860 Y6.6187 
G01 X-31.5321 Y6.7648 
G01 X-31.6536 Y6.9319 
G01 X-31.7474 Y7.1161 
G01 X-31.8113 Y7.3126 
G01 X-31.8436 Y7.5167 
G01 X-31.8436 Y7.7233 
G01 X-31.8113 Y7.9274 
G01 X-31.7474 Y8.1239 
G01 X-31.6536 Y8.3081 
G01 X-31.5321 Y8.4752 
G01 X-31.3860 Y8.6213 
G01 X-31.2189 Y8.7428 
G01 X-31.0347 Y8.8366 
G01 X-30.8382 Y8.9005 
G01 X-30.6341 Y8.9328 
G01 X-29.1067 Y8.9328 
G01 X-28.9026 Y8.9005 
G01 X-28.7061 Y8.8366 
G01 X-28.5219 Y8.7428 
G01 X-28.3548 Y8.6213 
G01 X-28.2087 Y8.4752 
G01 X-28.0872 Y8.3081 
G01 X-27.9934 Y8.1239 
G01 X-27.9295 Y7.9274 
G01 X-27.8972 Y7.7233 
G01 X-27.8972 Y7.5167 
G01 X-27.9295 Y7.3126 
G01 X-27.9934 Y7.1161 
G01 X-28.0872 Y6.9319 
G01 X-28.2087 Y6.7648 
G01 X-28.3548 Y6.6187 
G01 X-28.5219 Y6.4972 
G01 X-28.7061 Y6.4034 
G01 X-28.8704 Y6.3500 
G01 X-28.7061 Y6.2966 
G01 X-28.5219 Y6.2028 
G01 X-28.3548 Y6.0813 
G01 X-28.2087 Y5.9352 
G01 X-28.0872 Y5.7681 
G01 X-27.9934 Y5.5839 
G01 X-27.9295 Y5.3874 
G01 X-27.8972 Y5.1833 
G01 X-27.8972 Y4.9767 
G01 X-27.9295 Y4.7726 
G01 X-27.9934 Y4.5761 
G01 X-28.0872 Y4.3919 
G01 X-28.2087 Y4.2248 
G01 X-28.3548 Y4.0787 
G01 X-28.5219 Y3.9572 
G01 X-28.7061 Y3.8634 
G01 X-28.8704 Y3.8100 
G01 X-28.7061 Y3.7566 
G01 X-28.5800 Y3.6924 
G01 X-27.8224 Y3.6924 
G01 X-27.8224 Y9.0076 
G01 X-32.3676 Y9.0076 
G01 X-32.3676 Y8.8257 
G01 X-32.3927 Y8.6997 
G01 X-32.4419 Y8.5810 
G01 X-32.5132 Y8.4741 
G01 X-32.6041 Y8.3832 
G01 X-32.7110 Y8.3118 
G01 X-32.8297 Y8.2627 
G01 X-32.9557 Y8.2376 
G01 X-38.1643 Y8.2376 
G01 X-38.2903 Y8.2627 
G01 X-38.4060 Y8.3106 
G01 X-38.4060 Y6.9294 
G01 X-38.2903 Y6.9773 
G01 X-38.1643 Y7.0024 
G01 X-35.9285 Y7.0024 
G01 X-35.8696 Y7.0510 
G01 X-35.7344 Y7.1237 
G01 X-35.5876 Y7.1686 
G01 X-35.4348 Y7.1840 
G01 X-35.2820 Y7.1693 
G01 X-35.1350 Y7.1250 
G01 X-34.9994 Y7.0530 
G01 X-34.9375 Y7.0024 
G01 X-32.9557 Y7.0024 
G01 X-32.8297 Y6.9773 
G01 X-32.7110 Y6.9281 
G01 X-32.6041 Y6.8567 
G01 X-32.5132 Y6.7659 
G01 X-32.4419 Y6.6590 
G01 X-32.3927 Y6.5403 
G01 X-32.3676 Y6.4143 
G01 X-32.3676 Y6.2324 
G01 X-31.1608 Y6.2324 
G01 X-31.0347 Y6.2966 
G00 Z2.5400 
G00 X-7.6628 Y4.5362 
G01 Z-0.1778 F100.00 
G01 X-7.6628 Y5.1976 F75.00 
G01 X-12.8176 Y5.1976 
G01 X-12.8176 Y4.7598 
G01 X-12.6951 Y4.5912 
G01 X-12.5886 Y4.3822 
G01 X-12.5161 Y4.1591 
G01 X-12.4794 Y3.9273 
G01 X-12.4794 Y3.6927 
G01 X-12.5161 Y3.4609 
G01 X-12.5886 Y3.2378 
G01 X-12.6951 Y3.0288 
G01 X-12.8176 Y2.8602 
G01 X-12.8176 Y0.5443 
G01 X-12.8460 Y0.3651 
G01 X-12.9020 Y0.1926 
G01 X-12.9844 Y0.0310 
G01 X-13.0910 Y-0.1157 
G01 X-13.2193 Y-0.2440 
G01 X-13.3660 Y-0.3506 
G01 X-13.5276 Y-0.4330 
G01 X-13.7001 Y-0.4890 
G01 X-13.8793 Y-0.5174 
G01 X-24.2207 Y-0.5174 
G01 X-24.3999 Y-0.4890 
G01 X-24.5724 Y-0.4330 
G01 X-24.7340 Y-0.3506 
G01 X-24.8807 Y-0.2440 
G01 X-25.0090 Y-0.1157 
G01 X-25.1156 Y0.0310 
G01 X-25.1980 Y0.1926 
G01 X-25.2540 Y0.3651 
G01 X-25.2824 Y0.5443 
G01 X-25.2824 Y7.7107 
G01 X-25.2540 Y7.8899 
G01 X-25.1980 Y8.0624 
G01 X-25.1156 Y8.2240 
G01 X-25.0090 Y8.3707 
G01 X-24.8807 Y8.4990 
G01 X-24.7340 Y8.6056 
G01 X-24.5724 Y8.6880 
G01 X-24.3999 Y8.7440 
G01 X-24.2207 Y8.7724 
G01 X-22.2200 Y8.7724 
G01 X-22.0939 Y8.8366 
G01 X-21.8974 Y8.9005 
G01 X-21.6933 Y8.9328 
G01 X-20.1659 Y8.9328 
G01 X-19.9618 Y8.9005 
G01 X-19.7653 Y8.8366 
G01 X-19.5811 Y8.7428 
G01 X-19.4140 Y8.6213 
G01 X-19.2678 Y8.4752 
G01 X-19.1464 Y8.3081 
G01 X-19.1244 Y8.2648 
G01 X-19.0674 Y8.3767 
G01 X-19.0674 Y10.2613 
G01 X-19.0357 Y10.4615 
G01 X-18.9731 Y10.6542 
G01 X-18.8811 Y10.8347 
G01 X-18.7620 Y10.9987 
G01 X-18.6187 Y11.1420 
G01 X-18.4547 Y11.2611 
G01 X-18.2742 Y11.3531 
G01 X-18.0815 Y11.4157 
G01 X-17.8813 Y11.4474 
G01 X-15.2574 Y11.4474 
G01 X-15.2574 Y12.7894 
G01 X-15.2743 Y12.8127 
G01 X-15.3663 Y12.9932 
G01 X-15.4289 Y13.1859 
G01 X-15.4606 Y13.3861 
G01 X-15.4606 Y13.5887 
G01 X-15.4397 Y13.7207 
G01 X-15.4606 Y13.8527 
G01 X-15.4606 Y13.9526 
G01 X-19.8760 Y13.9526 
G01 X-19.7653 Y13.9166 
G01 X-19.5811 Y13.8228 
G01 X-19.4140 Y13.7013 
G01 X-19.2678 Y13.5552 
G01 X-19.1464 Y13.3881 
G01 X-19.0526 Y13.2039 
G01 X-18.9887 Y13.0074 
G01 X-18.9564 Y12.8033 
G01 X-18.9564 Y12.5967 
G01 X-18.9887 Y12.3926 
G01 X-19.0526 Y12.1961 
G01 X-19.1464 Y12.0119 
G01 X-19.2678 Y11.8448 
G01 X-19.4140 Y11.6987 
G01 X-19.5811 Y11.5772 
G01 X-19.7653 Y11.4834 
G01 X-19.9618 Y11.4195 
G01 X-20.1659 Y11.3872 
G01 X-21.6933 Y11.3872 
G01 X-21.8974 Y11.4195 
G01 X-22.0939 Y11.4834 
G01 X-22.2781 Y11.5772 
G01 X-22.4452 Y11.6987 
G01 X-22.5913 Y11.8448 
G01 X-22.7128 Y12.0119 
G01 X-22.8066 Y12.1961 
G01 X-22.8705 Y12.3926 
G01 X-22.9028 Y12.5967 
G01 X-22.9028 Y12.8033 
G01 X-22.8705 Y13.0074 
G01 X-22.8066 Y13.2039 
G01 X-22.7128 Y13.3881 
G01 X-22.5913 Y13.5552 
G01 X-22.4452 Y13.7013 
G01 X-22.2781 Y13.8228 
G01 X-22.0939 Y13.9166 
G01 X-21.9296 Y13.9700 
G01 X-22.0939 Y14.0234 
G01 X-22.2781 Y14.1172 
G01 X-22.4452 Y14.2386 
G01 X-22.5913 Y14.3848 
G01 X-22.7128 Y14.5519 
G01 X-22.8066 Y14.7361 
G01 X-22.8705 Y14.9326 
G01 X-22.9028 Y15.1367 
G01 X-22.9028 Y15.3433 
G01 X-22.8705 Y15.5474 
G01 X-22.8066 Y15.7439 
G01 X-22.7128 Y15.9281 
G01 X-22.5913 Y16.0952 
G01 X-22.4452 Y16.2413 
G01 X-22.2781 Y16.3628 
G01 X-22.0939 Y16.4566 
G01 X-21.9296 Y16.5100 
G01 X-22.0939 Y16.5634 
G01 X-22.2781 Y16.6572 
G01 X-22.4452 Y16.7787 
G01 X-22.5913 Y16.9248 
G01 X-22.7128 Y17.0919 
G01 X-22.8066 Y17.2761 
G01 X-22.8705 Y17.4726 
G01 X-22.9028 Y17.6767 
G01 X-22.9028 Y17.8833 
G01 X-22.8705 Y18.0874 
G01 X-22.8066 Y18.2839 
G01 X-22.7128 Y18.4681 
G01 X-22.7040 Y18.4801 
G01 X-22.6911 Y18.5055 
G01 X-22.5720 Y18.6695 
G01 X-22.4287 Y18.8128 
G01 X-22.2647 Y18.9319 
G01 X-22.0842 Y19.0239 
G01 X-21.8915 Y19.0865 
G01 X-21.6913 Y19.1182 
G01 X-18.4370 Y19.1182 
G01 X-18.3522 Y19.1614 
G01 X-18.1290 Y19.2339 
G01 X-17.8973 Y19.2706 
G01 X-17.6627 Y19.2706 
G01 X-17.4309 Y19.2339 
G01 X-17.2078 Y19.1614 
G01 X-17.0233 Y19.0674 
G01 X-10.0587 Y19.0674 
G01 X-9.8585 Y19.0357 
G01 X-9.6658 Y18.9731 
G01 X-9.4853 Y18.8811 
G01 X-9.3213 Y18.7620 
G01 X-9.1780 Y18.6187 
G01 X-9.0589 Y18.4547 
G01 X-8.9669 Y18.2742 
G01 X-8.9043 Y18.0815 
G01 X-8.8726 Y17.8813 
G01 X-8.8726 Y16.4442 
G01 X-8.8472 Y16.4188 
G01 X-8.8472 Y15.3312 
G01 X-9.6162 Y14.5622 
G01 X-10.7038 Y14.5622 
G01 X-11.4728 Y15.3312 
G01 X-11.4728 Y16.4188 
G01 X-11.4474 Y16.4442 
G01 X-11.4474 Y16.4926 
G01 X-13.6590 Y16.4926 
G01 X-13.4758 Y16.4331 
G01 X-13.2953 Y16.3411 
G01 X-13.1313 Y16.2220 
G01 X-12.9880 Y16.0787 
G01 X-12.8689 Y15.9147 
G01 X-12.7769 Y15.7342 
G01 X-12.7143 Y15.5415 
G01 X-12.6826 Y15.3413 
G01 X-12.6826 Y14.7267 
G01 X-12.5886 Y14.5422 
G01 X-12.5161 Y14.3191 
G01 X-12.4794 Y14.0873 
G01 X-12.4794 Y13.8527 
G01 X-12.5161 Y13.6209 
G01 X-12.5886 Y13.3978 
G01 X-12.6826 Y13.2133 
G01 X-12.6826 Y11.4474 
G01 X-5.7324 Y11.4474 
G01 X-5.7324 Y11.4943 
G01 X-5.7073 Y11.6203 
G01 X-5.6581 Y11.7390 
G01 X-5.5868 Y11.8459 
G01 X-5.4959 Y11.9367 
G01 X-5.3890 Y12.0081 
G01 X-5.2703 Y12.0573 
G01 X-5.1443 Y12.0824 
G01 X0.0643 Y12.0824 
G01 X0.1903 Y12.0573 
G01 X0.3090 Y12.0081 
G01 X0.4159 Y11.9367 
G01 X0.4690 Y11.8836 
G01 X0.4690 Y16.0564 
G01 X0.4159 Y16.0032 
G01 X0.3090 Y15.9319 
G01 X0.1903 Y15.8827 
G01 X0.0643 Y15.8576 
G01 X-5.1443 Y15.8576 
G01 X-5.2703 Y15.8827 
G01 X-5.3890 Y15.9319 
G01 X-5.4959 Y16.0032 
G01 X-5.5868 Y16.0941 
G01 X-5.6581 Y16.2010 
G01 X-5.7073 Y16.3197 
G01 X-5.7324 Y16.4457 
G01 X-5.7324 Y16.4926 
G01 X-5.7808 Y16.4926 
G01 X-5.8062 Y16.4672 
G01 X-6.8938 Y16.4672 
G01 X-7.6628 Y17.2362 
G01 X-7.6628 Y18.3238 
G01 X-6.8938 Y19.0928 
G01 X-5.8062 Y19.0928 
G01 X-5.7808 Y19.0674 
G01 X-5.7324 Y19.0674 
G01 X-5.7324 Y19.1143 
G01 X-5.7073 Y19.2403 
G01 X-5.6581 Y19.3590 
G01 X-5.5868 Y19.4659 
G01 X-5.4959 Y19.5568 
G01 X-5.3890 Y19.6281 
G01 X-5.2703 Y19.6773 
G01 X-5.1443 Y19.7024 
G01 X0.0643 Y19.7024 
G01 X0.1903 Y19.6773 
G01 X0.3090 Y19.6281 
G01 X0.4159 Y19.5568 
G01 X0.4690 Y19.5036 
G01 X0.4690 Y21.5810 
G01 X-38.4060 Y21.5810 
G01 X-38.4060 Y17.0894 
G01 X-38.2903 Y17.1373 
G01 X-38.1643 Y17.1624 
G01 X-32.9557 Y17.1624 
G01 X-32.8297 Y17.1373 
G01 X-32.7110 Y17.0881 
G01 X-32.6041 Y17.0168 
G01 X-32.5132 Y16.9259 
G01 X-32.4419 Y16.8190 
G01 X-32.3927 Y16.7003 
G01 X-32.3676 Y16.5743 
G01 X-32.3676 Y16.5274 
G01 X-30.9240 Y16.5274 
G01 X-31.0347 Y16.5634 
G01 X-31.2189 Y16.6572 
G01 X-31.3860 Y16.7787 
G01 X-31.5321 Y16.9248 
G01 X-31.6536 Y17.0919 
G01 X-31.7474 Y17.2761 
G01 X-31.8113 Y17.4726 
G01 X-31.8436 Y17.6767 
G01 X-31.8436 Y17.8833 
G01 X-31.8113 Y18.0874 
G01 X-31.7474 Y18.2839 
G01 X-31.6536 Y18.4681 
G01 X-31.5321 Y18.6352 
G01 X-31.3860 Y18.7813 
G01 X-31.2189 Y18.9028 
G01 X-31.0347 Y18.9966 
G01 X-30.8382 Y19.0605 
G01 X-30.6341 Y19.0928 
G01 X-29.1067 Y19.0928 
G01 X-28.9026 Y19.0605 
G01 X-28.7061 Y18.9966 
G01 X-28.5219 Y18.9028 
G01 X-28.3548 Y18.7813 
G01 X-28.2087 Y18.6352 
G01 X-28.0872 Y18.4681 
G01 X-27.9934 Y18.2839 
G01 X-27.9295 Y18.0874 
G01 X-27.8972 Y17.8833 
G01 X-27.8972 Y17.6767 
G01 X-27.9295 Y17.4726 
G01 X-27.9934 Y17.2761 
G01 X-28.0872 Y17.0919 
G01 X-28.2087 Y16.9248 
G01 X-28.3548 Y16.7787 
G01 X-28.5219 Y16.6572 
G01 X-28.7061 Y16.5634 
G01 X-28.8704 Y16.5100 
G01 X-28.7061 Y16.4566 
G01 X-28.5219 Y16.3628 
G01 X-28.3548 Y16.2413 
G01 X-28.2087 Y16.0952 
G01 X-28.0872 Y15.9281 
G01 X-27.9934 Y15.7439 
G01 X-27.9295 Y15.5474 
G01 X-27.8972 Y15.3433 
G01 X-27.8972 Y15.1367 
G01 X-27.9295 Y14.9326 
G01 X-27.9934 Y14.7361 
G01 X-28.0872 Y14.5519 
G01 X-28.2087 Y14.3848 
G01 X-28.3548 Y14.2386 
G01 X-28.5219 Y14.1172 
G01 X-28.7061 Y14.0234 
G01 X-28.8704 Y13.9700 
G01 X-28.7061 Y13.9166 
G01 X-28.5219 Y13.8228 
G01 X-28.3548 Y13.7013 
G01 X-28.2087 Y13.5552 
G01 X-28.0872 Y13.3881 
G01 X-27.9934 Y13.2039 
G01 X-27.9295 Y13.0074 
G01 X-27.8972 Y12.8033 
G01 X-27.8972 Y12.5967 
G01 X-27.9295 Y12.3926 
G01 X-27.9934 Y12.1961 
G01 X-28.0576 Y12.0700 
G01 X-28.0576 Y11.3124 
G01 X-26.5793 Y11.3124 
G01 X-26.4001 Y11.2840 
G01 X-26.2276 Y11.2280 
G01 X-26.0660 Y11.1456 
G01 X-25.9193 Y11.0390 
G01 X-25.7910 Y10.9107 
G01 X-25.6844 Y10.7640 
G01 X-25.6020 Y10.6024 
G01 X-25.5460 Y10.4299 
G01 X-25.5176 Y10.2507 
G01 X-25.5176 Y2.4493 
G01 X-25.5460 Y2.2701 
G01 X-25.6020 Y2.0976 
G01 X-25.6844 Y1.9360 
G01 X-25.7910 Y1.7893 
G01 X-25.9193 Y1.6610 
G01 X-26.0660 Y1.5544 
G01 X-26.2276 Y1.4720 
G01 X-26.4001 Y1.4160 
G01 X-26.5793 Y1.3876 
G01 X-28.5800 Y1.3876 
G01 X-28.7061 Y1.3234 
G01 X-28.9026 Y1.2595 
G01 X-29.1067 Y1.2272 
G01 X-30.6341 Y1.2272 
G01 X-30.8382 Y1.2595 
G01 X-31.0347 Y1.3234 
G01 X-31.2189 Y1.4172 
G01 X-31.3860 Y1.5387 
G01 X-31.5321 Y1.6848 
G01 X-31.6536 Y1.8519 
G01 X-31.7474 Y2.0361 
G01 X-31.8113 Y2.2326 
G01 X-31.8436 Y2.4367 
G01 X-31.8436 Y2.6433 
G01 X-31.8113 Y2.8474 
G01 X-31.7474 Y3.0439 
G01 X-31.6536 Y3.2281 
G01 X-31.5321 Y3.3952 
G01 X-31.3860 Y3.5413 
G01 X-31.2189 Y3.6628 
G01 X-31.0347 Y3.7566 
G01 X-30.8704 Y3.8100 
G01 X-31.0347 Y3.8634 
G01 X-31.1608 Y3.9276 
G01 X-32.3676 Y3.9276 
G01 X-32.3676 Y3.7457 
G01 X-32.3927 Y3.6197 
G01 X-32.4419 Y3.5010 
G01 X-32.5132 Y3.3941 
G01 X-32.6041 Y3.3032 
G01 X-32.7110 Y3.2319 
G01 X-32.8297 Y3.1827 
G01 X-32.9557 Y3.1576 
G01 X-38.1643 Y3.1576 
G01 X-38.2903 Y3.1827 
G01 X-38.4060 Y3.2306 
G01 X-38.4060 Y-1.2893 
G01 X0.4690 Y-1.2893 
G01 X0.4690 Y0.1814 
G01 X0.4159 Y0.1282 
G01 X0.3090 Y0.0569 
G01 X0.1903 Y0.0077 
G01 X0.0643 Y-0.0174 
G01 X-5.1443 Y-0.0174 
G01 X-5.2703 Y0.0077 
G01 X-5.3890 Y0.0569 
G01 X-5.4959 Y0.1282 
G01 X-5.5868 Y0.2191 
G01 X-5.6581 Y0.3260 
G01 X-5.7073 Y0.4447 
G01 X-5.7324 Y0.5707 
G01 X-5.7324 Y0.7526 
G01 X-10.2507 Y0.7526 
G01 X-10.4299 Y0.7810 
G01 X-10.6024 Y0.8370 
G01 X-10.7640 Y0.9194 
G01 X-10.9107 Y1.0260 
G01 X-11.0390 Y1.1543 
G01 X-11.1456 Y1.3010 
G01 X-11.2280 Y1.4626 
G01 X-11.2840 Y1.6351 
G01 X-11.3124 Y1.8143 
G01 X-11.3124 Y2.4708 
G01 X-11.4728 Y2.6312 
G01 X-11.4728 Y3.7188 
G01 X-10.7038 Y4.4878 
G01 X-9.6162 Y4.4878 
G01 X-8.8472 Y3.7188 
G01 X-8.8472 Y3.0574 
G01 X-5.7324 Y3.0574 
G01 X-5.7324 Y3.2393 
G01 X-5.7073 Y3.3653 
G01 X-5.6581 Y3.4840 
G01 X-5.5868 Y3.5909 
G01 X-5.4959 Y3.6818 
G01 X-5.3890 Y3.7531 
G01 X-5.2703 Y3.8023 
G01 X-5.1443 Y3.8274 
G01 X0.0643 Y3.8274 
G01 X0.1903 Y3.8023 
G01 X0.3090 Y3.7531 
G01 X0.4159 Y3.6818 
G01 X0.4690 Y3.6286 
G01 X0.4690 Y8.4364 
G01 X0.4159 Y8.3832 
G01 X0.3090 Y8.3118 
G01 X0.1903 Y8.2627 
G01 X0.0643 Y8.2376 
G01 X-5.1443 Y8.2376 
G01 X-5.2703 Y8.2627 
G01 X-5.3890 Y8.3118 
G01 X-5.4959 Y8.3832 
G01 X-5.5868 Y8.4741 
G01 X-5.6581 Y8.5810 
G01 X-5.7073 Y8.6997 
G01 X-5.7324 Y8.8257 
G01 X-5.7324 Y8.8726 
G01 X-16.4926 Y8.8726 
G01 X-16.4926 Y8.3767 
G01 X-16.3986 Y8.1922 
G01 X-16.3261 Y7.9691 
G01 X-16.2894 Y7.7373 
G01 X-16.2894 Y7.5027 
G01 X-16.3261 Y7.2709 
G01 X-16.3986 Y7.0478 
G01 X-16.5051 Y6.8388 
G01 X-16.6276 Y6.6702 
G01 X-16.6276 Y4.9893 
G01 X-16.6560 Y4.8101 
G01 X-16.7120 Y4.6376 
G01 X-16.7944 Y4.4760 
G01 X-16.9010 Y4.3293 
G01 X-17.0293 Y4.2010 
G01 X-17.1760 Y4.0944 
G01 X-17.3376 Y4.0120 
G01 X-17.5101 Y3.9560 
G01 X-17.6893 Y3.9276 
G01 X-19.6392 Y3.9276 
G01 X-19.7653 Y3.8634 
G01 X-19.9296 Y3.8100 
G01 X-19.7653 Y3.7566 
G01 X-19.5811 Y3.6628 
G01 X-19.4140 Y3.5413 
G01 X-19.2678 Y3.3952 
G01 X-19.1464 Y3.2281 
G01 X-19.0526 Y3.0439 
G01 X-18.9887 Y2.8474 
G01 X-18.9564 Y2.6433 
G01 X-18.9564 Y2.4367 
G01 X-18.9887 Y2.2326 
G01 X-19.0526 Y2.0361 
G01 X-19.1464 Y1.8519 
G01 X-19.1933 Y1.7874 
G01 X-15.1224 Y1.7874 
G01 X-15.1224 Y2.8602 
G01 X-15.2449 Y3.0288 
G01 X-15.3514 Y3.2378 
G01 X-15.4239 Y3.4609 
G01 X-15.4606 Y3.6927 
G01 X-15.4606 Y3.9273 
G01 X-15.4239 Y4.1591 
G01 X-15.3514 Y4.3822 
G01 X-15.2449 Y4.5912 
G01 X-15.1224 Y4.7598 
G01 X-15.1224 Y6.4407 
G01 X-15.0940 Y6.6199 
G01 X-15.0380 Y6.7924 
G01 X-14.9556 Y6.9540 
G01 X-14.8490 Y7.1007 
G01 X-14.7207 Y7.2290 
G01 X-14.5740 Y7.3356 
G01 X-14.4124 Y7.4180 
G01 X-14.2399 Y7.4740 
G01 X-14.0607 Y7.5024 
G01 X-6.2593 Y7.5024 
G01 X-6.0801 Y7.4740 
G01 X-5.9076 Y7.4180 
G01 X-5.7460 Y7.3356 
G01 X-5.5993 Y7.2290 
G01 X-5.4710 Y7.1007 
G01 X-5.3644 Y6.9540 
G01 X-5.2820 Y6.7924 
G01 X-5.2260 Y6.6199 
G01 X-5.1976 Y6.4407 
G01 X-5.1976 Y5.7842 
G01 X-5.0372 Y5.6238 
G01 X-5.0372 Y4.5362 
G01 X-5.8062 Y3.7672 
G01 X-6.8938 Y3.7672 
G01 X-7.6628 Y4.5362 
G00 Z2.5400 
G00 X-32.3676 Y13.9057 
G01 Z-0.1778 F100.00 
G01 X-32.3927 Y13.7797 F75.00 
G01 X-32.4419 Y13.6610 
G01 X-32.5132 Y13.5541 
G01 X-32.6041 Y13.4632 
G01 X-32.7110 Y13.3918 
G01 X-32.8297 Y13.3427 
G01 X-32.9557 Y13.3176 
G01 X-38.1643 Y13.3176 
G01 X-38.2903 Y13.3427 
G01 X-38.4060 Y13.3906 
G01 X-38.4060 Y12.0094 
G01 X-38.2903 Y12.0573 
G01 X-38.1643 Y12.0824 
G01 X-32.9557 Y12.0824 
G01 X-32.8297 Y12.0573 
G01 X-32.7110 Y12.0081 
G01 X-32.6041 Y11.9367 
G01 X-32.5132 Y11.8459 
G01 X-32.4419 Y11.7390 
G01 X-32.3927 Y11.6203 
G01 X-32.3676 Y11.4943 
G01 X-32.3676 Y11.3124 
G01 X-30.3624 Y11.3124 
G01 X-30.3624 Y11.3872 
G01 X-30.6341 Y11.3872 
G01 X-30.8382 Y11.4195 
G01 X-31.0347 Y11.4834 
G01 X-31.2189 Y11.5772 
G01 X-31.3860 Y11.6987 
G01 X-31.5321 Y11.8448 
G01 X-31.6536 Y12.0119 
G01 X-31.7474 Y12.1961 
G01 X-31.8113 Y12.3926 
G01 X-31.8436 Y12.5967 
G01 X-31.8436 Y12.8033 
G01 X-31.8113 Y13.0074 
G01 X-31.7474 Y13.2039 
G01 X-31.6536 Y13.3881 
G01 X-31.5321 Y13.5552 
G01 X-31.3860 Y13.7013 
G01 X-31.2189 Y13.8228 
G01 X-31.0347 Y13.9166 
G01 X-30.9240 Y13.9526 
G01 X-32.3676 Y13.9526 
G01 X-32.3676 Y13.9057 
G00 Z2.5400 
G00 X-22.7128 Y1.8519 
G01 Z-0.1778 F100.00 
G01 X-22.8066 Y2.0361 F75.00 
G01 X-22.8705 Y2.2326 
G01 X-22.9028 Y2.4367 
G01 X-22.9028 Y2.6433 
G01 X-22.8705 Y2.8474 
G01 X-22.8066 Y3.0439 
G01 X-22.7128 Y3.2281 
G01 X-22.5913 Y3.3952 
G01 X-22.4452 Y3.5413 
G01 X-22.2781 Y3.6628 
G01 X-22.0939 Y3.7566 
G01 X-21.9296 Y3.8100 
G01 X-22.0939 Y3.8634 
G01 X-22.2781 Y3.9572 
G01 X-22.4452 Y4.0787 
G01 X-22.5913 Y4.2248 
G01 X-22.7128 Y4.3919 
G01 X-22.8066 Y4.5761 
G01 X-22.8705 Y4.7726 
G01 X-22.9028 Y4.9767 
G01 X-22.9028 Y5.1833 
G01 X-22.8705 Y5.3874 
G01 X-22.8066 Y5.5839 
G01 X-22.7128 Y5.7681 
G01 X-22.5913 Y5.9352 
G01 X-22.4452 Y6.0813 
G01 X-22.2781 Y6.2028 
G01 X-22.0939 Y6.2966 
G01 X-21.9296 Y6.3500 
G01 X-22.0939 Y6.4034 
G01 X-22.2200 Y6.4676 
G01 X-22.9776 Y6.4676 
G01 X-22.9776 Y1.7874 
G01 X-22.6659 Y1.7874 
G01 X-22.7128 Y1.8519 
G00 Z2.5400 
G00 X-18.9324 Y6.6702 
G01 Z-0.1778 F100.00 
G01 X-19.0549 Y6.8388 F75.00 
G01 X-19.1244 Y6.9752 
G01 X-19.1464 Y6.9319 
G01 X-19.2678 Y6.7648 
G01 X-19.4140 Y6.6187 
G01 X-19.5811 Y6.4972 
G01 X-19.7653 Y6.4034 
G01 X-19.9296 Y6.3500 
G01 X-19.7653 Y6.2966 
G01 X-19.6392 Y6.2324 
G01 X-18.9324 Y6.2324 
G01 X-18.9324 Y6.6702 
G00 Z2.5400 
G00 X-31.2854 Y6.3886 
G01 Z-0.1778 F100.00 
G01 X-31.4688 Y6.5218 F75.00 
G01 X-31.6290 Y6.6820 
G01 X-31.7622 Y6.8654 
G01 X-31.8651 Y7.0673 
G01 X-31.9351 Y7.2828 
G01 X-31.9706 Y7.5067 
G01 X-31.9706 Y7.7333 
G01 X-31.9351 Y7.9572 
G01 X-31.8651 Y8.1727 
G01 X-31.7622 Y8.3746 
G01 X-31.6290 Y8.5580 
G01 X-31.4688 Y8.7182 
G01 X-31.2854 Y8.8514 
G01 X-31.2282 Y8.8806 
G01 X-32.2406 Y8.8806 
G01 X-32.2406 Y8.8132 
G01 X-32.2706 Y8.6627 
G01 X-32.3293 Y8.5208 
G01 X-32.4146 Y8.3932 
G01 X-32.5232 Y8.2846 
G01 X-32.6508 Y8.1993 
G01 X-32.7927 Y8.1406 
G01 X-32.9432 Y8.1106 
G01 X-38.1768 Y8.1106 
G01 X-38.3273 Y8.1406 
G01 X-38.4060 Y8.1731 
G01 X-38.4060 Y7.0669 
G01 X-38.3273 Y7.0994 
G01 X-38.1768 Y7.1294 
G01 X-35.9741 Y7.1294 
G01 X-35.9408 Y7.1569 
G01 X-35.7835 Y7.2414 
G01 X-35.6128 Y7.2937 
G01 X-35.4351 Y7.3116 
G01 X-35.2574 Y7.2945 
G01 X-35.0864 Y7.2431 
G01 X-34.9287 Y7.1593 
G01 X-34.8922 Y7.1294 
G01 X-32.9432 Y7.1294 
G01 X-32.7927 Y7.0994 
G01 X-32.6508 Y7.0407 
G01 X-32.5232 Y6.9554 
G01 X-32.4146 Y6.8468 
G01 X-32.3293 Y6.7192 
G01 X-32.2706 Y6.5773 
G01 X-32.2406 Y6.4268 
G01 X-32.2406 Y6.3594 
G01 X-31.2282 Y6.3594 
G01 X-31.2854 Y6.3886 
G00 Z2.5400 
G00 X-7.7898 Y4.4836 
G01 Z-0.1778 F100.00 
G01 X-7.7898 Y5.0706 F75.00 
G01 X-12.6906 Y5.0706 
G01 X-12.6906 Y4.7999 
G01 X-12.6221 Y4.7106 
G01 X-12.5161 Y4.5270 
G01 X-12.4350 Y4.3311 
G01 X-12.3801 Y4.1263 
G01 X-12.3524 Y3.9160 
G01 X-12.3524 Y3.7040 
G01 X-12.3801 Y3.4937 
G01 X-12.4350 Y3.2889 
G01 X-12.5161 Y3.0930 
G01 X-12.6221 Y2.9094 
G01 X-12.6906 Y2.8201 
G01 X-12.6906 Y0.5343 
G01 X-12.7221 Y0.3354 
G01 X-12.7843 Y0.1439 
G01 X-12.8758 Y-0.0355 
G01 X-12.9941 Y-0.1985 
G01 X-13.1365 Y-0.3409 
G01 X-13.2994 Y-0.4592 
G01 X-13.4789 Y-0.5507 
G01 X-13.6704 Y-0.6129 
G01 X-13.8693 Y-0.6444 
G01 X-24.2307 Y-0.6444 
G01 X-24.4296 Y-0.6129 
G01 X-24.6211 Y-0.5507 
G01 X-24.8006 Y-0.4592 
G01 X-24.9635 Y-0.3409 
G01 X-25.1059 Y-0.1985 
G01 X-25.2242 Y-0.0355 
G01 X-25.3157 Y0.1439 
G01 X-25.3779 Y0.3354 
G01 X-25.4094 Y0.5343 
G01 X-25.4094 Y2.3206 
G01 X-25.4221 Y2.2404 
G01 X-25.4843 Y2.0489 
G01 X-25.5758 Y1.8694 
G01 X-25.6941 Y1.7065 
G01 X-25.8365 Y1.5641 
G01 X-25.9994 Y1.4458 
G01 X-26.1789 Y1.3543 
G01 X-26.3704 Y1.2921 
G01 X-26.5693 Y1.2606 
G01 X-28.5495 Y1.2606 
G01 X-28.6573 Y1.2057 
G01 X-28.8728 Y1.1357 
G01 X-29.0967 Y1.1002 
G01 X-30.6441 Y1.1002 
G01 X-30.8680 Y1.1357 
G01 X-31.0835 Y1.2057 
G01 X-31.2854 Y1.3086 
G01 X-31.4688 Y1.4418 
G01 X-31.6290 Y1.6020 
G01 X-31.7622 Y1.7854 
G01 X-31.8651 Y1.9873 
G01 X-31.9351 Y2.2028 
G01 X-31.9706 Y2.4267 
G01 X-31.9706 Y2.6533 
G01 X-31.9351 Y2.8772 
G01 X-31.8651 Y3.0927 
G01 X-31.7622 Y3.2946 
G01 X-31.6290 Y3.4780 
G01 X-31.4688 Y3.6382 
G01 X-31.2854 Y3.7714 
G01 X-31.2282 Y3.8006 
G01 X-32.2406 Y3.8006 
G01 X-32.2406 Y3.7332 
G01 X-32.2706 Y3.5827 
G01 X-32.3293 Y3.4408 
G01 X-32.4146 Y3.3132 
G01 X-32.5232 Y3.2046 
G01 X-32.6508 Y3.1193 
G01 X-32.7927 Y3.0606 
G01 X-32.9432 Y3.0306 
G01 X-38.1768 Y3.0306 
G01 X-38.3273 Y3.0606 
G01 X-38.4060 Y3.0931 
G01 X-38.4060 Y-1.2893 
G01 X0.4690 Y-1.2893 
G01 X0.4690 Y0.0110 
G01 X0.3692 Y-0.0557 
G01 X0.2273 Y-0.1144 
G01 X0.0768 Y-0.1444 
G01 X-5.1568 Y-0.1444 
G01 X-5.3073 Y-0.1144 
G01 X-5.4492 Y-0.0557 
G01 X-5.5768 Y0.0296 
G01 X-5.6854 Y0.1382 
G01 X-5.7707 Y0.2658 
G01 X-5.8294 Y0.4077 
G01 X-5.8594 Y0.5582 
G01 X-5.8594 Y0.6256 
G01 X-10.2607 Y0.6256 
G01 X-10.4596 Y0.6571 
G01 X-10.6511 Y0.7193 
G01 X-10.8306 Y0.8108 
G01 X-10.9935 Y0.9291 
G01 X-11.1359 Y1.0715 
G01 X-11.2542 Y1.2344 
G01 X-11.3457 Y1.4139 
G01 X-11.4079 Y1.6054 
G01 X-11.4394 Y1.8043 
G01 X-11.4394 Y2.4182 
G01 X-11.5998 Y2.5786 
G01 X-11.5998 Y3.7714 
G01 X-10.7564 Y4.6148 
G01 X-9.5636 Y4.6148 
G01 X-8.7202 Y3.7714 
G01 X-8.7202 Y3.1844 
G01 X-5.8594 Y3.1844 
G01 X-5.8594 Y3.2518 
G01 X-5.8294 Y3.4023 
G01 X-5.7707 Y3.5442 
G01 X-5.6854 Y3.6718 
G01 X-5.5768 Y3.7804 
G01 X-5.4492 Y3.8657 
G01 X-5.3073 Y3.9244 
G01 X-5.1568 Y3.9544 
G01 X0.0768 Y3.9544 
G01 X0.2273 Y3.9244 
G01 X0.3692 Y3.8657 
G01 X0.4690 Y3.7990 
G01 X0.4690 Y8.2660 
G01 X0.3692 Y8.1993 
G01 X0.2273 Y8.1406 
G01 X0.0768 Y8.1106 
G01 X-5.1568 Y8.1106 
G01 X-5.3073 Y8.1406 
G01 X-5.4492 Y8.1993 
G01 X-5.5768 Y8.2846 
G01 X-5.6854 Y8.3932 
G01 X-5.7707 Y8.5208 
G01 X-5.8294 Y8.6627 
G01 X-5.8459 Y8.7456 
G01 X-16.3656 Y8.7456 
G01 X-16.3656 Y8.4054 
G01 X-16.3261 Y8.3370 
G01 X-16.2450 Y8.1411 
G01 X-16.1901 Y7.9363 
G01 X-16.1624 Y7.7260 
G01 X-16.1624 Y7.5140 
G01 X-16.1901 Y7.3037 
G01 X-16.2450 Y7.0989 
G01 X-16.3261 Y6.9030 
G01 X-16.4321 Y6.7194 
G01 X-16.5006 Y6.6301 
G01 X-16.5006 Y4.9793 
G01 X-16.5321 Y4.7804 
G01 X-16.5943 Y4.5889 
G01 X-16.6858 Y4.4094 
G01 X-16.8041 Y4.2465 
G01 X-16.9465 Y4.1041 
G01 X-17.1094 Y3.9858 
G01 X-17.2889 Y3.8943 
G01 X-17.4804 Y3.8321 
G01 X-17.6793 Y3.8006 
G01 X-19.5718 Y3.8006 
G01 X-19.5146 Y3.7714 
G01 X-19.3312 Y3.6382 
G01 X-19.1710 Y3.4780 
G01 X-19.0378 Y3.2946 
G01 X-18.9349 Y3.0927 
G01 X-18.8649 Y2.8772 
G01 X-18.8294 Y2.6533 
G01 X-18.8294 Y2.4267 
G01 X-18.8649 Y2.2028 
G01 X-18.9349 Y1.9873 
G01 X-18.9720 Y1.9144 
G01 X-15.2494 Y1.9144 
G01 X-15.2494 Y2.8201 
G01 X-15.3179 Y2.9094 
G01 X-15.4239 Y3.0930 
G01 X-15.5050 Y3.2889 
G01 X-15.5599 Y3.4937 
G01 X-15.5876 Y3.7040 
G01 X-15.5876 Y3.9160 
G01 X-15.5599 Y4.1263 
G01 X-15.5050 Y4.3311 
G01 X-15.4239 Y4.5270 
G01 X-15.3179 Y4.7106 
G01 X-15.2494 Y4.7999 
G01 X-15.2494 Y6.4507 
G01 X-15.2179 Y6.6496 
G01 X-15.1557 Y6.8411 
G01 X-15.0642 Y7.0206 
G01 X-14.9459 Y7.1835 
G01 X-14.8035 Y7.3259 
G01 X-14.6406 Y7.4442 
G01 X-14.4611 Y7.5357 
G01 X-14.2696 Y7.5979 
G01 X-14.0707 Y7.6294 
G01 X-6.2493 Y7.6294 
G01 X-6.0504 Y7.5979 
G01 X-5.8589 Y7.5357 
G01 X-5.6794 Y7.4442 
G01 X-5.5165 Y7.3259 
G01 X-5.3741 Y7.1835 
G01 X-5.2558 Y7.0206 
G01 X-5.1643 Y6.8411 
G01 X-5.1021 Y6.6496 
G01 X-5.0706 Y6.4507 
G01 X-5.0706 Y5.8368 
G01 X-4.9102 Y5.6764 
G01 X-4.9102 Y4.4836 
G01 X-5.7536 Y3.6402 
G01 X-6.9464 Y3.6402 
G01 X-7.7898 Y4.4836 
G00 Z2.5400 
G00 X-22.8214 Y3.2946 
G01 Z-0.1778 F100.00 
G01 X-22.6882 Y3.4780 F75.00 
G01 X-22.5280 Y3.6382 
G01 X-22.3446 Y3.7714 
G01 X-22.2689 Y3.8100 
G01 X-22.3446 Y3.8486 
G01 X-22.5280 Y3.9818 
G01 X-22.6882 Y4.1420 
G01 X-22.8214 Y4.3254 
G01 X-22.8506 Y4.3826 
G01 X-22.8506 Y3.2374 
G01 X-22.8214 Y3.2946 
G00 Z2.5400 
G00 X-22.8214 Y5.8346 
G01 Z-0.1778 F100.00 
G01 X-22.6882 Y6.0180 F75.00 
G01 X-22.5280 Y6.1782 
G01 X-22.3446 Y6.3114 
G01 X-22.2874 Y6.3406 
G01 X-22.8506 Y6.3406 
G01 X-22.8506 Y5.7774 
G01 X-22.8214 Y5.8346 
G00 Z2.5400 
G00 X-11.5998 Y15.2786 
G01 Z-0.1778 F100.00 
G01 X-11.5998 Y16.3656 F75.00 
G01 X-13.1129 Y16.3656 
G01 X-13.0486 Y16.3188 
G01 X-12.8912 Y16.1614 
G01 X-12.7603 Y15.9813 
G01 X-12.6592 Y15.7829 
G01 X-12.5904 Y15.5712 
G01 X-12.5556 Y15.3513 
G01 X-12.5556 Y14.7554 
G01 X-12.5161 Y14.6870 
G01 X-12.4350 Y14.4911 
G01 X-12.3801 Y14.2863 
G01 X-12.3524 Y14.0760 
G01 X-12.3524 Y13.8640 
G01 X-12.3801 Y13.6537 
G01 X-12.4350 Y13.4489 
G01 X-12.5161 Y13.2530 
G01 X-12.5556 Y13.1846 
G01 X-12.5556 Y11.5744 
G01 X-5.8459 Y11.5744 
G01 X-5.8294 Y11.6573 
G01 X-5.7707 Y11.7992 
G01 X-5.6854 Y11.9268 
G01 X-5.5768 Y12.0354 
G01 X-5.4492 Y12.1207 
G01 X-5.3073 Y12.1794 
G01 X-5.1568 Y12.2094 
G01 X0.0768 Y12.2094 
G01 X0.2273 Y12.1794 
G01 X0.3692 Y12.1207 
G01 X0.4690 Y12.0540 
G01 X0.4690 Y15.8860 
G01 X0.3692 Y15.8193 
G01 X0.2273 Y15.7606 
G01 X0.0768 Y15.7306 
G01 X-5.1568 Y15.7306 
G01 X-5.3073 Y15.7606 
G01 X-5.4492 Y15.8193 
G01 X-5.5768 Y15.9046 
G01 X-5.6854 Y16.0132 
G01 X-5.7707 Y16.1408 
G01 X-5.8294 Y16.2827 
G01 X-5.8409 Y16.3402 
G01 X-6.9464 Y16.3402 
G01 X-7.7898 Y17.1836 
G01 X-7.7898 Y18.3764 
G01 X-6.9464 Y19.2198 
G01 X-5.8409 Y19.2198 
G01 X-5.8294 Y19.2773 
G01 X-5.7707 Y19.4192 
G01 X-5.6854 Y19.5468 
G01 X-5.5768 Y19.6554 
G01 X-5.4492 Y19.7407 
G01 X-5.3073 Y19.7994 
G01 X-5.1568 Y19.8294 
G01 X0.0768 Y19.8294 
G01 X0.2273 Y19.7994 
G01 X0.3692 Y19.7407 
G01 X0.4690 Y19.6740 
G01 X0.4690 Y21.5810 
G01 X-38.4060 Y21.5810 
G01 X-38.4060 Y17.2269 
G01 X-38.3273 Y17.2594 
G01 X-38.1768 Y17.2894 
G01 X-32.9432 Y17.2894 
G01 X-32.7927 Y17.2594 
G01 X-32.6508 Y17.2007 
G01 X-32.5232 Y17.1154 
G01 X-32.4146 Y17.0068 
G01 X-32.3293 Y16.8792 
G01 X-32.2706 Y16.7373 
G01 X-32.2541 Y16.6544 
G01 X-31.4311 Y16.6544 
G01 X-31.4688 Y16.6818 
G01 X-31.6290 Y16.8420 
G01 X-31.7622 Y17.0254 
G01 X-31.8651 Y17.2273 
G01 X-31.9351 Y17.4428 
G01 X-31.9706 Y17.6667 
G01 X-31.9706 Y17.8933 
G01 X-31.9351 Y18.1172 
G01 X-31.8651 Y18.3327 
G01 X-31.7622 Y18.5346 
G01 X-31.6290 Y18.7180 
G01 X-31.4688 Y18.8782 
G01 X-31.2854 Y19.0114 
G01 X-31.0835 Y19.1143 
G01 X-30.8680 Y19.1843 
G01 X-30.6441 Y19.2198 
G01 X-29.0967 Y19.2198 
G01 X-28.8728 Y19.1843 
G01 X-28.6573 Y19.1143 
G01 X-28.4554 Y19.0114 
G01 X-28.2720 Y18.8782 
G01 X-28.1118 Y18.7180 
G01 X-27.9786 Y18.5346 
G01 X-27.8757 Y18.3327 
G01 X-27.8057 Y18.1172 
G01 X-27.7702 Y17.8933 
G01 X-27.7702 Y17.6667 
G01 X-27.8057 Y17.4428 
G01 X-27.8757 Y17.2273 
G01 X-27.9786 Y17.0254 
G01 X-28.1118 Y16.8420 
G01 X-28.2720 Y16.6818 
G01 X-28.4554 Y16.5486 
G01 X-28.5311 Y16.5100 
G01 X-28.4554 Y16.4714 
G01 X-28.2720 Y16.3382 
G01 X-28.1118 Y16.1780 
G01 X-27.9786 Y15.9946 
G01 X-27.8757 Y15.7927 
G01 X-27.8057 Y15.5772 
G01 X-27.7702 Y15.3533 
G01 X-27.7702 Y15.1267 
G01 X-27.8057 Y14.9028 
G01 X-27.8757 Y14.6873 
G01 X-27.9786 Y14.4854 
G01 X-28.1118 Y14.3020 
G01 X-28.2720 Y14.1418 
G01 X-28.4554 Y14.0086 
G01 X-28.5311 Y13.9700 
G01 X-28.4554 Y13.9314 
G01 X-28.2720 Y13.7982 
G01 X-28.1118 Y13.6380 
G01 X-27.9786 Y13.4546 
G01 X-27.8757 Y13.2527 
G01 X-27.8057 Y13.0372 
G01 X-27.7702 Y12.8133 
G01 X-27.7702 Y12.5867 
G01 X-27.8057 Y12.3628 
G01 X-27.8757 Y12.1473 
G01 X-27.9306 Y12.0395 
G01 X-27.9306 Y11.4394 
G01 X-26.5693 Y11.4394 
G01 X-26.3704 Y11.4079 
G01 X-26.1789 Y11.3457 
G01 X-25.9994 Y11.2542 
G01 X-25.8365 Y11.1359 
G01 X-25.6941 Y10.9935 
G01 X-25.5758 Y10.8306 
G01 X-25.4843 Y10.6511 
G01 X-25.4221 Y10.4596 
G01 X-25.3906 Y10.2607 
G01 X-25.3906 Y7.8394 
G01 X-25.3779 Y7.9196 
G01 X-25.3157 Y8.1111 
G01 X-25.2242 Y8.2905 
G01 X-25.1059 Y8.4535 
G01 X-24.9635 Y8.5959 
G01 X-24.8006 Y8.7142 
G01 X-24.6211 Y8.8057 
G01 X-24.4296 Y8.8679 
G01 X-24.2307 Y8.8994 
G01 X-22.2505 Y8.8994 
G01 X-22.1427 Y8.9543 
G01 X-21.9272 Y9.0243 
G01 X-21.7033 Y9.0598 
G01 X-20.1559 Y9.0598 
G01 X-19.9320 Y9.0243 
G01 X-19.7165 Y8.9543 
G01 X-19.5146 Y8.8514 
G01 X-19.3312 Y8.7182 
G01 X-19.1944 Y8.5814 
G01 X-19.1944 Y10.2713 
G01 X-19.1596 Y10.4912 
G01 X-19.0908 Y10.7029 
G01 X-18.9897 Y10.9013 
G01 X-18.8588 Y11.0814 
G01 X-18.7014 Y11.2388 
G01 X-18.5213 Y11.3697 
G01 X-18.3229 Y11.4708 
G01 X-18.1112 Y11.5396 
G01 X-17.8913 Y11.5744 
G01 X-15.3844 Y11.5744 
G01 X-15.3844 Y12.7490 
G01 X-15.4840 Y12.9445 
G01 X-15.5528 Y13.1562 
G01 X-15.5876 Y13.3761 
G01 X-15.5876 Y13.5987 
G01 X-15.5685 Y13.7191 
G01 X-15.5825 Y13.8256 
G01 X-19.3689 Y13.8256 
G01 X-19.3312 Y13.7982 
G01 X-19.1710 Y13.6380 
G01 X-19.0378 Y13.4546 
G01 X-18.9349 Y13.2527 
G01 X-18.8649 Y13.0372 
G01 X-18.8294 Y12.8133 
G01 X-18.8294 Y12.5867 
G01 X-18.8649 Y12.3628 
G01 X-18.9349 Y12.1473 
G01 X-19.0378 Y11.9454 
G01 X-19.1710 Y11.7620 
G01 X-19.3312 Y11.6018 
G01 X-19.5146 Y11.4686 
G01 X-19.7165 Y11.3657 
G01 X-19.9320 Y11.2957 
G01 X-20.1559 Y11.2602 
G01 X-21.7033 Y11.2602 
G01 X-21.9272 Y11.2957 
G01 X-22.1427 Y11.3657 
G01 X-22.3446 Y11.4686 
G01 X-22.5280 Y11.6018 
G01 X-22.6882 Y11.7620 
G01 X-22.8214 Y11.9454 
G01 X-22.9243 Y12.1473 
G01 X-22.9943 Y12.3628 
G01 X-23.0298 Y12.5867 
G01 X-23.0298 Y12.8133 
G01 X-22.9943 Y13.0372 
G01 X-22.9243 Y13.2527 
G01 X-22.8214 Y13.4546 
G01 X-22.6882 Y13.6380 
G01 X-22.5280 Y13.7982 
G01 X-22.3446 Y13.9314 
G01 X-22.2689 Y13.9700 
G01 X-22.3446 Y14.0086 
G01 X-22.5280 Y14.1418 
G01 X-22.6882 Y14.3020 
G01 X-22.8214 Y14.4854 
G01 X-22.9243 Y14.6873 
G01 X-22.9943 Y14.9028 
G01 X-23.0298 Y15.1267 
G01 X-23.0298 Y15.3533 
G01 X-22.9943 Y15.5772 
G01 X-22.9243 Y15.7927 
G01 X-22.8214 Y15.9946 
G01 X-22.6882 Y16.1780 
G01 X-22.5280 Y16.3382 
G01 X-22.3446 Y16.4714 
G01 X-22.2689 Y16.5100 
G01 X-22.3446 Y16.5486 
G01 X-22.5280 Y16.6818 
G01 X-22.6882 Y16.8420 
G01 X-22.8214 Y17.0254 
G01 X-22.9243 Y17.2273 
G01 X-22.9943 Y17.4428 
G01 X-23.0298 Y17.6667 
G01 X-23.0298 Y17.8933 
G01 X-22.9943 Y18.1172 
G01 X-22.9243 Y18.3327 
G01 X-22.8214 Y18.5346 
G01 X-22.8126 Y18.5467 
G01 X-22.7997 Y18.5721 
G01 X-22.6688 Y18.7522 
G01 X-22.5114 Y18.9096 
G01 X-22.3313 Y19.0405 
G01 X-22.1329 Y19.1416 
G01 X-21.9212 Y19.2104 
G01 X-21.7013 Y19.2452 
G01 X-18.4697 Y19.2452 
G01 X-18.3011 Y19.3150 
G01 X-18.0963 Y19.3699 
G01 X-17.8860 Y19.3976 
G01 X-17.6740 Y19.3976 
G01 X-17.4637 Y19.3699 
G01 X-17.2589 Y19.3150 
G01 X-17.0630 Y19.2339 
G01 X-16.9946 Y19.1944 
G01 X-10.0487 Y19.1944 
G01 X-9.8288 Y19.1596 
G01 X-9.6171 Y19.0908 
G01 X-9.4187 Y18.9897 
G01 X-9.2386 Y18.8588 
G01 X-9.0812 Y18.7014 
G01 X-8.9503 Y18.5213 
G01 X-8.8492 Y18.3229 
G01 X-8.7804 Y18.1112 
G01 X-8.7456 Y17.8913 
G01 X-8.7456 Y16.4968 
G01 X-8.7202 Y16.4714 
G01 X-8.7202 Y15.2786 
G01 X-9.5636 Y14.4352 
G01 X-10.7564 Y14.4352 
G01 X-11.5998 Y15.2786 
G00 Z2.5400 
G00 X-32.2706 Y13.7427 
G01 Z-0.1778 F100.00 
G01 X-32.3293 Y13.6008 F75.00 
G01 X-32.4146 Y13.4732 
G01 X-32.5232 Y13.3646 
G01 X-32.6508 Y13.2793 
G01 X-32.7927 Y13.2206 
G01 X-32.9432 Y13.1906 
G01 X-38.1768 Y13.1906 
G01 X-38.3273 Y13.2206 
G01 X-38.4060 Y13.2531 
G01 X-38.4060 Y12.1469 
G01 X-38.3273 Y12.1794 
G01 X-38.1768 Y12.2094 
G01 X-32.9432 Y12.2094 
G01 X-32.7927 Y12.1794 
G01 X-32.6508 Y12.1207 
G01 X-32.5232 Y12.0354 
G01 X-32.4146 Y11.9268 
G01 X-32.3293 Y11.7992 
G01 X-32.2706 Y11.6573 
G01 X-32.2406 Y11.5068 
G01 X-32.2406 Y11.4394 
G01 X-31.2282 Y11.4394 
G01 X-31.2854 Y11.4686 
G01 X-31.4688 Y11.6018 
G01 X-31.6290 Y11.7620 
G01 X-31.7622 Y11.9454 
G01 X-31.8651 Y12.1473 
G01 X-31.9351 Y12.3628 
G01 X-31.9706 Y12.5867 
G01 X-31.9706 Y12.8133 
G01 X-31.9351 Y13.0372 
G01 X-31.8651 Y13.2527 
G01 X-31.7622 Y13.4546 
G01 X-31.6290 Y13.6380 
G01 X-31.4688 Y13.7982 
G01 X-31.4311 Y13.8256 
G01 X-32.2541 Y13.8256 
G01 X-32.2706 Y13.7427 
G00 Z2.5400 
G00 X-19.1279 Y6.7194 
G01 Z-0.1778 F100.00 
G01 X-19.1349 Y6.7316 F75.00 
G01 X-19.1710 Y6.6820 
G01 X-19.3312 Y6.5218 
G01 X-19.5146 Y6.3886 
G01 X-19.5718 Y6.3594 
G01 X-19.0594 Y6.3594 
G01 X-19.0594 Y6.6301 
G01 X-19.1279 Y6.7194 
G00 Z2.5400 
G00 X-28.4554 Y6.3114 
G01 Z-0.1778 F100.00 
G01 X-28.2720 Y6.1782 F75.00 
G01 X-28.1118 Y6.0180 
G01 X-27.9786 Y5.8346 
G01 X-27.9494 Y5.7774 
G01 X-27.9494 Y6.9226 
G01 X-27.9786 Y6.8654 
G01 X-28.1118 Y6.6820 
G01 X-28.2720 Y6.5218 
G01 X-28.4554 Y6.3886 
G01 X-28.5311 Y6.3500 
G01 X-28.4554 Y6.3114 
G00 Z2.5400 
G00 X-27.9786 Y4.3254 
G01 Z-0.1778 F100.00 
G01 X-28.1118 Y4.1420 F75.00 
G01 X-28.2720 Y3.9818 
G01 X-28.4554 Y3.8486 
G01 X-28.5126 Y3.8194 
G01 X-27.9494 Y3.8194 
G01 X-27.9494 Y4.3826 
G01 X-27.9786 Y4.3254 
G00 Z2.5400 
G00 X-28.4554 Y8.8514 
G01 Z-0.1778 F100.00 
G01 X-28.2720 Y8.7182 F75.00 
G01 X-28.1118 Y8.5580 
G01 X-27.9786 Y8.3746 
G01 X-27.9494 Y8.3174 
G01 X-27.9494 Y8.8806 
G01 X-28.5126 Y8.8806 
G01 X-28.4554 Y8.8514 
G00 Z2.5400 
G00 X-11.7268 Y2.5260 
G01 Z-0.1778 F100.00 
G01 X-11.7268 Y3.8240 F75.00 
G01 X-10.8090 Y4.7418 
G01 X-9.5110 Y4.7418 
G01 X-8.5932 Y3.8240 
G01 X-8.5932 Y3.3114 
G01 X-5.9770 Y3.3114 
G01 X-5.9516 Y3.4394 
G01 X-5.9210 Y3.5132 
G01 X-6.9990 Y3.5132 
G01 X-7.9168 Y4.4310 
G01 X-7.9168 Y4.9436 
G01 X-12.5636 Y4.9436 
G01 X-12.5636 Y4.8430 
G01 X-12.5163 Y4.7813 
G01 X-12.4020 Y4.5833 
G01 X-12.3144 Y4.3720 
G01 X-12.2553 Y4.1511 
G01 X-12.2254 Y3.9243 
G01 X-12.2254 Y3.6957 
G01 X-12.2553 Y3.4689 
G01 X-12.3144 Y3.2480 
G01 X-12.4020 Y3.0367 
G01 X-12.5163 Y2.8387 
G01 X-12.5636 Y2.7770 
G01 X-12.5636 Y0.5243 
G01 X-12.5982 Y0.3057 
G01 X-12.6666 Y0.0951 
G01 X-12.7671 Y-0.1021 
G01 X-12.8973 Y-0.2812 
G01 X-13.0538 Y-0.4377 
G01 X-13.2329 Y-0.5679 
G01 X-13.4301 Y-0.6684 
G01 X-13.6407 Y-0.7368 
G01 X-13.8593 Y-0.7714 
G01 X-24.2407 Y-0.7714 
G01 X-24.4593 Y-0.7368 
G01 X-24.6699 Y-0.6684 
G01 X-24.8671 Y-0.5679 
G01 X-25.0462 Y-0.4377 
G01 X-25.2027 Y-0.2812 
G01 X-25.3329 Y-0.1021 
G01 X-25.4334 Y0.0951 
G01 X-25.5018 Y0.3057 
G01 X-25.5364 Y0.5243 
G01 X-25.5364 Y1.7076 
G01 X-25.5973 Y1.6238 
G01 X-25.7538 Y1.4673 
G01 X-25.9329 Y1.3371 
G01 X-26.1301 Y1.2366 
G01 X-26.3407 Y1.1682 
G01 X-26.5593 Y1.1336 
G01 X-28.5190 Y1.1336 
G01 X-28.6086 Y1.0880 
G01 X-28.8431 Y1.0118 
G01 X-29.0867 Y0.9732 
G01 X-30.6541 Y0.9732 
G01 X-30.8977 Y1.0118 
G01 X-31.1322 Y1.0880 
G01 X-31.3520 Y1.2000 
G01 X-31.5515 Y1.3449 
G01 X-31.7259 Y1.5193 
G01 X-31.8708 Y1.7188 
G01 X-31.9828 Y1.9386 
G01 X-32.0590 Y2.1731 
G01 X-32.0976 Y2.4167 
G01 X-32.0976 Y2.6633 
G01 X-32.0590 Y2.9069 
G01 X-31.9828 Y3.1414 
G01 X-31.8708 Y3.3612 
G01 X-31.7259 Y3.5607 
G01 X-31.6130 Y3.6736 
G01 X-32.1230 Y3.6736 
G01 X-32.1484 Y3.5456 
G01 X-32.2168 Y3.3807 
G01 X-32.3160 Y3.2322 
G01 X-32.4422 Y3.1060 
G01 X-32.5907 Y3.0068 
G01 X-32.7556 Y2.9384 
G01 X-32.9307 Y2.9036 
G01 X-38.1893 Y2.9036 
G01 X-38.3644 Y2.9384 
G01 X-38.4060 Y2.9557 
G01 X-38.4060 Y-1.2893 
G01 X0.4690 Y-1.2893 
G01 X0.4690 Y-0.1417 
G01 X0.4293 Y-0.1682 
G01 X0.2644 Y-0.2366 
G01 X0.0893 Y-0.2714 
G01 X-5.1693 Y-0.2714 
G01 X-5.3444 Y-0.2366 
G01 X-5.5093 Y-0.1682 
G01 X-5.6578 Y-0.0690 
G01 X-5.7840 Y0.0572 
G01 X-5.8832 Y0.2057 
G01 X-5.9516 Y0.3706 
G01 X-5.9770 Y0.4986 
G01 X-10.2707 Y0.4986 
G01 X-10.4893 Y0.5332 
G01 X-10.6999 Y0.6016 
G01 X-10.8971 Y0.7021 
G01 X-11.0762 Y0.8323 
G01 X-11.2327 Y0.9888 
G01 X-11.3629 Y1.1679 
G01 X-11.4634 Y1.3651 
G01 X-11.5318 Y1.5757 
G01 X-11.5664 Y1.7943 
G01 X-11.5664 Y2.3656 
G01 X-11.7268 Y2.5260 
G00 Z2.5400 
G00 X-15.7146 Y3.6957 
G01 Z-0.1778 F100.00 
G01 X-15.7146 Y3.9243 F75.00 
G01 X-15.6847 Y4.1511 
G01 X-15.6256 Y4.3720 
G01 X-15.5380 Y4.5833 
G01 X-15.4237 Y4.7813 
G01 X-15.3764 Y4.8430 
G01 X-15.3764 Y6.4607 
G01 X-15.3418 Y6.6793 
G01 X-15.2734 Y6.8899 
G01 X-15.1729 Y7.0871 
G01 X-15.0427 Y7.2662 
G01 X-14.8862 Y7.4227 
G01 X-14.7071 Y7.5529 
G01 X-14.5099 Y7.6534 
G01 X-14.2993 Y7.7218 
G01 X-14.0807 Y7.7564 
G01 X-6.2393 Y7.7564 
G01 X-6.0207 Y7.7218 
G01 X-5.8101 Y7.6534 
G01 X-5.6129 Y7.5529 
G01 X-5.4338 Y7.4227 
G01 X-5.2773 Y7.2662 
G01 X-5.1471 Y7.0871 
G01 X-5.0466 Y6.8899 
G01 X-4.9782 Y6.6793 
G01 X-4.9436 Y6.4607 
G01 X-4.9436 Y5.8894 
G01 X-4.7832 Y5.7290 
G01 X-4.7832 Y4.4310 
G01 X-5.1328 Y4.0814 
G01 X0.0893 Y4.0814 
G01 X0.2644 Y4.0466 
G01 X0.4293 Y3.9782 
G01 X0.4690 Y3.9517 
G01 X0.4690 Y8.1133 
G01 X0.4293 Y8.0868 
G01 X0.2644 Y8.0184 
G01 X0.0893 Y7.9836 
G01 X-5.1693 Y7.9836 
G01 X-5.3444 Y8.0184 
G01 X-5.5093 Y8.0868 
G01 X-5.6578 Y8.1860 
G01 X-5.7840 Y8.3122 
G01 X-5.8832 Y8.4607 
G01 X-5.9487 Y8.6186 
G01 X-16.2386 Y8.6186 
G01 X-16.2386 Y8.4394 
G01 X-16.2120 Y8.3933 
G01 X-16.1244 Y8.1820 
G01 X-16.0653 Y7.9611 
G01 X-16.0354 Y7.7343 
G01 X-16.0354 Y7.5057 
G01 X-16.0653 Y7.2789 
G01 X-16.1244 Y7.0580 
G01 X-16.2120 Y6.8467 
G01 X-16.3263 Y6.6487 
G01 X-16.3736 Y6.5870 
G01 X-16.3736 Y4.9693 
G01 X-16.4082 Y4.7507 
G01 X-16.4766 Y4.5401 
G01 X-16.5771 Y4.3429 
G01 X-16.7073 Y4.1638 
G01 X-16.8638 Y4.0073 
G01 X-17.0429 Y3.8771 
G01 X-17.2401 Y3.7766 
G01 X-17.4507 Y3.7082 
G01 X-17.6693 Y3.6736 
G01 X-19.1870 Y3.6736 
G01 X-19.0741 Y3.5607 
G01 X-18.9292 Y3.3612 
G01 X-18.8172 Y3.1414 
G01 X-18.7410 Y2.9069 
G01 X-18.7024 Y2.6633 
G01 X-18.7024 Y2.4167 
G01 X-18.7410 Y2.1731 
G01 X-18.7838 Y2.0414 
G01 X-15.3764 Y2.0414 
G01 X-15.3764 Y2.7770 
G01 X-15.4237 Y2.8387 
G01 X-15.5380 Y3.0367 
G01 X-15.6256 Y3.2480 
G01 X-15.6847 Y3.4689 
G01 X-15.7146 Y3.6957 
G00 Z2.5400 
G00 X-31.7259 Y6.5993 
G01 Z-0.1778 F100.00 
G01 X-31.8708 Y6.7988 F75.00 
G01 X-31.9828 Y7.0186 
G01 X-32.0590 Y7.2531 
G01 X-32.0976 Y7.4967 
G01 X-32.0976 Y7.7433 
G01 X-32.0590 Y7.9869 
G01 X-31.9828 Y8.2214 
G01 X-31.8708 Y8.4412 
G01 X-31.7259 Y8.6407 
G01 X-31.6130 Y8.7536 
G01 X-32.1230 Y8.7536 
G01 X-32.1484 Y8.6256 
G01 X-32.2168 Y8.4607 
G01 X-32.3160 Y8.3122 
G01 X-32.4422 Y8.1860 
G01 X-32.5907 Y8.0868 
G01 X-32.7556 Y8.0184 
G01 X-32.9307 Y7.9836 
G01 X-38.1893 Y7.9836 
G01 X-38.3644 Y8.0184 
G01 X-38.4060 Y8.0357 
G01 X-38.4060 Y7.2043 
G01 X-38.3644 Y7.2216 
G01 X-38.1893 Y7.2564 
G01 X-36.0166 Y7.2564 
G01 X-35.8875 Y7.3324 
G01 X-35.7362 Y7.3921 
G01 X-35.5774 Y7.4273 
G01 X-35.4150 Y7.4372 
G01 X-35.2531 Y7.4217 
G01 X-35.0956 Y7.3810 
G01 X-34.9465 Y7.3161 
G01 X-34.8527 Y7.2564 
G01 X-32.9307 Y7.2564 
G01 X-32.7556 Y7.2216 
G01 X-32.5907 Y7.1532 
G01 X-32.4422 Y7.0540 
G01 X-32.3160 Y6.9278 
G01 X-32.2168 Y6.7793 
G01 X-32.1484 Y6.6144 
G01 X-32.1230 Y6.4864 
G01 X-31.6130 Y6.4864 
G01 X-31.7259 Y6.5993 
G00 Z2.5400 
G00 X-19.1864 Y6.4870 
G01 Z-0.1778 F100.00 
G01 X-19.1870 Y6.4864 F75.00 
G00 Z2.5400 
G00 X-22.6107 Y3.7351 
G01 Z-0.1778 F100.00 
G01 X-22.5076 Y3.8100 F75.00 
G01 X-22.6107 Y3.8849 
G01 X-22.7236 Y3.9978 
G01 X-22.7236 Y3.6222 
G01 X-22.6107 Y3.7351 
G00 Z2.5400 
G00 X-22.6722 Y6.2136 
G01 Z-0.1778 F100.00 
G01 X-22.7236 Y6.2136 F75.00 
G01 X-22.7236 Y6.1622 
G01 X-22.6722 Y6.2136 
G00 Z2.5400 
G00 X-12.4286 Y14.7894 
G01 Z-0.1778 F100.00 
G01 X-12.4020 Y14.7433 F75.00 
G01 X-12.3144 Y14.5320 
G01 X-12.2553 Y14.3111 
G01 X-12.2254 Y14.0843 
G01 X-12.2254 Y13.8557 
G01 X-12.2553 Y13.6289 
G01 X-12.3144 Y13.4080 
G01 X-12.4020 Y13.1967 
G01 X-12.4286 Y13.1506 
G01 X-12.4286 Y11.7014 
G01 X-5.9487 Y11.7014 
G01 X-5.8832 Y11.8593 
G01 X-5.7840 Y12.0078 
G01 X-5.6578 Y12.1340 
G01 X-5.5093 Y12.2332 
G01 X-5.3444 Y12.3016 
G01 X-5.1693 Y12.3364 
G01 X0.0893 Y12.3364 
G01 X0.2644 Y12.3016 
G01 X0.4293 Y12.2332 
G01 X0.4690 Y12.2067 
G01 X0.4690 Y15.7333 
G01 X0.4293 Y15.7068 
G01 X0.2644 Y15.6384 
G01 X0.0893 Y15.6036 
G01 X-5.1693 Y15.6036 
G01 X-5.3444 Y15.6384 
G01 X-5.5093 Y15.7068 
G01 X-5.6578 Y15.8060 
G01 X-5.7840 Y15.9322 
G01 X-5.8832 Y16.0807 
G01 X-5.9381 Y16.2132 
G01 X-6.9990 Y16.2132 
G01 X-7.9168 Y17.1310 
G01 X-7.9168 Y18.4290 
G01 X-6.9990 Y19.3468 
G01 X-5.9381 Y19.3468 
G01 X-5.8832 Y19.4793 
G01 X-5.7840 Y19.6278 
G01 X-5.6578 Y19.7540 
G01 X-5.5093 Y19.8532 
G01 X-5.3444 Y19.9216 
G01 X-5.1693 Y19.9564 
G01 X0.0893 Y19.9564 
G01 X0.2644 Y19.9216 
G01 X0.4293 Y19.8532 
G01 X0.4690 Y19.8267 
G01 X0.4690 Y21.5810 
G01 X-38.4060 Y21.5810 
G01 X-38.4060 Y17.3643 
G01 X-38.3644 Y17.3816 
G01 X-38.1893 Y17.4164 
G01 X-32.9307 Y17.4164 
G01 X-32.7556 Y17.3816 
G01 X-32.5907 Y17.3132 
G01 X-32.4422 Y17.2140 
G01 X-32.3160 Y17.0878 
G01 X-32.2168 Y16.9393 
G01 X-32.1513 Y16.7814 
G01 X-31.7419 Y16.7814 
G01 X-31.8708 Y16.9588 
G01 X-31.9828 Y17.1786 
G01 X-32.0590 Y17.4131 
G01 X-32.0976 Y17.6567 
G01 X-32.0976 Y17.9033 
G01 X-32.0590 Y18.1469 
G01 X-31.9828 Y18.3814 
G01 X-31.8708 Y18.6012 
G01 X-31.7259 Y18.8007 
G01 X-31.5515 Y18.9751 
G01 X-31.3520 Y19.1200 
G01 X-31.1322 Y19.2320 
G01 X-30.8977 Y19.3082 
G01 X-30.6541 Y19.3468 
G01 X-29.0867 Y19.3468 
G01 X-28.8431 Y19.3082 
G01 X-28.6086 Y19.2320 
G01 X-28.3888 Y19.1200 
G01 X-28.1893 Y18.9751 
G01 X-28.0149 Y18.8007 
G01 X-27.8700 Y18.6012 
G01 X-27.7580 Y18.3814 
G01 X-27.6818 Y18.1469 
G01 X-27.6432 Y17.9033 
G01 X-27.6432 Y17.6567 
G01 X-27.6818 Y17.4131 
G01 X-27.7580 Y17.1786 
G01 X-27.8700 Y16.9588 
G01 X-28.0149 Y16.7593 
G01 X-28.1893 Y16.5849 
G01 X-28.2924 Y16.5100 
G01 X-28.1893 Y16.4351 
G01 X-28.0149 Y16.2607 
G01 X-27.8700 Y16.0612 
G01 X-27.7580 Y15.8414 
G01 X-27.6818 Y15.6069 
G01 X-27.6432 Y15.3633 
G01 X-27.6432 Y15.1167 
G01 X-27.6818 Y14.8731 
G01 X-27.7580 Y14.6386 
G01 X-27.8700 Y14.4188 
G01 X-28.0149 Y14.2193 
G01 X-28.1893 Y14.0449 
G01 X-28.2924 Y13.9700 
G01 X-28.1893 Y13.8951 
G01 X-28.0149 Y13.7207 
G01 X-27.8700 Y13.5212 
G01 X-27.7580 Y13.3014 
G01 X-27.6818 Y13.0669 
G01 X-27.6432 Y12.8233 
G01 X-27.6432 Y12.5767 
G01 X-27.6818 Y12.3331 
G01 X-27.7580 Y12.0986 
G01 X-27.8036 Y12.0090 
G01 X-27.8036 Y11.5664 
G01 X-26.5593 Y11.5664 
G01 X-26.3407 Y11.5318 
G01 X-26.1301 Y11.4634 
G01 X-25.9329 Y11.3629 
G01 X-25.7538 Y11.2327 
G01 X-25.5973 Y11.0762 
G01 X-25.4671 Y10.8971 
G01 X-25.3666 Y10.6999 
G01 X-25.2982 Y10.4893 
G01 X-25.2636 Y10.2707 
G01 X-25.2636 Y8.4524 
G01 X-25.2027 Y8.5362 
G01 X-25.0462 Y8.6927 
G01 X-24.8671 Y8.8229 
G01 X-24.6699 Y8.9234 
G01 X-24.4593 Y8.9918 
G01 X-24.2407 Y9.0264 
G01 X-22.2810 Y9.0264 
G01 X-22.1914 Y9.0720 
G01 X-21.9569 Y9.1482 
G01 X-21.7133 Y9.1868 
G01 X-20.1459 Y9.1868 
G01 X-19.9023 Y9.1482 
G01 X-19.6678 Y9.0720 
G01 X-19.4480 Y8.9600 
G01 X-19.3214 Y8.8680 
G01 X-19.3214 Y10.2813 
G01 X-19.2834 Y10.5209 
G01 X-19.2085 Y10.7517 
G01 X-19.0983 Y10.9679 
G01 X-18.9557 Y11.1642 
G01 X-18.7842 Y11.3357 
G01 X-18.5879 Y11.4783 
G01 X-18.3717 Y11.5885 
G01 X-18.1409 Y11.6634 
G01 X-17.9013 Y11.7014 
G01 X-15.5114 Y11.7014 
G01 X-15.5114 Y12.7185 
G01 X-15.6017 Y12.8957 
G01 X-15.6766 Y13.1265 
G01 X-15.7146 Y13.3661 
G01 X-15.7146 Y13.6087 
G01 X-15.7004 Y13.6986 
G01 X-19.0581 Y13.6986 
G01 X-18.9292 Y13.5212 
G01 X-18.8172 Y13.3014 
G01 X-18.7410 Y13.0669 
G01 X-18.7024 Y12.8233 
G01 X-18.7024 Y12.5767 
G01 X-18.7410 Y12.3331 
G01 X-18.8172 Y12.0986 
G01 X-18.9292 Y11.8788 
G01 X-19.0741 Y11.6793 
G01 X-19.2485 Y11.5049 
G01 X-19.4480 Y11.3600 
G01 X-19.6678 Y11.2480 
G01 X-19.9023 Y11.1718 
G01 X-20.1459 Y11.1332 
G01 X-21.7133 Y11.1332 
G01 X-21.9569 Y11.1718 
G01 X-22.1914 Y11.2480 
G01 X-22.4112 Y11.3600 
G01 X-22.6107 Y11.5049 
G01 X-22.7851 Y11.6793 
G01 X-22.9300 Y11.8788 
G01 X-23.0420 Y12.0986 
G01 X-23.1182 Y12.3331 
G01 X-23.1568 Y12.5767 
G01 X-23.1568 Y12.8233 
G01 X-23.1182 Y13.0669 
G01 X-23.0420 Y13.3014 
G01 X-22.9300 Y13.5212 
G01 X-22.7851 Y13.7207 
G01 X-22.6107 Y13.8951 
G01 X-22.5076 Y13.9700 
G01 X-22.6107 Y14.0449 
G01 X-22.7851 Y14.2193 
G01 X-22.9300 Y14.4188 
G01 X-23.0420 Y14.6386 
G01 X-23.1182 Y14.8731 
G01 X-23.1568 Y15.1167 
G01 X-23.1568 Y15.3633 
G01 X-23.1182 Y15.6069 
G01 X-23.0420 Y15.8414 
G01 X-22.9300 Y16.0612 
G01 X-22.7851 Y16.2607 
G01 X-22.6107 Y16.4351 
G01 X-22.5076 Y16.5100 
G01 X-22.6107 Y16.5849 
G01 X-22.7851 Y16.7593 
G01 X-22.9300 Y16.9588 
G01 X-23.0420 Y17.1786 
G01 X-23.1182 Y17.4131 
G01 X-23.1568 Y17.6567 
G01 X-23.1568 Y17.9033 
G01 X-23.1182 Y18.1469 
G01 X-23.0420 Y18.3814 
G01 X-22.9300 Y18.6012 
G01 X-22.9213 Y18.6133 
G01 X-22.9083 Y18.6387 
G01 X-22.7657 Y18.8350 
G01 X-22.5942 Y19.0065 
G01 X-22.3979 Y19.1491 
G01 X-22.1817 Y19.2593 
G01 X-21.9509 Y19.3342 
G01 X-21.7113 Y19.3722 
G01 X-18.4949 Y19.3722 
G01 X-18.3420 Y19.4356 
G01 X-18.1211 Y19.4947 
G01 X-17.8943 Y19.5246 
G01 X-17.6656 Y19.5246 
G01 X-17.4389 Y19.4947 
G01 X-17.2180 Y19.4356 
G01 X-17.0067 Y19.3480 
G01 X-16.9606 Y19.3214 
G01 X-10.0387 Y19.3214 
G01 X-9.7991 Y19.2834 
G01 X-9.5683 Y19.2085 
G01 X-9.3521 Y19.0983 
G01 X-9.1558 Y18.9557 
G01 X-8.9843 Y18.7842 
G01 X-8.8417 Y18.5879 
G01 X-8.7315 Y18.3717 
G01 X-8.6566 Y18.1409 
G01 X-8.6186 Y17.9013 
G01 X-8.6186 Y16.5494 
G01 X-8.5932 Y16.5240 
G01 X-8.5932 Y15.2260 
G01 X-9.5110 Y14.3082 
G01 X-10.8090 Y14.3082 
G01 X-11.7268 Y15.2260 
G01 X-11.7268 Y16.2386 
G01 X-12.7903 Y16.2386 
G01 X-12.6517 Y16.0479 
G01 X-12.5415 Y15.8317 
G01 X-12.4666 Y15.6009 
G01 X-12.4286 Y15.3613 
G01 X-12.4286 Y15.1187 
G01 X-12.4286 Y14.7894 
G00 Z2.5400 
G00 X-32.2168 Y13.5407 
G01 Z-0.1778 F100.00 
G01 X-32.3160 Y13.3922 F75.00 
G01 X-32.4422 Y13.2660 
G01 X-32.5907 Y13.1668 
G01 X-32.7556 Y13.0984 
G01 X-32.9307 Y13.0636 
G01 X-38.1893 Y13.0636 
G01 X-38.3644 Y13.0984 
G01 X-38.4060 Y13.1157 
G01 X-38.4060 Y12.2843 
G01 X-38.3644 Y12.3016 
G01 X-38.1893 Y12.3364 
G01 X-32.9307 Y12.3364 
G01 X-32.7556 Y12.3016 
G01 X-32.5907 Y12.2332 
G01 X-32.4422 Y12.1340 
G01 X-32.3160 Y12.0078 
G01 X-32.2168 Y11.8593 
G01 X-32.1484 Y11.6944 
G01 X-32.1230 Y11.5664 
G01 X-31.6130 Y11.5664 
G01 X-31.7259 Y11.6793 
G01 X-31.8708 Y11.8788 
G01 X-31.9828 Y12.0986 
G01 X-32.0590 Y12.3331 
G01 X-32.0976 Y12.5767 
G01 X-32.0976 Y12.8233 
G01 X-32.0590 Y13.0669 
G01 X-31.9828 Y13.3014 
G01 X-31.8708 Y13.5212 
G01 X-31.7419 Y13.6986 
G01 X-32.1513 Y13.6986 
G01 X-32.2168 Y13.5407 
G00 Z2.5400 
G00 X-28.1893 Y6.2751 
G01 Z-0.1778 F100.00 
G01 X-28.0764 Y6.1622 F75.00 
G01 X-28.0764 Y6.5378 
G01 X-28.1893 Y6.4249 
G01 X-28.2924 Y6.3500 
G01 X-28.1893 Y6.2751 
G00 Z2.5400 
G00 X-28.1278 Y3.9464 
G01 Z-0.1778 F100.00 
G01 X-28.0764 Y3.9464 F75.00 
G01 X-28.0764 Y3.9978 
G01 X-28.1278 Y3.9464 
G00 Z2.5400 
G00 X-28.0764 Y8.7022 
G01 Z-0.1778 F100.00 
G01 X-28.0764 Y8.7536 F75.00 
G01 X-28.1278 Y8.7536 
G01 X-28.0764 Y8.7022 
G00 Z2.5400 
G00 X-11.8538 Y2.4734 
G01 Z-0.1778 F100.00 
G01 X-11.8538 Y3.8766 F75.00 
G01 X-10.9138 Y4.8166 
G01 X-12.3900 Y4.8166 
G01 X-12.2878 Y4.6396 
G01 X-12.1939 Y4.4129 
G01 X-12.1304 Y4.1759 
G01 X-12.0984 Y3.9327 
G01 X-12.0984 Y3.6873 
G01 X-12.1304 Y3.4441 
G01 X-12.1939 Y3.2071 
G01 X-12.2878 Y2.9804 
G01 X-12.4105 Y2.7680 
G01 X-12.4366 Y2.7339 
G01 X-12.4366 Y0.5143 
G01 X-12.4744 Y0.2759 
G01 X-12.5489 Y0.0464 
G01 X-12.6585 Y-0.1687 
G01 X-12.8004 Y-0.3639 
G01 X-12.9711 Y-0.5346 
G01 X-13.1663 Y-0.6765 
G01 X-13.3814 Y-0.7861 
G01 X-13.6109 Y-0.8606 
G01 X-13.8493 Y-0.8984 
G01 X-24.2507 Y-0.8984 
G01 X-24.4891 Y-0.8606 
G01 X-24.7186 Y-0.7861 
G01 X-24.9337 Y-0.6765 
G01 X-25.1289 Y-0.5346 
G01 X-25.2996 Y-0.3639 
G01 X-25.4415 Y-0.1687 
G01 X-25.5511 Y0.0464 
G01 X-25.6256 Y0.2759 
G01 X-25.6634 Y0.5143 
G01 X-25.6634 Y1.3780 
G01 X-25.6711 Y1.3704 
G01 X-25.8663 Y1.2285 
G01 X-26.0814 Y1.1189 
G01 X-26.3109 Y1.0444 
G01 X-26.5493 Y1.0066 
G01 X-28.4858 Y1.0066 
G01 X-28.6644 Y0.9326 
G01 X-28.8788 Y0.8752 
G01 X-29.0990 Y0.8462 
G01 X-30.6418 Y0.8462 
G01 X-30.8620 Y0.8752 
G01 X-31.0764 Y0.9326 
G01 X-31.2816 Y1.0176 
G01 X-31.4738 Y1.1286 
G01 X-31.6500 Y1.2638 
G01 X-31.8070 Y1.4208 
G01 X-31.9422 Y1.5970 
G01 X-32.0532 Y1.7892 
G01 X-32.1382 Y1.9944 
G01 X-32.1956 Y2.2088 
G01 X-32.2246 Y2.4290 
G01 X-32.2246 Y2.6510 
G01 X-32.1956 Y2.8712 
G01 X-32.1382 Y3.0856 
G01 X-32.0532 Y3.2908 
G01 X-31.9422 Y3.4830 
G01 X-31.8934 Y3.5466 
G01 X-32.0190 Y3.5466 
G01 X-32.0623 Y3.4133 
G01 X-32.1362 Y3.2684 
G01 X-32.2318 Y3.1368 
G01 X-32.3468 Y3.0218 
G01 X-32.4784 Y2.9262 
G01 X-32.6233 Y2.8523 
G01 X-32.7780 Y2.8020 
G01 X-32.9387 Y2.7766 
G01 X-38.1813 Y2.7766 
G01 X-38.3420 Y2.8020 
G01 X-38.4060 Y2.8228 
G01 X-38.4060 Y-1.2893 
G01 X0.4690 Y-1.2893 
G01 X0.4690 Y-0.2858 
G01 X0.3967 Y-0.3227 
G01 X0.2420 Y-0.3730 
G01 X0.0813 Y-0.3984 
G01 X-5.1613 Y-0.3984 
G01 X-5.3220 Y-0.3730 
G01 X-5.4767 Y-0.3227 
G01 X-5.6216 Y-0.2488 
G01 X-5.7532 Y-0.1532 
G01 X-5.8682 Y-0.0382 
G01 X-5.9638 Y0.0934 
G01 X-6.0377 Y0.2383 
G01 X-6.0810 Y0.3716 
G01 X-10.2807 Y0.3716 
G01 X-10.5191 Y0.4094 
G01 X-10.7486 Y0.4839 
G01 X-10.9637 Y0.5935 
G01 X-11.1589 Y0.7354 
G01 X-11.3296 Y0.9061 
G01 X-11.4715 Y1.1013 
G01 X-11.5811 Y1.3164 
G01 X-11.6556 Y1.5459 
G01 X-11.6934 Y1.7843 
G01 X-11.6934 Y2.3130 
G01 X-11.8538 Y2.4734 
G00 Z2.5400 
G00 X-8.0438 Y4.3784 
G01 Z-0.1778 F100.00 
G01 X-8.0438 Y4.8166 F75.00 
G01 X-9.4062 Y4.8166 
G01 X-8.4662 Y3.8766 
G01 X-8.4662 Y3.4384 
G01 X-7.1038 Y3.4384 
G01 X-8.0438 Y4.3784 
G00 Z2.5400 
G00 X-4.6562 Y5.7816 
G01 Z-0.1778 F100.00 
G01 X-4.6562 Y4.3784 F75.00 
G01 X-4.8262 Y4.2084 
G01 X0.0813 Y4.2084 
G01 X0.2420 Y4.1829 
G01 X0.3967 Y4.1327 
G01 X0.4690 Y4.0958 
G01 X0.4690 Y7.9692 
G01 X0.3967 Y7.9323 
G01 X0.2420 Y7.8820 
G01 X0.0813 Y7.8566 
G01 X-5.1613 Y7.8566 
G01 X-5.3220 Y7.8820 
G01 X-5.4767 Y7.9323 
G01 X-5.6216 Y8.0062 
G01 X-5.7532 Y8.1018 
G01 X-5.8682 Y8.2168 
G01 X-5.9638 Y8.3484 
G01 X-6.0368 Y8.4916 
G01 X-16.1116 Y8.4916 
G01 X-16.1116 Y8.4734 
G01 X-16.0978 Y8.4496 
G01 X-16.0039 Y8.2229 
G01 X-15.9404 Y7.9859 
G01 X-15.9084 Y7.7427 
G01 X-15.9084 Y7.4973 
G01 X-15.9404 Y7.2541 
G01 X-16.0039 Y7.0171 
G01 X-16.0978 Y6.7904 
G01 X-16.2205 Y6.5780 
G01 X-16.2466 Y6.5439 
G01 X-16.2466 Y4.9593 
G01 X-16.2844 Y4.7209 
G01 X-16.3589 Y4.4914 
G01 X-16.4685 Y4.2763 
G01 X-16.6104 Y4.0811 
G01 X-16.7811 Y3.9104 
G01 X-16.9763 Y3.7685 
G01 X-17.1914 Y3.6589 
G01 X-17.4209 Y3.5844 
G01 X-17.6593 Y3.5466 
G01 X-18.9066 Y3.5466 
G01 X-18.8578 Y3.4830 
G01 X-18.7468 Y3.2908 
G01 X-18.6618 Y3.0856 
G01 X-18.6044 Y2.8712 
G01 X-18.5754 Y2.6510 
G01 X-18.5754 Y2.4290 
G01 X-18.6044 Y2.2088 
G01 X-18.6152 Y2.1684 
G01 X-15.5034 Y2.1684 
G01 X-15.5034 Y2.7339 
G01 X-15.5295 Y2.7680 
G01 X-15.6522 Y2.9804 
G01 X-15.7461 Y3.2071 
G01 X-15.8096 Y3.4441 
G01 X-15.8416 Y3.6873 
G01 X-15.8416 Y3.9327 
G01 X-15.8096 Y4.1759 
G01 X-15.7461 Y4.4129 
G01 X-15.6522 Y4.6396 
G01 X-15.5295 Y4.8520 
G01 X-15.5034 Y4.8861 
G01 X-15.5034 Y6.4707 
G01 X-15.4656 Y6.7091 
G01 X-15.3911 Y6.9386 
G01 X-15.2815 Y7.1537 
G01 X-15.1396 Y7.3489 
G01 X-14.9689 Y7.5196 
G01 X-14.7737 Y7.6615 
G01 X-14.5586 Y7.7711 
G01 X-14.3291 Y7.8456 
G01 X-14.0907 Y7.8834 
G01 X-6.2293 Y7.8834 
G01 X-5.9909 Y7.8456 
G01 X-5.7614 Y7.7711 
G01 X-5.5463 Y7.6615 
G01 X-5.3511 Y7.5196 
G01 X-5.1804 Y7.3489 
G01 X-5.0385 Y7.1537 
G01 X-4.9289 Y6.9386 
G01 X-4.8544 Y6.7091 
G01 X-4.8166 Y6.4707 
G01 X-4.8166 Y5.9420 
G01 X-4.6562 Y5.7816 
G00 Z2.5400 
G00 X-31.9422 Y11.7570 
G01 Z-0.1778 F100.00 
G01 X-32.0532 Y11.9492 F75.00 
G01 X-32.1382 Y12.1544 
G01 X-32.1956 Y12.3688 
G01 X-32.2246 Y12.5890 
G01 X-32.2246 Y12.8110 
G01 X-32.1956 Y13.0312 
G01 X-32.1382 Y13.2456 
G01 X-32.0532 Y13.4508 
G01 X-31.9834 Y13.5716 
G01 X-32.0632 Y13.5716 
G01 X-32.1362 Y13.4284 
G01 X-32.2318 Y13.2968 
G01 X-32.3468 Y13.1818 
G01 X-32.4784 Y13.0862 
G01 X-32.6233 Y13.0123 
G01 X-32.7780 Y12.9620 
G01 X-32.9387 Y12.9366 
G01 X-38.1813 Y12.9366 
G01 X-38.3420 Y12.9620 
G01 X-38.4060 Y12.9828 
G01 X-38.4060 Y12.4172 
G01 X-38.3420 Y12.4380 
G01 X-38.1813 Y12.4634 
G01 X-32.9387 Y12.4634 
G01 X-32.7780 Y12.4380 
G01 X-32.6233 Y12.3877 
G01 X-32.4784 Y12.3138 
G01 X-32.3468 Y12.2182 
G01 X-32.2318 Y12.1032 
G01 X-32.1362 Y11.9716 
G01 X-32.0623 Y11.8267 
G01 X-32.0190 Y11.6934 
G01 X-31.8934 Y11.6934 
G01 X-31.9422 Y11.7570 
G00 Z2.5400 
G00 X-32.0623 Y8.4933 
G01 Z-0.1778 F100.00 
G01 X-32.1362 Y8.3484 F75.00 
G01 X-32.2318 Y8.2168 
G01 X-32.3468 Y8.1018 
G01 X-32.4784 Y8.0062 
G01 X-32.6233 Y7.9323 
G01 X-32.7780 Y7.8820 
G01 X-32.9387 Y7.8566 
G01 X-38.1813 Y7.8566 
G01 X-38.3420 Y7.8820 
G01 X-38.4060 Y7.9028 
G01 X-38.4060 Y7.3372 
G01 X-38.3420 Y7.3580 
G01 X-38.1813 Y7.3834 
G01 X-36.0512 Y7.3834 
G01 X-35.9434 Y7.4469 
G01 X-35.7735 Y7.5139 
G01 X-35.5952 Y7.5534 
G01 X-35.4128 Y7.5646 
G01 X-35.2310 Y7.5471 
G01 X-35.0542 Y7.5014 
G01 X-34.8867 Y7.4286 
G01 X-34.8157 Y7.3834 
G01 X-32.9387 Y7.3834 
G01 X-32.7780 Y7.3580 
G01 X-32.6233 Y7.3077 
G01 X-32.4784 Y7.2338 
G01 X-32.3468 Y7.1382 
G01 X-32.2318 Y7.0232 
G01 X-32.1362 Y6.8916 
G01 X-32.0623 Y6.7467 
G01 X-32.0190 Y6.6134 
G01 X-31.8934 Y6.6134 
G01 X-31.9422 Y6.6770 
G01 X-32.0532 Y6.8692 
G01 X-32.1382 Y7.0744 
G01 X-32.1956 Y7.2888 
G01 X-32.2246 Y7.5090 
G01 X-32.2246 Y7.7310 
G01 X-32.1956 Y7.9512 
G01 X-32.1382 Y8.1656 
G01 X-32.0532 Y8.3708 
G01 X-31.9422 Y8.5630 
G01 X-31.8934 Y8.6266 
G01 X-32.0190 Y8.6266 
G01 X-32.0623 Y8.4933 
G00 Z2.5400 
G00 X-18.3829 Y19.5561 
G01 Z-0.1778 F100.00 
G01 X-18.1459 Y19.6196 F75.00 
G01 X-17.9027 Y19.6516 
G01 X-17.6573 Y19.6516 
G01 X-17.4141 Y19.6196 
G01 X-17.1771 Y19.5561 
G01 X-16.9504 Y19.4622 
G01 X-16.9266 Y19.4484 
G01 X-10.0506 Y19.4484 
G01 X-9.8338 Y19.4199 
G01 X-9.6226 Y19.3632 
G01 X-9.4205 Y19.2796 
G01 X-9.2311 Y19.1702 
G01 X-9.0576 Y19.0371 
G01 X-8.9029 Y18.8824 
G01 X-8.7698 Y18.7089 
G01 X-8.6604 Y18.5195 
G01 X-8.5768 Y18.3174 
G01 X-8.5201 Y18.1062 
G01 X-8.4916 Y17.8894 
G01 X-8.4916 Y16.6020 
G01 X-8.4662 Y16.5766 
G01 X-8.4662 Y15.1734 
G01 X-9.4584 Y14.1812 
G01 X-10.8616 Y14.1812 
G01 X-11.8538 Y15.1734 
G01 X-11.8538 Y16.1116 
G01 X-12.5467 Y16.1116 
G01 X-12.4704 Y15.9795 
G01 X-12.3868 Y15.7774 
G01 X-12.3301 Y15.5662 
G01 X-12.3016 Y15.3494 
G01 X-12.3016 Y14.8234 
G01 X-12.2878 Y14.7996 
G01 X-12.1939 Y14.5729 
G01 X-12.1304 Y14.3359 
G01 X-12.0984 Y14.0927 
G01 X-12.0984 Y13.8473 
G01 X-12.1304 Y13.6041 
G01 X-12.1939 Y13.3671 
G01 X-12.2878 Y13.1404 
G01 X-12.3016 Y13.1166 
G01 X-12.3016 Y11.8284 
G01 X-6.0368 Y11.8284 
G01 X-5.9638 Y11.9716 
G01 X-5.8682 Y12.1032 
G01 X-5.7532 Y12.2182 
G01 X-5.6216 Y12.3138 
G01 X-5.4767 Y12.3877 
G01 X-5.3220 Y12.4380 
G01 X-5.1613 Y12.4634 
G01 X0.0813 Y12.4634 
G01 X0.2420 Y12.4380 
G01 X0.3967 Y12.3877 
G01 X0.4690 Y12.3508 
G01 X0.4690 Y15.5892 
G01 X0.3967 Y15.5523 
G01 X0.2420 Y15.5020 
G01 X0.0813 Y15.4766 
G01 X-5.1613 Y15.4766 
G01 X-5.3220 Y15.5020 
G01 X-5.4767 Y15.5523 
G01 X-5.6216 Y15.6262 
G01 X-5.7532 Y15.7218 
G01 X-5.8682 Y15.8368 
G01 X-5.9638 Y15.9684 
G01 X-6.0239 Y16.0862 
G01 X-7.0516 Y16.0862 
G01 X-8.0438 Y17.0784 
G01 X-8.0438 Y18.4816 
G01 X-7.0516 Y19.4738 
G01 X-6.0239 Y19.4738 
G01 X-5.9638 Y19.5916 
G01 X-5.8682 Y19.7232 
G01 X-5.7532 Y19.8382 
G01 X-5.6216 Y19.9338 
G01 X-5.4767 Y20.0077 
G01 X-5.3220 Y20.0580 
G01 X-5.1613 Y20.0834 
G01 X0.0813 Y20.0834 
G01 X0.2420 Y20.0580 
G01 X0.3967 Y20.0077 
G01 X0.4690 Y19.9708 
G01 X0.4690 Y21.5810 
G01 X-38.4060 Y21.5810 
G01 X-38.4060 Y17.4972 
G01 X-38.3420 Y17.5180 
G01 X-38.1813 Y17.5434 
G01 X-32.9387 Y17.5434 
G01 X-32.7780 Y17.5180 
G01 X-32.6233 Y17.4677 
G01 X-32.4784 Y17.3938 
G01 X-32.3468 Y17.2982 
G01 X-32.2318 Y17.1832 
G01 X-32.1362 Y17.0516 
G01 X-32.0632 Y16.9084 
G01 X-31.9834 Y16.9084 
G01 X-32.0532 Y17.0292 
G01 X-32.1382 Y17.2344 
G01 X-32.1956 Y17.4488 
G01 X-32.2246 Y17.6690 
G01 X-32.2246 Y17.8910 
G01 X-32.1956 Y18.1112 
G01 X-32.1382 Y18.3256 
G01 X-32.0532 Y18.5308 
G01 X-31.9422 Y18.7230 
G01 X-31.8070 Y18.8992 
G01 X-31.6500 Y19.0562 
G01 X-31.4738 Y19.1914 
G01 X-31.2816 Y19.3024 
G01 X-31.0764 Y19.3874 
G01 X-30.8620 Y19.4448 
G01 X-30.6418 Y19.4738 
G01 X-29.0990 Y19.4738 
G01 X-28.8788 Y19.4448 
G01 X-28.6644 Y19.3874 
G01 X-28.4592 Y19.3024 
G01 X-28.2670 Y19.1914 
G01 X-28.0908 Y19.0562 
G01 X-27.9338 Y18.8992 
G01 X-27.7986 Y18.7230 
G01 X-27.6876 Y18.5308 
G01 X-27.6026 Y18.3256 
G01 X-27.5452 Y18.1112 
G01 X-27.5162 Y17.8910 
G01 X-27.5162 Y17.6690 
G01 X-27.5452 Y17.4488 
G01 X-27.6026 Y17.2344 
G01 X-27.6876 Y17.0292 
G01 X-27.7986 Y16.8370 
G01 X-27.9338 Y16.6608 
G01 X-28.0846 Y16.5100 
G01 X-27.9338 Y16.3592 
G01 X-27.7986 Y16.1830 
G01 X-27.6876 Y15.9908 
G01 X-27.6026 Y15.7856 
G01 X-27.5452 Y15.5712 
G01 X-27.5162 Y15.3510 
G01 X-27.5162 Y15.1290 
G01 X-27.5452 Y14.9088 
G01 X-27.6026 Y14.6944 
G01 X-27.6876 Y14.4892 
G01 X-27.7986 Y14.2970 
G01 X-27.9338 Y14.1208 
G01 X-28.0846 Y13.9700 
G01 X-27.9338 Y13.8192 
G01 X-27.7986 Y13.6430 
G01 X-27.6876 Y13.4508 
G01 X-27.6026 Y13.2456 
G01 X-27.5452 Y13.0312 
G01 X-27.5162 Y12.8110 
G01 X-27.5162 Y12.5890 
G01 X-27.5452 Y12.3688 
G01 X-27.6026 Y12.1544 
G01 X-27.6766 Y11.9758 
G01 X-27.6766 Y11.6934 
G01 X-26.5493 Y11.6934 
G01 X-26.3109 Y11.6556 
G01 X-26.0814 Y11.5811 
G01 X-25.8663 Y11.4715 
G01 X-25.6711 Y11.3296 
G01 X-25.5004 Y11.1589 
G01 X-25.3585 Y10.9637 
G01 X-25.2489 Y10.7486 
G01 X-25.1744 Y10.5191 
G01 X-25.1366 Y10.2807 
G01 X-25.1366 Y8.7819 
G01 X-25.1289 Y8.7896 
G01 X-24.9337 Y8.9315 
G01 X-24.7186 Y9.0411 
G01 X-24.4891 Y9.1156 
G01 X-24.2507 Y9.1534 
G01 X-22.3142 Y9.1534 
G01 X-22.1356 Y9.2274 
G01 X-21.9212 Y9.2848 
G01 X-21.7010 Y9.3138 
G01 X-20.1582 Y9.3138 
G01 X-19.9380 Y9.2848 
G01 X-19.7236 Y9.2274 
G01 X-19.5184 Y9.1424 
G01 X-19.4484 Y9.1019 
G01 X-19.4484 Y10.2694 
G01 X-19.4199 Y10.4862 
G01 X-19.3632 Y10.6974 
G01 X-19.2796 Y10.8995 
G01 X-19.1702 Y11.0889 
G01 X-19.0371 Y11.2624 
G01 X-18.8824 Y11.4171 
G01 X-18.7089 Y11.5502 
G01 X-18.5195 Y11.6596 
G01 X-18.3174 Y11.7432 
G01 X-18.1062 Y11.7999 
G01 X-17.8894 Y11.8284 
G01 X-15.6384 Y11.8284 
G01 X-15.6384 Y12.6884 
G01 X-15.6728 Y12.7479 
G01 X-15.7564 Y12.9500 
G01 X-15.8131 Y13.1612 
G01 X-15.8416 Y13.3780 
G01 X-15.8416 Y13.5716 
G01 X-18.8166 Y13.5716 
G01 X-18.7468 Y13.4508 
G01 X-18.6618 Y13.2456 
G01 X-18.6044 Y13.0312 
G01 X-18.5754 Y12.8110 
G01 X-18.5754 Y12.5890 
G01 X-18.6044 Y12.3688 
G01 X-18.6618 Y12.1544 
G01 X-18.7468 Y11.9492 
G01 X-18.8578 Y11.7570 
G01 X-18.9930 Y11.5808 
G01 X-19.1500 Y11.4238 
G01 X-19.3262 Y11.2886 
G01 X-19.5184 Y11.1776 
G01 X-19.7236 Y11.0926 
G01 X-19.9380 Y11.0352 
G01 X-20.1582 Y11.0062 
G01 X-21.7010 Y11.0062 
G01 X-21.9212 Y11.0352 
G01 X-22.1356 Y11.0926 
G01 X-22.3408 Y11.1776 
G01 X-22.5330 Y11.2886 
G01 X-22.7092 Y11.4238 
G01 X-22.8662 Y11.5808 
G01 X-23.0014 Y11.7570 
G01 X-23.1124 Y11.9492 
G01 X-23.1974 Y12.1544 
G01 X-23.2548 Y12.3688 
G01 X-23.2838 Y12.5890 
G01 X-23.2838 Y12.8110 
G01 X-23.2548 Y13.0312 
G01 X-23.1974 Y13.2456 
G01 X-23.1124 Y13.4508 
G01 X-23.0014 Y13.6430 
G01 X-22.8662 Y13.8192 
G01 X-22.7154 Y13.9700 
G01 X-22.8662 Y14.1208 
G01 X-23.0014 Y14.2970 
G01 X-23.1124 Y14.4892 
G01 X-23.1974 Y14.6944 
G01 X-23.2548 Y14.9088 
G01 X-23.2838 Y15.1290 
G01 X-23.2838 Y15.3510 
G01 X-23.2548 Y15.5712 
G01 X-23.1974 Y15.7856 
G01 X-23.1124 Y15.9908 
G01 X-23.0014 Y16.1830 
G01 X-22.8662 Y16.3592 
G01 X-22.7154 Y16.5100 
G01 X-22.8662 Y16.6608 
G01 X-23.0014 Y16.8370 
G01 X-23.1124 Y17.0292 
G01 X-23.1974 Y17.2344 
G01 X-23.2548 Y17.4488 
G01 X-23.2838 Y17.6690 
G01 X-23.2838 Y17.8910 
G01 X-23.2548 Y18.1112 
G01 X-23.1974 Y18.3256 
G01 X-23.1124 Y18.5308 
G01 X-23.0014 Y18.7230 
G01 X-22.9802 Y18.7597 
G01 X-22.8471 Y18.9332 
G01 X-22.6924 Y19.0879 
G01 X-22.5189 Y19.2210 
G01 X-22.3295 Y19.3303 
G01 X-22.1274 Y19.4140 
G01 X-21.9162 Y19.4707 
G01 X-21.6994 Y19.4992 
G01 X-18.5202 Y19.4992 
G01 X-18.3829 Y19.5561 
G00 Z2.5400 
G00 Z2.540000
G00 X-17.7800 Y7.6200 
G01 Z-0.2794 F100.00 
G01 Z2.540000
(R2.5400  P1.000000)
(G00 Z2.540000)
G00 X-17.7800 Y17.7800 
G01 Z-1.550000
G01 Z2.540000
(G00 Z2.540000)
G00 X-13.9700 Y13.9700 
G01 Z-1.550000
G01 Z2.540000
(G00 Z2.540000)
G00 X-13.9700 Y3.8100 
G01 Z-1.550000
G01 Z2.540000
(G00 Z2.540000)
G00 X-21.5900 Y17.7800 
G01 Z-1.550000
G01 Z2.540000
(G00 Z2.540000)
G00 X-21.5900 Y15.2400 
G01 Z-1.550000
G01 Z2.540000
(G00 Z2.540000)
G00 X-21.5900 Y12.7000 
G01 Z-1.550000
G01 Z2.540000
(G00 Z2.540000)
G00 X-29.2100 Y12.7000 
G01 Z-1.550000
G01 Z2.540000
(G00 Z2.540000)
G00 X-29.2100 Y15.2400 
G01 Z-1.550000
G01 Z2.540000
(G00 Z2.540000)
G00 X-29.2100 Y17.7800 
G01 Z-1.550000
G01 Z2.540000
(G00 Z2.540000)
G00 X-21.5900 Y7.6200 
G01 Z-1.550000
G01 Z2.540000
(G00 Z2.540000)
G00 X-21.5900 Y5.0800 
G01 Z-1.550000
G01 Z2.540000
(G00 Z2.540000)
G00 X-21.5900 Y2.5400 
G01 Z-1.550000
G01 Z2.540000
(G00 Z2.540000)
G00 X-29.2100 Y2.5400 
G01 Z-1.550000
G01 Z2.540000
(G00 Z2.540000)
G00 X-29.2100 Y5.0800 
G01 Z-1.550000
G01 Z2.540000
(G00 Z2.540000)
G00 X-29.2100 Y7.6200 
G01 Z-1.550000
G01 Z2.540000
(G00 Z2.540000)
G00 X-10.1600 Y3.1750 
G01 Z-1.550000
G01 Z2.540000
(G00 Z2.540000)
G00 X-10.1600 Y15.8750 
G01 Z-1.550000
G01 Z2.540000
(G00 Z2.540000)
G00 X-6.3500 Y17.7800 
G01 Z-1.550000
G01 Z2.540000
(G00 Z2.540000)
G00 X-6.3500 Y5.0800 
G01 Z-1.550000
G01 Z2.540000
G00 Z12.7000 
M05
M02
